(This GCode script was designed to adjust the Z height of a CNC machine according)
(to the minute variations in the surface height in order to achieve a better result in the milling/etching process)
(This script is the output of AutoLevellerAE, 0.9.4u2 Changeset: ...e37a75 @ http://autoleveller.co.uk)
(Author: James Hawthorne PhD. File creation date: 26-08-2018 22:04)
(This program and any of its output is licensed under GPLv2 and as such...)
(AutoLevellerAE comes with ABSOLUTELY NO WARRANTY; for details, see sections 11 and 12 of the GPLv2 @ http://www.gnu.org/licenses/old-licenses/gpl-2.0.html)

(The following is a checklist which can be used before the probe routine starts)
(The checklist may not be entirely correct given your machine, therefore you should make your own adaptations as appropriate)
(1. Make sure wires/clips are attached and the probe is working correctly)
(Test probe connections within control software before starting)
(2. Home all axis)
(3. Load GCode file that contains the probe routine into your software controller)
(4. Jog tool tip close to surface and touch off Z)
(5. Jog Z up a fraction to make sure surface is cleared)
(6. Jog to and touch off X and Y at the desired bottom left corner of the probe area)
(Note: The first probe will touch off Z to 0.0 when it first touches to the surface,)
(all other probe values are relative to this first point)

G90 G21 S20000 G17

M0 (Attach probe wires and clips that need attaching)
(Initialize probe routine)
G0 Z25 (Move clear of the board first)
G1 X1.159 Y1.159 F600 (Move to bottom left corner)
G0 Z1 (Quick move to probe clearance height)
G38.2 Z-1 F100 (Probe to a maximum of the specified probe height at the specified feed rate)
G92 Z0 (Touch off Z to 0 once contact is made)
G0 Z1 (Move Z to above the contact point)
G38.2 Z-1 F50 (Repeat at a more accurate slower rate)
G92 Z0
G0 Z1

G0 Z1
G1 X1.159 Y1.159 F600
G38.2 Z-1 F100
#500=#5422
G0 Z1
G1 X6.51118 Y1.159 F600
G38.2 Z-1 F100
#501=#5422
G0 Z1
G1 X11.86336 Y1.159 F600
G38.2 Z-1 F100
#502=#5422
G0 Z1
G1 X17.21554 Y1.159 F600
G38.2 Z-1 F100
#503=#5422
G0 Z1
G1 X22.56772 Y1.159 F600
G38.2 Z-1 F100
#504=#5422
G0 Z1
G1 X27.9199 Y1.159 F600
G38.2 Z-1 F100
#505=#5422
G0 Z1
G1 X33.27208 Y1.159 F600
G38.2 Z-1 F100
#506=#5422
G0 Z1
G1 X38.62426 Y1.159 F600
G38.2 Z-1 F100
#507=#5422
G0 Z1
G1 X43.97644 Y1.159 F600
G38.2 Z-1 F100
#508=#5422
G0 Z1
G1 X49.32862 Y1.159 F600
G38.2 Z-1 F100
#509=#5422
G0 Z1
G1 X54.6808 Y1.159 F600
G38.2 Z-1 F100
#510=#5422
G0 Z1
G1 X60.03298 Y1.159 F600
G38.2 Z-1 F100
#511=#5422
G0 Z1
G1 X65.38516 Y1.159 F600
G38.2 Z-1 F100
#512=#5422
G0 Z1
G1 X65.38516 Y6.179 F600
G38.2 Z-1 F100
#525=#5422
G0 Z1
G1 X60.03298 Y6.179 F600
G38.2 Z-1 F100
#524=#5422
G0 Z1
G1 X54.6808 Y6.179 F600
G38.2 Z-1 F100
#523=#5422
G0 Z1
G1 X49.32862 Y6.179 F600
G38.2 Z-1 F100
#522=#5422
G0 Z1
G1 X43.97644 Y6.179 F600
G38.2 Z-1 F100
#521=#5422
G0 Z1
G1 X38.62426 Y6.179 F600
G38.2 Z-1 F100
#520=#5422
G0 Z1
G1 X33.27208 Y6.179 F600
G38.2 Z-1 F100
#519=#5422
G0 Z1
G1 X27.9199 Y6.179 F600
G38.2 Z-1 F100
#518=#5422
G0 Z1
G1 X22.56772 Y6.179 F600
G38.2 Z-1 F100
#517=#5422
G0 Z1
G1 X17.21554 Y6.179 F600
G38.2 Z-1 F100
#516=#5422
G0 Z1
G1 X11.86336 Y6.179 F600
G38.2 Z-1 F100
#515=#5422
G0 Z1
G1 X6.51118 Y6.179 F600
G38.2 Z-1 F100
#514=#5422
G0 Z1
G1 X1.159 Y6.179 F600
G38.2 Z-1 F100
#513=#5422
G0 Z1
G1 X1.159 Y11.199 F600
G38.2 Z-1 F100
#526=#5422
G0 Z1
G1 X6.51118 Y11.199 F600
G38.2 Z-1 F100
#527=#5422
G0 Z1
G1 X11.86336 Y11.199 F600
G38.2 Z-1 F100
#528=#5422
G0 Z1
G1 X17.21554 Y11.199 F600
G38.2 Z-1 F100
#529=#5422
G0 Z1
G1 X22.56772 Y11.199 F600
G38.2 Z-1 F100
#530=#5422
G0 Z1
G1 X27.9199 Y11.199 F600
G38.2 Z-1 F100
#531=#5422
G0 Z1
G1 X33.27208 Y11.199 F600
G38.2 Z-1 F100
#532=#5422
G0 Z1
G1 X38.62426 Y11.199 F600
G38.2 Z-1 F100
#533=#5422
G0 Z1
G1 X43.97644 Y11.199 F600
G38.2 Z-1 F100
#534=#5422
G0 Z1
G1 X49.32862 Y11.199 F600
G38.2 Z-1 F100
#535=#5422
G0 Z1
G1 X54.6808 Y11.199 F600
G38.2 Z-1 F100
#536=#5422
G0 Z1
G1 X60.03298 Y11.199 F600
G38.2 Z-1 F100
#537=#5422
G0 Z1
G1 X65.38516 Y11.199 F600
G38.2 Z-1 F100
#538=#5422
G0 Z1
G1 X65.38516 Y16.219 F600
G38.2 Z-1 F100
#551=#5422
G0 Z1
G1 X60.03298 Y16.219 F600
G38.2 Z-1 F100
#550=#5422
G0 Z1
G1 X54.6808 Y16.219 F600
G38.2 Z-1 F100
#549=#5422
G0 Z1
G1 X49.32862 Y16.219 F600
G38.2 Z-1 F100
#548=#5422
G0 Z1
G1 X43.97644 Y16.219 F600
G38.2 Z-1 F100
#547=#5422
G0 Z1
G1 X38.62426 Y16.219 F600
G38.2 Z-1 F100
#546=#5422
G0 Z1
G1 X33.27208 Y16.219 F600
G38.2 Z-1 F100
#545=#5422
G0 Z1
G1 X27.9199 Y16.219 F600
G38.2 Z-1 F100
#544=#5422
G0 Z1
G1 X22.56772 Y16.219 F600
G38.2 Z-1 F100
#543=#5422
G0 Z1
G1 X17.21554 Y16.219 F600
G38.2 Z-1 F100
#542=#5422
G0 Z1
G1 X11.86336 Y16.219 F600
G38.2 Z-1 F100
#541=#5422
G0 Z1
G1 X6.51118 Y16.219 F600
G38.2 Z-1 F100
#540=#5422
G0 Z1
G1 X1.159 Y16.219 F600
G38.2 Z-1 F100
#539=#5422
G0 Z1
G1 X1.159 Y21.239 F600
G38.2 Z-1 F100
#552=#5422
G0 Z1
G1 X6.51118 Y21.239 F600
G38.2 Z-1 F100
#553=#5422
G0 Z1
G1 X11.86336 Y21.239 F600
G38.2 Z-1 F100
#554=#5422
G0 Z1
G1 X17.21554 Y21.239 F600
G38.2 Z-1 F100
#555=#5422
G0 Z1
G1 X22.56772 Y21.239 F600
G38.2 Z-1 F100
#556=#5422
G0 Z1
G1 X27.9199 Y21.239 F600
G38.2 Z-1 F100
#557=#5422
G0 Z1
G1 X33.27208 Y21.239 F600
G38.2 Z-1 F100
#558=#5422
G0 Z1
G1 X38.62426 Y21.239 F600
G38.2 Z-1 F100
#559=#5422
G0 Z1
G1 X43.97644 Y21.239 F600
G38.2 Z-1 F100
#560=#5422
G0 Z1
G1 X49.32862 Y21.239 F600
G38.2 Z-1 F100
#561=#5422
G0 Z1
G1 X54.6808 Y21.239 F600
G38.2 Z-1 F100
#562=#5422
G0 Z1
G1 X60.03298 Y21.239 F600
G38.2 Z-1 F100
#563=#5422
G0 Z1
G1 X65.38516 Y21.239 F600
G38.2 Z-1 F100
#564=#5422
G0 Z1
G1 X65.38516 Y26.259 F600
G38.2 Z-1 F100
#577=#5422
G0 Z1
G1 X60.03298 Y26.259 F600
G38.2 Z-1 F100
#576=#5422
G0 Z1
G1 X54.6808 Y26.259 F600
G38.2 Z-1 F100
#575=#5422
G0 Z1
G1 X49.32862 Y26.259 F600
G38.2 Z-1 F100
#574=#5422
G0 Z1
G1 X43.97644 Y26.259 F600
G38.2 Z-1 F100
#573=#5422
G0 Z1
G1 X38.62426 Y26.259 F600
G38.2 Z-1 F100
#572=#5422
G0 Z1
G1 X33.27208 Y26.259 F600
G38.2 Z-1 F100
#571=#5422
G0 Z1
G1 X27.9199 Y26.259 F600
G38.2 Z-1 F100
#570=#5422
G0 Z1
G1 X22.56772 Y26.259 F600
G38.2 Z-1 F100
#569=#5422
G0 Z1
G1 X17.21554 Y26.259 F600
G38.2 Z-1 F100
#568=#5422
G0 Z1
G1 X11.86336 Y26.259 F600
G38.2 Z-1 F100
#567=#5422
G0 Z1
G1 X6.51118 Y26.259 F600
G38.2 Z-1 F100
#566=#5422
G0 Z1
G1 X1.159 Y26.259 F600
G38.2 Z-1 F100
#565=#5422
G0 Z1
G1 X1.159 Y31.279 F600
G38.2 Z-1 F100
#578=#5422
G0 Z1
G1 X6.51118 Y31.279 F600
G38.2 Z-1 F100
#579=#5422
G0 Z1
G1 X11.86336 Y31.279 F600
G38.2 Z-1 F100
#580=#5422
G0 Z1
G1 X17.21554 Y31.279 F600
G38.2 Z-1 F100
#581=#5422
G0 Z1
G1 X22.56772 Y31.279 F600
G38.2 Z-1 F100
#582=#5422
G0 Z1
G1 X27.9199 Y31.279 F600
G38.2 Z-1 F100
#583=#5422
G0 Z1
G1 X33.27208 Y31.279 F600
G38.2 Z-1 F100
#584=#5422
G0 Z1
G1 X38.62426 Y31.279 F600
G38.2 Z-1 F100
#585=#5422
G0 Z1
G1 X43.97644 Y31.279 F600
G38.2 Z-1 F100
#586=#5422
G0 Z1
G1 X49.32862 Y31.279 F600
G38.2 Z-1 F100
#587=#5422
G0 Z1
G1 X54.6808 Y31.279 F600
G38.2 Z-1 F100
#588=#5422
G0 Z1
G1 X60.03298 Y31.279 F600
G38.2 Z-1 F100
#589=#5422
G0 Z1
G1 X65.38516 Y31.279 F600
G38.2 Z-1 F100
#590=#5422
G0 Z1
G1 X65.38516 Y36.299 F600
G38.2 Z-1 F100
#603=#5422
G0 Z1
G1 X60.03298 Y36.299 F600
G38.2 Z-1 F100
#602=#5422
G0 Z1
G1 X54.6808 Y36.299 F600
G38.2 Z-1 F100
#601=#5422
G0 Z1
G1 X49.32862 Y36.299 F600
G38.2 Z-1 F100
#600=#5422
G0 Z1
G1 X43.97644 Y36.299 F600
G38.2 Z-1 F100
#599=#5422
G0 Z1
G1 X38.62426 Y36.299 F600
G38.2 Z-1 F100
#598=#5422
G0 Z1
G1 X33.27208 Y36.299 F600
G38.2 Z-1 F100
#597=#5422
G0 Z1
G1 X27.9199 Y36.299 F600
G38.2 Z-1 F100
#596=#5422
G0 Z1
G1 X22.56772 Y36.299 F600
G38.2 Z-1 F100
#595=#5422
G0 Z1
G1 X17.21554 Y36.299 F600
G38.2 Z-1 F100
#594=#5422
G0 Z1
G1 X11.86336 Y36.299 F600
G38.2 Z-1 F100
#593=#5422
G0 Z1
G1 X6.51118 Y36.299 F600
G38.2 Z-1 F100
#592=#5422
G0 Z1
G1 X1.159 Y36.299 F600
G38.2 Z-1 F100
#591=#5422
G0 Z1
G1 X1.159 Y41.319 F600
G38.2 Z-1 F100
#604=#5422
G0 Z1
G1 X6.51118 Y41.319 F600
G38.2 Z-1 F100
#605=#5422
G0 Z1
G1 X11.86336 Y41.319 F600
G38.2 Z-1 F100
#606=#5422
G0 Z1
G1 X17.21554 Y41.319 F600
G38.2 Z-1 F100
#607=#5422
G0 Z1
G1 X22.56772 Y41.319 F600
G38.2 Z-1 F100
#608=#5422
G0 Z1
G1 X27.9199 Y41.319 F600
G38.2 Z-1 F100
#609=#5422
G0 Z1
G1 X33.27208 Y41.319 F600
G38.2 Z-1 F100
#610=#5422
G0 Z1
G1 X38.62426 Y41.319 F600
G38.2 Z-1 F100
#611=#5422
G0 Z1
G1 X43.97644 Y41.319 F600
G38.2 Z-1 F100
#612=#5422
G0 Z1
G1 X49.32862 Y41.319 F600
G38.2 Z-1 F100
#613=#5422
G0 Z1
G1 X54.6808 Y41.319 F600
G38.2 Z-1 F100
#614=#5422
G0 Z1
G1 X60.03298 Y41.319 F600
G38.2 Z-1 F100
#615=#5422
G0 Z1
G1 X65.38516 Y41.319 F600
G38.2 Z-1 F100
#616=#5422
G0 Z1
G1 X65.38516 Y46.339 F600
G38.2 Z-1 F100
#629=#5422
G0 Z1
G1 X60.03298 Y46.339 F600
G38.2 Z-1 F100
#628=#5422
G0 Z1
G1 X54.6808 Y46.339 F600
G38.2 Z-1 F100
#627=#5422
G0 Z1
G1 X49.32862 Y46.339 F600
G38.2 Z-1 F100
#626=#5422
G0 Z1
G1 X43.97644 Y46.339 F600
G38.2 Z-1 F100
#625=#5422
G0 Z1
G1 X38.62426 Y46.339 F600
G38.2 Z-1 F100
#624=#5422
G0 Z1
G1 X33.27208 Y46.339 F600
G38.2 Z-1 F100
#623=#5422
G0 Z1
G1 X27.9199 Y46.339 F600
G38.2 Z-1 F100
#622=#5422
G0 Z1
G1 X22.56772 Y46.339 F600
G38.2 Z-1 F100
#621=#5422
G0 Z1
G1 X17.21554 Y46.339 F600
G38.2 Z-1 F100
#620=#5422
G0 Z1
G1 X11.86336 Y46.339 F600
G38.2 Z-1 F100
#619=#5422
G0 Z1
G1 X6.51118 Y46.339 F600
G38.2 Z-1 F100
#618=#5422
G0 Z1
G1 X1.159 Y46.339 F600
G38.2 Z-1 F100
#617=#5422
G0 Z1.00000

M0 (Detach any clips used for probing)

G94 ( Millimeters per minute feed rate. )
G21 ( Units == Millimeters. )

G90 ( Absolute coordinates. )
G64 P0.01000 ( set maximum deviation from commanded toolpath )
G21
G90
G94
G21
G90
G94
F400.00
G00 Z1.0000
M03 S18000
G4 P1
G00 X4.8590Y3.7690
#102=[#513+0.48008*#500-0.48008*#513]
#101=[#514+0.48008*#501-0.48008*#514]
#100=[#102+0.69131*#101-0.69131*#102]
G01 Z[#100+-0.1000]
#102=[#513+0.35679*#500-0.35679*#513]
#101=[#514+0.35679*#501-0.35679*#514]
#100=[#102+0.64340*#101-0.64340*#102]
G01 X4.6026Y4.3879Z[#100+-0.1000]
#102=[#513+0.26243*#500-0.26243*#513]
#101=[#514+0.26243*#501-0.26243*#514]
#100=[#102+0.55490*#101-0.55490*#102]
G01 X4.1289Y4.8616Z[#100+-0.1000]
#102=[#513+0.21135*#500-0.21135*#513]
#101=[#514+0.21135*#501-0.21135*#514]
#100=[#102+0.43926*#101-0.43926*#102]
G01 X3.5100Y5.1180Z[#100+-0.1000]
#102=[#513+0.21135*#500-0.21135*#513]
#101=[#514+0.21135*#501-0.21135*#514]
#100=[#102+0.31408*#101-0.31408*#102]
G01 X2.8400Y5.1180Z[#100+-0.1000]
#102=[#513+0.26243*#500-0.26243*#513]
#101=[#514+0.26243*#501-0.26243*#514]
#100=[#102+0.19844*#101-0.19844*#102]
G01 X2.2211Y4.8616Z[#100+-0.1000]
#102=[#513+0.35679*#500-0.35679*#513]
#101=[#514+0.35679*#501-0.35679*#514]
#100=[#102+0.10994*#101-0.10994*#102]
G01 X1.7474Y4.3879Z[#100+-0.1000]
#102=[#513+0.48008*#500-0.48008*#513]
#101=[#514+0.48008*#501-0.48008*#514]
#100=[#102+0.06203*#101-0.06203*#102]
G01 X1.4910Y3.7690Z[#100+-0.1000]
#102=[#513+0.61355*#500-0.61355*#513]
#101=[#514+0.61355*#501-0.61355*#514]
#100=[#102+0.06203*#101-0.06203*#102]
G01 X1.4910Y3.0990Z[#100+-0.1000]
#102=[#513+0.73683*#500-0.73683*#513]
#101=[#514+0.73683*#501-0.73683*#514]
#100=[#102+0.10994*#101-0.10994*#102]
G01 X1.7474Y2.4801Z[#100+-0.1000]
#102=[#513+0.83120*#500-0.83120*#513]
#101=[#514+0.83120*#501-0.83120*#514]
#100=[#102+0.19844*#101-0.19844*#102]
G01 X2.2211Y2.0064Z[#100+-0.1000]
#102=[#513+0.88227*#500-0.88227*#513]
#101=[#514+0.88227*#501-0.88227*#514]
#100=[#102+0.31408*#101-0.31408*#102]
G01 X2.8400Y1.7500Z[#100+-0.1000]
#102=[#513+0.88227*#500-0.88227*#513]
#101=[#514+0.88227*#501-0.88227*#514]
#100=[#102+0.43926*#101-0.43926*#102]
G01 X3.5100Y1.7500Z[#100+-0.1000]
#102=[#513+0.83120*#500-0.83120*#513]
#101=[#514+0.83120*#501-0.83120*#514]
#100=[#102+0.55490*#101-0.55490*#102]
G01 X4.1289Y2.0064Z[#100+-0.1000]
#102=[#513+0.73683*#500-0.73683*#513]
#101=[#514+0.73683*#501-0.73683*#514]
#100=[#102+0.64340*#101-0.64340*#102]
G01 X4.6026Y2.4801Z[#100+-0.1000]
#102=[#513+0.61355*#500-0.61355*#513]
#101=[#514+0.61355*#501-0.61355*#514]
#100=[#102+0.69131*#101-0.69131*#102]
G01 X4.8590Y3.0990Z[#100+-0.1000]
#102=[#513+0.48008*#500-0.48008*#513]
#101=[#514+0.48008*#501-0.48008*#514]
#100=[#102+0.69131*#101-0.69131*#102]
G01 X4.8590Y3.7690Z[#100+-0.1000]
G00 Z1.0000
G00 X5.0210Y3.8012
#102=[#513+0.47367*#500-0.47367*#513]
#101=[#514+0.47367*#501-0.47367*#514]
#100=[#102+0.72158*#101-0.72158*#102]
G01 Z[#100+-0.1000]
#102=[#513+0.33851*#500-0.33851*#513]
#101=[#514+0.33851*#501-0.33851*#514]
#100=[#102+0.66907*#101-0.66907*#102]
G01 X4.7400Y4.4797Z[#100+-0.1000]
#102=[#513+0.23506*#500-0.23506*#513]
#101=[#514+0.23506*#501-0.23506*#514]
#100=[#102+0.57205*#101-0.57205*#102]
G01 X4.2207Y4.9990Z[#100+-0.1000]
#102=[#513+0.17908*#500-0.17908*#513]
#101=[#514+0.17908*#501-0.17908*#514]
#100=[#102+0.44528*#101-0.44528*#102]
G01 X3.5422Y5.2800Z[#100+-0.1000]
#102=[#513+0.17908*#500-0.17908*#513]
#101=[#514+0.17908*#501-0.17908*#514]
#100=[#102+0.30806*#101-0.30806*#102]
G01 X2.8078Y5.2800Z[#100+-0.1000]
#102=[#513+0.23506*#500-0.23506*#513]
#101=[#514+0.23506*#501-0.23506*#514]
#100=[#102+0.18129*#101-0.18129*#102]
G01 X2.1293Y4.9990Z[#100+-0.1000]
#102=[#513+0.33851*#500-0.33851*#513]
#101=[#514+0.33851*#501-0.33851*#514]
#100=[#102+0.08426*#101-0.08426*#102]
G01 X1.6100Y4.4797Z[#100+-0.1000]
#102=[#513+0.47367*#500-0.47367*#513]
#101=[#514+0.47367*#501-0.47367*#514]
#100=[#102+0.03176*#101-0.03176*#102]
G01 X1.3290Y3.8012Z[#100+-0.1000]
#102=[#513+0.61996*#500-0.61996*#513]
#101=[#514+0.61996*#501-0.61996*#514]
#100=[#102+0.03176*#101-0.03176*#102]
G01 X1.3290Y3.0668Z[#100+-0.1000]
#102=[#513+0.75512*#500-0.75512*#513]
#101=[#514+0.75512*#501-0.75512*#514]
#100=[#102+0.08426*#101-0.08426*#102]
G01 X1.6100Y2.3883Z[#100+-0.1000]
#102=[#513+0.85857*#500-0.85857*#513]
#101=[#514+0.85857*#501-0.85857*#514]
#100=[#102+0.18129*#101-0.18129*#102]
G01 X2.1293Y1.8690Z[#100+-0.1000]
#102=[#513+0.91454*#500-0.91454*#513]
#101=[#514+0.91454*#501-0.91454*#514]
#100=[#102+0.30806*#101-0.30806*#102]
G01 X2.8078Y1.5880Z[#100+-0.1000]
#102=[#513+0.91454*#500-0.91454*#513]
#101=[#514+0.91454*#501-0.91454*#514]
#100=[#102+0.44528*#101-0.44528*#102]
G01 X3.5422Y1.5880Z[#100+-0.1000]
#102=[#513+0.85857*#500-0.85857*#513]
#101=[#514+0.85857*#501-0.85857*#514]
#100=[#102+0.57205*#101-0.57205*#102]
G01 X4.2207Y1.8690Z[#100+-0.1000]
#102=[#513+0.75512*#500-0.75512*#513]
#101=[#514+0.75512*#501-0.75512*#514]
#100=[#102+0.66907*#101-0.66907*#102]
G01 X4.7400Y2.3883Z[#100+-0.1000]
#102=[#513+0.61996*#500-0.61996*#513]
#101=[#514+0.61996*#501-0.61996*#514]
#100=[#102+0.72158*#101-0.72158*#102]
G01 X5.0210Y3.0668Z[#100+-0.1000]
#102=[#513+0.47367*#500-0.47367*#513]
#101=[#514+0.47367*#501-0.47367*#514]
#100=[#102+0.72158*#101-0.72158*#102]
G01 X5.0210Y3.8012Z[#100+-0.1000]
G00 Z1.0000
G00 X5.1830Y3.8334
#102=[#513+0.46725*#500-0.46725*#513]
#101=[#514+0.46725*#501-0.46725*#514]
#100=[#102+0.75184*#101-0.75184*#102]
G01 Z[#100+-0.1000]
#102=[#513+0.32024*#500-0.32024*#513]
#101=[#514+0.32024*#501-0.32024*#514]
#100=[#102+0.69473*#101-0.69473*#102]
G01 X4.8773Y4.5714Z[#100+-0.1000]
#102=[#513+0.20771*#500-0.20771*#513]
#101=[#514+0.20771*#501-0.20771*#514]
#100=[#102+0.58918*#101-0.58918*#102]
G01 X4.3124Y5.1363Z[#100+-0.1000]
#102=[#513+0.14681*#500-0.14681*#513]
#101=[#514+0.14681*#501-0.14681*#514]
#100=[#102+0.45129*#101-0.45129*#102]
G01 X3.5744Y5.4420Z[#100+-0.1000]
#102=[#513+0.14681*#500-0.14681*#513]
#101=[#514+0.14681*#501-0.14681*#514]
#100=[#102+0.30205*#101-0.30205*#102]
G01 X2.7756Y5.4420Z[#100+-0.1000]
#102=[#513+0.20771*#500-0.20771*#513]
#101=[#514+0.20771*#501-0.20771*#514]
#100=[#102+0.16416*#101-0.16416*#102]
G01 X2.0376Y5.1363Z[#100+-0.1000]
#102=[#513+0.32024*#500-0.32024*#513]
#101=[#514+0.32024*#501-0.32024*#514]
#100=[#102+0.05861*#101-0.05861*#102]
G01 X1.4727Y4.5714Z[#100+-0.1000]
#102=[#513+0.46725*#500-0.46725*#513]
#101=[#514+0.46725*#501-0.46725*#514]
#100=[#102+0.00149*#101-0.00149*#102]
G01 X1.1670Y3.8334Z[#100+-0.1000]
#102=[#513+0.62637*#500-0.62637*#513]
#101=[#514+0.62637*#501-0.62637*#514]
#100=[#102+0.00149*#101-0.00149*#102]
G01 X1.1670Y3.0346Z[#100+-0.1000]
#102=[#513+0.77339*#500-0.77339*#513]
#101=[#514+0.77339*#501-0.77339*#514]
#100=[#102+0.05861*#101-0.05861*#102]
G01 X1.4727Y2.2966Z[#100+-0.1000]
#102=[#513+0.88592*#500-0.88592*#513]
#101=[#514+0.88592*#501-0.88592*#514]
#100=[#102+0.16416*#101-0.16416*#102]
G01 X2.0376Y1.7317Z[#100+-0.1000]
#102=[#513+0.94681*#500-0.94681*#513]
#101=[#514+0.94681*#501-0.94681*#514]
#100=[#102+0.30205*#101-0.30205*#102]
G01 X2.7756Y1.4260Z[#100+-0.1000]
#102=[#513+0.94681*#500-0.94681*#513]
#101=[#514+0.94681*#501-0.94681*#514]
#100=[#102+0.45129*#101-0.45129*#102]
G01 X3.5744Y1.4260Z[#100+-0.1000]
#102=[#513+0.88592*#500-0.88592*#513]
#101=[#514+0.88592*#501-0.88592*#514]
#100=[#102+0.58918*#101-0.58918*#102]
G01 X4.3124Y1.7317Z[#100+-0.1000]
#102=[#513+0.77339*#500-0.77339*#513]
#101=[#514+0.77339*#501-0.77339*#514]
#100=[#102+0.69473*#101-0.69473*#102]
G01 X4.8773Y2.2966Z[#100+-0.1000]
#102=[#513+0.62637*#500-0.62637*#513]
#101=[#514+0.62637*#501-0.62637*#514]
#100=[#102+0.75184*#101-0.75184*#102]
G01 X5.1830Y3.0346Z[#100+-0.1000]
#102=[#513+0.46725*#500-0.46725*#513]
#101=[#514+0.46725*#501-0.46725*#514]
#100=[#102+0.75184*#101-0.75184*#102]
G01 X5.1830Y3.8334Z[#100+-0.1000]
G00 Z1.0000
G00 X10.7882Y11.9787
#102=[#540+0.84468*#527-0.84468*#540]
#101=[#541+0.84468*#528-0.84468*#541]
#100=[#102+0.79912*#101-0.79912*#102]
G01 Z[#100+-0.1000]
#102=[#540+0.85245*#527-0.85245*#540]
#101=[#541+0.85245*#528-0.85245*#541]
#100=[#102+0.80640*#101-0.80640*#102]
G01 X10.8272Y11.9397Z[#100+-0.1000]
#102=[#540+0.85665*#527-0.85665*#540]
#101=[#541+0.85665*#528-0.85665*#541]
#100=[#102+0.81591*#101-0.81591*#102]
G01 X10.8781Y11.9186Z[#100+-0.1000]
#102=[#540+0.85110*#527-0.85110*#540]
#101=[#541+0.85110*#528-0.85110*#541]
#100=[#102+0.80732*#101-0.80732*#102]
G01 X10.8321Y11.9465Z[#100+-0.1000]
#102=[#540+0.84468*#527-0.84468*#540]
#101=[#541+0.84468*#528-0.84468*#541]
#100=[#102+0.79912*#101-0.79912*#102]
G01 X10.7882Y11.9787Z[#100+-0.1000]
G00 Z1.0000
G00 X11.2342Y11.7711
#102=[#540+0.88604*#527-0.88604*#540]
#101=[#541+0.88604*#528-0.88604*#541]
#100=[#102+0.88245*#101-0.88245*#102]
G01 Z[#100+-0.1000]
#102=[#540+0.89024*#527-0.89024*#540]
#101=[#541+0.89024*#528-0.89024*#541]
#100=[#102+0.89198*#101-0.89198*#102]
G01 X11.2852Y11.7500Z[#100+-0.1000]
#102=[#540+0.89024*#527-0.89024*#540]
#101=[#541+0.89024*#528-0.89024*#541]
#100=[#102+0.90227*#101-0.90227*#102]
G01 X11.3403Y11.7500Z[#100+-0.1000]
#102=[#540+0.88835*#527-0.88835*#540]
#101=[#541+0.88835*#528-0.88835*#541]
#100=[#102+0.89121*#101-0.89121*#102]
G01 X11.2811Y11.7595Z[#100+-0.1000]
#102=[#540+0.88604*#527-0.88604*#540]
#101=[#541+0.88604*#528-0.88604*#541]
#100=[#102+0.88245*#101-0.88245*#102]
G01 X11.2342Y11.7711Z[#100+-0.1000]
G00 Z1.0000
G00 X11.7257Y11.7500
#102=[#540+0.89024*#527-0.89024*#540]
#101=[#541+0.89024*#528-0.89024*#541]
#100=[#102+0.97428*#101-0.97428*#102]
G01 Z[#100+-0.1000]
#102=[#540+0.89024*#527-0.89024*#540]
#101=[#541+0.89024*#528-0.89024*#541]
#100=[#102+0.98457*#101-0.98457*#102]
G01 X11.7808Y11.7500Z[#100+-0.1000]
#102=[#540+0.88604*#527-0.88604*#540]
#101=[#541+0.88604*#528-0.88604*#541]
#100=[#102+0.99410*#101-0.99410*#102]
G01 X11.8318Y11.7711Z[#100+-0.1000]
#102=[#540+0.88835*#527-0.88835*#540]
#101=[#541+0.88835*#528-0.88835*#541]
#100=[#102+0.98534*#101-0.98534*#102]
G01 X11.7849Y11.7595Z[#100+-0.1000]
#102=[#540+0.89024*#527-0.89024*#540]
#101=[#541+0.89024*#528-0.89024*#541]
#100=[#102+0.97428*#101-0.97428*#102]
G01 X11.7257Y11.7500Z[#100+-0.1000]
G00 Z1.0000
G00 X12.1879Y11.9186
#102=[#541+0.85665*#528-0.85665*#541]
#101=[#542+0.85665*#529-0.85665*#542]
#100=[#102+0.06064*#101-0.06064*#102]
G01 Z[#100+-0.1000]
#102=[#541+0.85245*#528-0.85245*#541]
#101=[#542+0.85245*#529-0.85245*#542]
#100=[#102+0.07015*#101-0.07015*#102]
G01 X12.2388Y11.9397Z[#100+-0.1000]
#102=[#541+0.84468*#528-0.84468*#541]
#101=[#542+0.84468*#529-0.84468*#542]
#100=[#102+0.07743*#101-0.07743*#102]
G01 X12.2778Y11.9787Z[#100+-0.1000]
#102=[#541+0.85110*#528-0.85110*#541]
#101=[#542+0.85110*#529-0.85110*#542]
#100=[#102+0.06923*#101-0.06923*#102]
G01 X12.2339Y11.9465Z[#100+-0.1000]
#102=[#541+0.85665*#528-0.85665*#541]
#101=[#542+0.85665*#529-0.85665*#542]
#100=[#102+0.06064*#101-0.06064*#102]
G01 X12.1879Y11.9186Z[#100+-0.1000]
G00 Z1.0000
G00 X12.5503Y12.2512
#102=[#541+0.79040*#528-0.79040*#541]
#101=[#542+0.79040*#529-0.79040*#542]
#100=[#102+0.12835*#101-0.12835*#102]
G01 Z[#100+-0.1000]
#102=[#541+0.78263*#528-0.78263*#541]
#101=[#542+0.78263*#529-0.78263*#542]
#100=[#102+0.13563*#101-0.13563*#102]
G01 X12.5893Y12.2902Z[#100+-0.1000]
#102=[#541+0.77249*#528-0.77249*#541]
#101=[#542+0.77249*#529-0.77249*#542]
#100=[#102+0.13958*#101-0.13958*#102]
G01 X12.6104Y12.3411Z[#100+-0.1000]
#102=[#541+0.78165*#528-0.78165*#541]
#101=[#542+0.78165*#529-0.78165*#542]
#100=[#102+0.13436*#101-0.13436*#102]
G01 X12.5825Y12.2951Z[#100+-0.1000]
#102=[#541+0.79040*#528-0.79040*#541]
#101=[#542+0.79040*#529-0.79040*#542]
#100=[#102+0.12835*#101-0.12835*#102]
G01 X12.5503Y12.2512Z[#100+-0.1000]
G00 Z1.0000
G00 X12.7579Y12.6972
#102=[#541+0.70155*#528-0.70155*#541]
#101=[#542+0.70155*#529-0.70155*#542]
#100=[#102+0.16714*#101-0.16714*#102]
G01 Z[#100+-0.1000]
#102=[#541+0.69139*#528-0.69139*#541]
#101=[#542+0.69139*#529-0.69139*#542]
#100=[#102+0.17108*#101-0.17108*#102]
G01 X12.7790Y12.7482Z[#100+-0.1000]
#102=[#541+0.68042*#528-0.68042*#541]
#101=[#542+0.68042*#529-0.68042*#542]
#100=[#102+0.17108*#101-0.17108*#102]
G01 X12.7790Y12.8033Z[#100+-0.1000]
#102=[#541+0.69221*#528-0.69221*#541]
#101=[#542+0.69221*#529-0.69221*#542]
#100=[#102+0.16930*#101-0.16930*#102]
G01 X12.7695Y12.7441Z[#100+-0.1000]
#102=[#541+0.70155*#528-0.70155*#541]
#101=[#542+0.70155*#529-0.70155*#542]
#100=[#102+0.16714*#101-0.16714*#102]
G01 X12.7579Y12.6972Z[#100+-0.1000]
G00 Z1.0000
G00 X12.6329Y13.0009
#102=[#541+0.64106*#528-0.64106*#541]
#101=[#542+0.64106*#529-0.64106*#542]
#100=[#102+0.14378*#101-0.14378*#102]
G01 Z[#100+-0.1000]
#102=[#541+0.62052*#528-0.62052*#541]
#101=[#542+0.62052*#529-0.62052*#542]
#100=[#102+0.14281*#101-0.14281*#102]
G01 X12.6277Y13.1040Z[#100+-0.1000]
#102=[#541+0.59884*#528-0.59884*#541]
#101=[#542+0.59884*#529-0.59884*#542]
#100=[#102+0.13976*#101-0.13976*#102]
G01 X12.6114Y13.2128Z[#100+-0.1000]
#102=[#541+0.57849*#528-0.57849*#541]
#101=[#542+0.57849*#529-0.57849*#542]
#100=[#102+0.13496*#101-0.13496*#102]
G01 X12.5857Y13.3150Z[#100+-0.1000]
#102=[#541+0.55771*#528-0.55771*#541]
#101=[#542+0.55771*#529-0.55771*#542]
#100=[#102+0.12797*#101-0.12797*#102]
G01 X12.5483Y13.4193Z[#100+-0.1000]
#102=[#541+0.53922*#528-0.53922*#541]
#101=[#542+0.53922*#529-0.53922*#542]
#100=[#102+0.11977*#101-0.11977*#102]
G01 X12.5044Y13.5121Z[#100+-0.1000]
#102=[#541+0.52032*#528-0.52032*#541]
#101=[#542+0.52032*#529-0.52032*#542]
#100=[#102+0.10918*#101-0.10918*#102]
G01 X12.4477Y13.6070Z[#100+-0.1000]
#102=[#541+0.50269*#528-0.50269*#541]
#101=[#542+0.50269*#529-0.50269*#542]
#100=[#102+0.09688*#101-0.09688*#102]
G01 X12.3819Y13.6955Z[#100+-0.1000]
#102=[#541+0.48709*#528-0.48709*#541]
#101=[#542+0.48709*#529-0.48709*#542]
#100=[#102+0.08360*#101-0.08360*#102]
G01 X12.3108Y13.7738Z[#100+-0.1000]
#102=[#541+0.47293*#528-0.47293*#541]
#101=[#542+0.47293*#529-0.47293*#542]
#100=[#102+0.06897*#101-0.06897*#102]
G01 X12.2325Y13.8449Z[#100+-0.1000]
#102=[#541+0.45982*#528-0.45982*#541]
#101=[#542+0.45982*#529-0.45982*#542]
#100=[#102+0.05243*#101-0.05243*#102]
G01 X12.1440Y13.9107Z[#100+-0.1000]
#102=[#541+0.44853*#528-0.44853*#541]
#101=[#542+0.44853*#529-0.44853*#542]
#100=[#102+0.03470*#101-0.03470*#102]
G01 X12.0491Y13.9674Z[#100+-0.1000]
#102=[#541+0.43978*#528-0.43978*#541]
#101=[#542+0.43978*#529-0.43978*#542]
#100=[#102+0.01736*#101-0.01736*#102]
G01 X11.9563Y14.0113Z[#100+-0.1000]
#102=[#540+0.43233*#527-0.43233*#540]
#101=[#541+0.43233*#528-0.43233*#541]
#100=[#102+0.99788*#101-0.99788*#102]
G01 X11.8520Y14.0487Z[#100+-0.1000]
#102=[#540+0.42721*#527-0.42721*#540]
#101=[#541+0.42721*#528-0.42721*#541]
#100=[#102+0.97878*#101-0.97878*#102]
G01 X11.7498Y14.0744Z[#100+-0.1000]
#102=[#540+0.42396*#527-0.42396*#540]
#101=[#541+0.42396*#528-0.42396*#541]
#100=[#102+0.95845*#101-0.95845*#102]
G01 X11.6410Y14.0907Z[#100+-0.1000]
#102=[#540+0.42291*#527-0.42291*#540]
#101=[#541+0.42291*#528-0.42291*#541]
#100=[#102+0.93828*#101-0.93828*#102]
G01 X11.5330Y14.0960Z[#100+-0.1000]
#102=[#540+0.42396*#527-0.42396*#540]
#101=[#541+0.42396*#528-0.42396*#541]
#100=[#102+0.91810*#101-0.91810*#102]
G01 X11.4250Y14.0907Z[#100+-0.1000]
#102=[#540+0.42721*#527-0.42721*#540]
#101=[#541+0.42721*#528-0.42721*#541]
#100=[#102+0.89777*#101-0.89777*#102]
G01 X11.3162Y14.0744Z[#100+-0.1000]
#102=[#540+0.43233*#527-0.43233*#540]
#101=[#541+0.43233*#528-0.43233*#541]
#100=[#102+0.87867*#101-0.87867*#102]
G01 X11.2140Y14.0487Z[#100+-0.1000]
#102=[#540+0.43978*#527-0.43978*#540]
#101=[#541+0.43978*#528-0.43978*#541]
#100=[#102+0.85919*#101-0.85919*#102]
G01 X11.1097Y14.0113Z[#100+-0.1000]
#102=[#540+0.44853*#527-0.44853*#540]
#101=[#541+0.44853*#528-0.44853*#541]
#100=[#102+0.84185*#101-0.84185*#102]
G01 X11.0169Y13.9674Z[#100+-0.1000]
#102=[#540+0.45982*#527-0.45982*#540]
#101=[#541+0.45982*#528-0.45982*#541]
#100=[#102+0.82412*#101-0.82412*#102]
G01 X10.9220Y13.9107Z[#100+-0.1000]
#102=[#540+0.47293*#527-0.47293*#540]
#101=[#541+0.47293*#528-0.47293*#541]
#100=[#102+0.80758*#101-0.80758*#102]
G01 X10.8335Y13.8449Z[#100+-0.1000]
#102=[#540+0.48709*#527-0.48709*#540]
#101=[#541+0.48709*#528-0.48709*#541]
#100=[#102+0.79295*#101-0.79295*#102]
G01 X10.7552Y13.7738Z[#100+-0.1000]
#102=[#540+0.50269*#527-0.50269*#540]
#101=[#541+0.50269*#528-0.50269*#541]
#100=[#102+0.77967*#101-0.77967*#102]
G01 X10.6841Y13.6955Z[#100+-0.1000]
#102=[#540+0.52032*#527-0.52032*#540]
#101=[#541+0.52032*#528-0.52032*#541]
#100=[#102+0.76737*#101-0.76737*#102]
G01 X10.6183Y13.6070Z[#100+-0.1000]
#102=[#540+0.53922*#527-0.53922*#540]
#101=[#541+0.53922*#528-0.53922*#541]
#100=[#102+0.75678*#101-0.75678*#102]
G01 X10.5616Y13.5121Z[#100+-0.1000]
#102=[#540+0.55771*#527-0.55771*#540]
#101=[#541+0.55771*#528-0.55771*#541]
#100=[#102+0.74858*#101-0.74858*#102]
G01 X10.5177Y13.4193Z[#100+-0.1000]
#102=[#540+0.57849*#527-0.57849*#540]
#101=[#541+0.57849*#528-0.57849*#541]
#100=[#102+0.74159*#101-0.74159*#102]
G01 X10.4803Y13.3150Z[#100+-0.1000]
#102=[#540+0.59884*#527-0.59884*#540]
#101=[#541+0.59884*#528-0.59884*#541]
#100=[#102+0.73679*#101-0.73679*#102]
G01 X10.4546Y13.2128Z[#100+-0.1000]
#102=[#540+0.62052*#527-0.62052*#540]
#101=[#541+0.62052*#528-0.62052*#541]
#100=[#102+0.73374*#101-0.73374*#102]
G01 X10.4383Y13.1040Z[#100+-0.1000]
#102=[#540+0.64203*#527-0.64203*#540]
#101=[#541+0.64203*#528-0.64203*#541]
#100=[#102+0.73275*#101-0.73275*#102]
G01 X10.4330Y12.9960Z[#100+-0.1000]
#102=[#540+0.66355*#527-0.66355*#540]
#101=[#541+0.66355*#528-0.66355*#541]
#100=[#102+0.73374*#101-0.73374*#102]
G01 X10.4383Y12.8880Z[#100+-0.1000]
#102=[#540+0.68522*#527-0.68522*#540]
#101=[#541+0.68522*#528-0.68522*#541]
#100=[#102+0.73679*#101-0.73679*#102]
G01 X10.4546Y12.7792Z[#100+-0.1000]
#102=[#540+0.70558*#527-0.70558*#540]
#101=[#541+0.70558*#528-0.70558*#541]
#100=[#102+0.74159*#101-0.74159*#102]
G01 X10.4803Y12.6770Z[#100+-0.1000]
#102=[#540+0.72635*#527-0.72635*#540]
#101=[#541+0.72635*#528-0.72635*#541]
#100=[#102+0.74858*#101-0.74858*#102]
G01 X10.5177Y12.5727Z[#100+-0.1000]
#102=[#540+0.74484*#527-0.74484*#540]
#101=[#541+0.74484*#528-0.74484*#541]
#100=[#102+0.75678*#101-0.75678*#102]
G01 X10.5616Y12.4799Z[#100+-0.1000]
#102=[#540+0.76375*#527-0.76375*#540]
#101=[#541+0.76375*#528-0.76375*#541]
#100=[#102+0.76737*#101-0.76737*#102]
G01 X10.6183Y12.3850Z[#100+-0.1000]
#102=[#540+0.78137*#527-0.78137*#540]
#101=[#541+0.78137*#528-0.78137*#541]
#100=[#102+0.77967*#101-0.77967*#102]
G01 X10.6841Y12.2965Z[#100+-0.1000]
#102=[#540+0.79697*#527-0.79697*#540]
#101=[#541+0.79697*#528-0.79697*#541]
#100=[#102+0.79295*#101-0.79295*#102]
G01 X10.7552Y12.2182Z[#100+-0.1000]
#102=[#540+0.81114*#527-0.81114*#540]
#101=[#541+0.81114*#528-0.81114*#541]
#100=[#102+0.80758*#101-0.80758*#102]
G01 X10.8335Y12.1471Z[#100+-0.1000]
#102=[#540+0.82424*#527-0.82424*#540]
#101=[#541+0.82424*#528-0.82424*#541]
#100=[#102+0.82412*#101-0.82412*#102]
G01 X10.9220Y12.0813Z[#100+-0.1000]
#102=[#540+0.83554*#527-0.83554*#540]
#101=[#541+0.83554*#528-0.83554*#541]
#100=[#102+0.84185*#101-0.84185*#102]
G01 X11.0169Y12.0246Z[#100+-0.1000]
#102=[#540+0.84428*#527-0.84428*#540]
#101=[#541+0.84428*#528-0.84428*#541]
#100=[#102+0.85919*#101-0.85919*#102]
G01 X11.1097Y11.9807Z[#100+-0.1000]
#102=[#540+0.85173*#527-0.85173*#540]
#101=[#541+0.85173*#528-0.85173*#541]
#100=[#102+0.87867*#101-0.87867*#102]
G01 X11.2140Y11.9433Z[#100+-0.1000]
#102=[#540+0.85685*#527-0.85685*#540]
#101=[#541+0.85685*#528-0.85685*#541]
#100=[#102+0.89777*#101-0.89777*#102]
G01 X11.3162Y11.9176Z[#100+-0.1000]
#102=[#540+0.86010*#527-0.86010*#540]
#101=[#541+0.86010*#528-0.86010*#541]
#100=[#102+0.91810*#101-0.91810*#102]
G01 X11.4250Y11.9013Z[#100+-0.1000]
#102=[#540+0.86116*#527-0.86116*#540]
#101=[#541+0.86116*#528-0.86116*#541]
#100=[#102+0.93828*#101-0.93828*#102]
G01 X11.5330Y11.8960Z[#100+-0.1000]
#102=[#540+0.86010*#527-0.86010*#540]
#101=[#541+0.86010*#528-0.86010*#541]
#100=[#102+0.95845*#101-0.95845*#102]
G01 X11.6410Y11.9013Z[#100+-0.1000]
#102=[#540+0.85685*#527-0.85685*#540]
#101=[#541+0.85685*#528-0.85685*#541]
#100=[#102+0.97878*#101-0.97878*#102]
G01 X11.7498Y11.9176Z[#100+-0.1000]
#102=[#540+0.85173*#527-0.85173*#540]
#101=[#541+0.85173*#528-0.85173*#541]
#100=[#102+0.99788*#101-0.99788*#102]
G01 X11.8520Y11.9433Z[#100+-0.1000]
#102=[#541+0.84428*#528-0.84428*#541]
#101=[#542+0.84428*#529-0.84428*#542]
#100=[#102+0.01736*#101-0.01736*#102]
G01 X11.9563Y11.9807Z[#100+-0.1000]
#102=[#541+0.83554*#528-0.83554*#541]
#101=[#542+0.83554*#529-0.83554*#542]
#100=[#102+0.03470*#101-0.03470*#102]
G01 X12.0491Y12.0246Z[#100+-0.1000]
#102=[#541+0.82424*#528-0.82424*#541]
#101=[#542+0.82424*#529-0.82424*#542]
#100=[#102+0.05243*#101-0.05243*#102]
G01 X12.1440Y12.0813Z[#100+-0.1000]
#102=[#541+0.81114*#528-0.81114*#541]
#101=[#542+0.81114*#529-0.81114*#542]
#100=[#102+0.06897*#101-0.06897*#102]
G01 X12.2325Y12.1471Z[#100+-0.1000]
#102=[#541+0.79697*#528-0.79697*#541]
#101=[#542+0.79697*#529-0.79697*#542]
#100=[#102+0.08360*#101-0.08360*#102]
G01 X12.3108Y12.2182Z[#100+-0.1000]
#102=[#541+0.78137*#528-0.78137*#541]
#101=[#542+0.78137*#529-0.78137*#542]
#100=[#102+0.09688*#101-0.09688*#102]
G01 X12.3819Y12.2965Z[#100+-0.1000]
#102=[#541+0.76375*#528-0.76375*#541]
#101=[#542+0.76375*#529-0.76375*#542]
#100=[#102+0.10918*#101-0.10918*#102]
G01 X12.4477Y12.3850Z[#100+-0.1000]
#102=[#541+0.74484*#528-0.74484*#541]
#101=[#542+0.74484*#529-0.74484*#542]
#100=[#102+0.11977*#101-0.11977*#102]
G01 X12.5044Y12.4799Z[#100+-0.1000]
#102=[#541+0.72635*#528-0.72635*#541]
#101=[#542+0.72635*#529-0.72635*#542]
#100=[#102+0.12797*#101-0.12797*#102]
G01 X12.5483Y12.5727Z[#100+-0.1000]
#102=[#541+0.70558*#528-0.70558*#541]
#101=[#542+0.70558*#529-0.70558*#542]
#100=[#102+0.13496*#101-0.13496*#102]
G01 X12.5857Y12.6770Z[#100+-0.1000]
#102=[#541+0.68522*#528-0.68522*#541]
#101=[#542+0.68522*#529-0.68522*#542]
#100=[#102+0.13976*#101-0.13976*#102]
G01 X12.6114Y12.7792Z[#100+-0.1000]
#102=[#541+0.66355*#528-0.66355*#541]
#101=[#542+0.66355*#529-0.66355*#542]
#100=[#102+0.14281*#101-0.14281*#102]
G01 X12.6277Y12.8880Z[#100+-0.1000]
#102=[#541+0.64106*#528-0.64106*#541]
#101=[#542+0.64106*#529-0.64106*#542]
#100=[#102+0.14378*#101-0.14378*#102]
G01 X12.6329Y13.0009Z[#100+-0.1000]
G00 Z1.0000
G00 X12.7790Y13.1887
#102=[#541+0.60365*#528-0.60365*#541]
#101=[#542+0.60365*#529-0.60365*#542]
#100=[#102+0.17108*#101-0.17108*#102]
G01 Z[#100+-0.1000]
#102=[#541+0.59267*#528-0.59267*#541]
#101=[#542+0.59267*#529-0.59267*#542]
#100=[#102+0.17108*#101-0.17108*#102]
G01 X12.7790Y13.2438Z[#100+-0.1000]
#102=[#541+0.58251*#528-0.58251*#541]
#101=[#542+0.58251*#529-0.58251*#542]
#100=[#102+0.16714*#101-0.16714*#102]
G01 X12.7579Y13.2948Z[#100+-0.1000]
#102=[#541+0.59185*#528-0.59185*#541]
#101=[#542+0.59185*#529-0.59185*#542]
#100=[#102+0.16930*#101-0.16930*#102]
G01 X12.7695Y13.2479Z[#100+-0.1000]
#102=[#541+0.60365*#528-0.60365*#541]
#101=[#542+0.60365*#529-0.60365*#542]
#100=[#102+0.17108*#101-0.17108*#102]
G01 X12.7790Y13.1887Z[#100+-0.1000]
G00 Z1.0000
G00 X12.6104Y13.6509
#102=[#541+0.51157*#528-0.51157*#541]
#101=[#542+0.51157*#529-0.51157*#542]
#100=[#102+0.13958*#101-0.13958*#102]
G01 Z[#100+-0.1000]
#102=[#541+0.50143*#528-0.50143*#541]
#101=[#542+0.50143*#529-0.50143*#542]
#100=[#102+0.13563*#101-0.13563*#102]
G01 X12.5893Y13.7018Z[#100+-0.1000]
#102=[#541+0.49367*#528-0.49367*#541]
#101=[#542+0.49367*#529-0.49367*#542]
#100=[#102+0.12835*#101-0.12835*#102]
G01 X12.5503Y13.7408Z[#100+-0.1000]
#102=[#541+0.50241*#528-0.50241*#541]
#101=[#542+0.50241*#529-0.50241*#542]
#100=[#102+0.13436*#101-0.13436*#102]
G01 X12.5825Y13.6969Z[#100+-0.1000]
#102=[#541+0.51157*#528-0.51157*#541]
#101=[#542+0.51157*#529-0.51157*#542]
#100=[#102+0.13958*#101-0.13958*#102]
G01 X12.6104Y13.6509Z[#100+-0.1000]
G00 Z1.0000
G00 X12.2778Y14.0133
#102=[#541+0.43938*#528-0.43938*#541]
#101=[#542+0.43938*#529-0.43938*#542]
#100=[#102+0.07743*#101-0.07743*#102]
G01 Z[#100+-0.1000]
#102=[#541+0.43161*#528-0.43161*#541]
#101=[#542+0.43161*#529-0.43161*#542]
#100=[#102+0.07015*#101-0.07015*#102]
G01 X12.2388Y14.0523Z[#100+-0.1000]
#102=[#541+0.42741*#528-0.42741*#541]
#101=[#542+0.42741*#529-0.42741*#542]
#100=[#102+0.06064*#101-0.06064*#102]
G01 X12.1879Y14.0734Z[#100+-0.1000]
#102=[#541+0.43297*#528-0.43297*#541]
#101=[#542+0.43297*#529-0.43297*#542]
#100=[#102+0.06923*#101-0.06923*#102]
G01 X12.2339Y14.0455Z[#100+-0.1000]
#102=[#541+0.43938*#528-0.43938*#541]
#101=[#542+0.43938*#529-0.43938*#542]
#100=[#102+0.07743*#101-0.07743*#102]
G01 X12.2778Y14.0133Z[#100+-0.1000]
G00 Z1.0000
G00 X11.8318Y14.2209
#102=[#540+0.39803*#527-0.39803*#540]
#101=[#541+0.39803*#528-0.39803*#541]
#100=[#102+0.99410*#101-0.99410*#102]
G01 Z[#100+-0.1000]
#102=[#540+0.39382*#527-0.39382*#540]
#101=[#541+0.39382*#528-0.39382*#541]
#100=[#102+0.98457*#101-0.98457*#102]
G01 X11.7808Y14.2420Z[#100+-0.1000]
#102=[#540+0.39382*#527-0.39382*#540]
#101=[#541+0.39382*#528-0.39382*#541]
#100=[#102+0.97428*#101-0.97428*#102]
G01 X11.7257Y14.2420Z[#100+-0.1000]
#102=[#540+0.39572*#527-0.39572*#540]
#101=[#541+0.39572*#528-0.39572*#541]
#100=[#102+0.98534*#101-0.98534*#102]
G01 X11.7849Y14.2325Z[#100+-0.1000]
#102=[#540+0.39803*#527-0.39803*#540]
#101=[#541+0.39803*#528-0.39803*#541]
#100=[#102+0.99410*#101-0.99410*#102]
G01 X11.8318Y14.2209Z[#100+-0.1000]
G00 Z1.0000
G00 X11.3403Y14.2420
#102=[#540+0.39382*#527-0.39382*#540]
#101=[#541+0.39382*#528-0.39382*#541]
#100=[#102+0.90227*#101-0.90227*#102]
G01 Z[#100+-0.1000]
#102=[#540+0.39382*#527-0.39382*#540]
#101=[#541+0.39382*#528-0.39382*#541]
#100=[#102+0.89198*#101-0.89198*#102]
G01 X11.2852Y14.2420Z[#100+-0.1000]
#102=[#540+0.39803*#527-0.39803*#540]
#101=[#541+0.39803*#528-0.39803*#541]
#100=[#102+0.88245*#101-0.88245*#102]
G01 X11.2342Y14.2209Z[#100+-0.1000]
#102=[#540+0.39572*#527-0.39572*#540]
#101=[#541+0.39572*#528-0.39572*#541]
#100=[#102+0.89121*#101-0.89121*#102]
G01 X11.2811Y14.2325Z[#100+-0.1000]
#102=[#540+0.39382*#527-0.39382*#540]
#101=[#541+0.39382*#528-0.39382*#541]
#100=[#102+0.90227*#101-0.90227*#102]
G01 X11.3403Y14.2420Z[#100+-0.1000]
G00 Z1.0000
G00 X10.8781Y14.0734
#102=[#540+0.42741*#527-0.42741*#540]
#101=[#541+0.42741*#528-0.42741*#541]
#100=[#102+0.81591*#101-0.81591*#102]
G01 Z[#100+-0.1000]
#102=[#540+0.43161*#527-0.43161*#540]
#101=[#541+0.43161*#528-0.43161*#541]
#100=[#102+0.80640*#101-0.80640*#102]
G01 X10.8272Y14.0523Z[#100+-0.1000]
#102=[#540+0.43938*#527-0.43938*#540]
#101=[#541+0.43938*#528-0.43938*#541]
#100=[#102+0.79912*#101-0.79912*#102]
G01 X10.7882Y14.0133Z[#100+-0.1000]
#102=[#540+0.43297*#527-0.43297*#540]
#101=[#541+0.43297*#528-0.43297*#541]
#100=[#102+0.80732*#101-0.80732*#102]
G01 X10.8321Y14.0455Z[#100+-0.1000]
#102=[#540+0.42741*#527-0.42741*#540]
#101=[#541+0.42741*#528-0.42741*#541]
#100=[#102+0.81591*#101-0.81591*#102]
G01 X10.8781Y14.0734Z[#100+-0.1000]
G00 Z1.0000
G00 X10.5157Y13.7408
#102=[#540+0.49367*#527-0.49367*#540]
#101=[#541+0.49367*#528-0.49367*#541]
#100=[#102+0.74820*#101-0.74820*#102]
G01 Z[#100+-0.1000]
#102=[#540+0.50143*#527-0.50143*#540]
#101=[#541+0.50143*#528-0.50143*#541]
#100=[#102+0.74092*#101-0.74092*#102]
G01 X10.4767Y13.7018Z[#100+-0.1000]
#102=[#540+0.51157*#527-0.51157*#540]
#101=[#541+0.51157*#528-0.51157*#541]
#100=[#102+0.73697*#101-0.73697*#102]
G01 X10.4556Y13.6509Z[#100+-0.1000]
#102=[#540+0.50241*#527-0.50241*#540]
#101=[#541+0.50241*#528-0.50241*#541]
#100=[#102+0.74219*#101-0.74219*#102]
G01 X10.4835Y13.6969Z[#100+-0.1000]
#102=[#540+0.49367*#527-0.49367*#540]
#101=[#541+0.49367*#528-0.49367*#541]
#100=[#102+0.74820*#101-0.74820*#102]
G01 X10.5157Y13.7408Z[#100+-0.1000]
G00 Z1.0000
G00 X10.2870Y13.2438
#102=[#540+0.59267*#527-0.59267*#540]
#101=[#541+0.59267*#528-0.59267*#541]
#100=[#102+0.70547*#101-0.70547*#102]
G01 Z[#100+-0.1000]
#102=[#540+0.60365*#527-0.60365*#540]
#101=[#541+0.60365*#528-0.60365*#541]
#100=[#102+0.70547*#101-0.70547*#102]
G01 X10.2870Y13.1887Z[#100+-0.1000]
#102=[#540+0.59185*#527-0.59185*#540]
#101=[#541+0.59185*#528-0.59185*#541]
#100=[#102+0.70725*#101-0.70725*#102]
G01 X10.2965Y13.2479Z[#100+-0.1000]
#102=[#540+0.58251*#527-0.58251*#540]
#101=[#541+0.58251*#528-0.58251*#541]
#100=[#102+0.70942*#101-0.70942*#102]
G01 X10.3081Y13.2948Z[#100+-0.1000]
#102=[#540+0.59267*#527-0.59267*#540]
#101=[#541+0.59267*#528-0.59267*#541]
#100=[#102+0.70547*#101-0.70547*#102]
G01 X10.2870Y13.2438Z[#100+-0.1000]
G00 Z1.0000
G00 X10.1250Y13.2761
#102=[#540+0.58624*#527-0.58624*#540]
#101=[#541+0.58624*#528-0.58624*#541]
#100=[#102+0.67521*#101-0.67521*#102]
G01 Z[#100+-0.1000]
#102=[#540+0.69783*#527-0.69783*#540]
#101=[#541+0.69783*#528-0.69783*#541]
#100=[#102+0.67521*#101-0.67521*#102]
G01 X10.1250Y12.7159Z[#100+-0.1000]
#102=[#540+0.80092*#527-0.80092*#540]
#101=[#541+0.80092*#528-0.80092*#541]
#100=[#102+0.71526*#101-0.71526*#102]
G01 X10.3394Y12.1984Z[#100+-0.1000]
#102=[#540+0.87980*#527-0.87980*#540]
#101=[#541+0.87980*#528-0.87980*#541]
#100=[#102+0.78925*#101-0.78925*#102]
G01 X10.7354Y11.8024Z[#100+-0.1000]
#102=[#540+0.92251*#527-0.92251*#540]
#101=[#541+0.92251*#528-0.92251*#541]
#100=[#102+0.88594*#101-0.88594*#102]
G01 X11.2529Y11.5880Z[#100+-0.1000]
#102=[#540+0.92251*#527-0.92251*#540]
#101=[#541+0.92251*#528-0.92251*#541]
#100=[#102+0.99061*#101-0.99061*#102]
G01 X11.8131Y11.5880Z[#100+-0.1000]
#102=[#541+0.87980*#528-0.87980*#541]
#101=[#542+0.87980*#529-0.87980*#542]
#100=[#102+0.08730*#101-0.08730*#102]
G01 X12.3306Y11.8024Z[#100+-0.1000]
#102=[#541+0.80092*#528-0.80092*#541]
#101=[#542+0.80092*#529-0.80092*#542]
#100=[#102+0.16129*#101-0.16129*#102]
G01 X12.7266Y12.1984Z[#100+-0.1000]
#102=[#541+0.69783*#528-0.69783*#541]
#101=[#542+0.69783*#529-0.69783*#542]
#100=[#102+0.20135*#101-0.20135*#102]
G01 X12.9410Y12.7159Z[#100+-0.1000]
#102=[#541+0.58624*#528-0.58624*#541]
#101=[#542+0.58624*#529-0.58624*#542]
#100=[#102+0.20135*#101-0.20135*#102]
G01 X12.9410Y13.2761Z[#100+-0.1000]
#102=[#541+0.48315*#528-0.48315*#541]
#101=[#542+0.48315*#529-0.48315*#542]
#100=[#102+0.16129*#101-0.16129*#102]
G01 X12.7266Y13.7936Z[#100+-0.1000]
#102=[#541+0.40426*#528-0.40426*#541]
#101=[#542+0.40426*#529-0.40426*#542]
#100=[#102+0.08730*#101-0.08730*#102]
G01 X12.3306Y14.1896Z[#100+-0.1000]
#102=[#540+0.36155*#527-0.36155*#540]
#101=[#541+0.36155*#528-0.36155*#541]
#100=[#102+0.99061*#101-0.99061*#102]
G01 X11.8131Y14.4040Z[#100+-0.1000]
#102=[#540+0.36155*#527-0.36155*#540]
#101=[#541+0.36155*#528-0.36155*#541]
#100=[#102+0.88594*#101-0.88594*#102]
G01 X11.2529Y14.4040Z[#100+-0.1000]
#102=[#540+0.40426*#527-0.40426*#540]
#101=[#541+0.40426*#528-0.40426*#541]
#100=[#102+0.78925*#101-0.78925*#102]
G01 X10.7354Y14.1896Z[#100+-0.1000]
#102=[#540+0.48315*#527-0.48315*#540]
#101=[#541+0.48315*#528-0.48315*#541]
#100=[#102+0.71526*#101-0.71526*#102]
G01 X10.3394Y13.7936Z[#100+-0.1000]
#102=[#540+0.58624*#527-0.58624*#540]
#101=[#541+0.58624*#528-0.58624*#541]
#100=[#102+0.67521*#101-0.67521*#102]
G01 X10.1250Y13.2761Z[#100+-0.1000]
G00 Z1.0000
G00 X10.2870Y12.8033
#102=[#540+0.68042*#527-0.68042*#540]
#101=[#541+0.68042*#528-0.68042*#541]
#100=[#102+0.70547*#101-0.70547*#102]
G01 Z[#100+-0.1000]
#102=[#540+0.69139*#527-0.69139*#540]
#101=[#541+0.69139*#528-0.69139*#541]
#100=[#102+0.70547*#101-0.70547*#102]
G01 X10.2870Y12.7482Z[#100+-0.1000]
#102=[#540+0.70155*#527-0.70155*#540]
#101=[#541+0.70155*#528-0.70155*#541]
#100=[#102+0.70942*#101-0.70942*#102]
G01 X10.3081Y12.6972Z[#100+-0.1000]
#102=[#540+0.69221*#527-0.69221*#540]
#101=[#541+0.69221*#528-0.69221*#541]
#100=[#102+0.70725*#101-0.70725*#102]
G01 X10.2965Y12.7441Z[#100+-0.1000]
#102=[#540+0.68042*#527-0.68042*#540]
#101=[#541+0.68042*#528-0.68042*#541]
#100=[#102+0.70547*#101-0.70547*#102]
G01 X10.2870Y12.8033Z[#100+-0.1000]
G00 Z1.0000
G00 X10.4556Y12.3411
#102=[#540+0.77249*#527-0.77249*#540]
#101=[#541+0.77249*#528-0.77249*#541]
#100=[#102+0.73697*#101-0.73697*#102]
G01 Z[#100+-0.1000]
#102=[#540+0.78263*#527-0.78263*#540]
#101=[#541+0.78263*#528-0.78263*#541]
#100=[#102+0.74092*#101-0.74092*#102]
G01 X10.4767Y12.2902Z[#100+-0.1000]
#102=[#540+0.79040*#527-0.79040*#540]
#101=[#541+0.79040*#528-0.79040*#541]
#100=[#102+0.74820*#101-0.74820*#102]
G01 X10.5157Y12.2512Z[#100+-0.1000]
#102=[#540+0.78165*#527-0.78165*#540]
#101=[#541+0.78165*#528-0.78165*#541]
#100=[#102+0.74219*#101-0.74219*#102]
G01 X10.4835Y12.2951Z[#100+-0.1000]
#102=[#540+0.77249*#527-0.77249*#540]
#101=[#541+0.77249*#528-0.77249*#541]
#100=[#102+0.73697*#101-0.73697*#102]
G01 X10.4556Y12.3411Z[#100+-0.1000]
G00 Z1.0000
G00 X12.6272Y23.3906
#102=[#567+0.57139*#554-0.57139*#567]
#101=[#568+0.57139*#555-0.57139*#568]
#100=[#102+0.14272*#101-0.14272*#102]
G01 Z[#100+-0.1000]
#102=[#567+0.57139*#554-0.57139*#567]
#101=[#568+0.57139*#555-0.57139*#568]
#100=[#102+0.13875*#101-0.13875*#102]
G01 X12.6060Y23.3906Z[#100+-0.1000]
#102=[#567+0.59289*#554-0.59289*#567]
#101=[#568+0.59289*#555-0.59289*#568]
#100=[#102+0.13875*#101-0.13875*#102]
G01 X12.6060Y23.2827Z[#100+-0.1000]
#102=[#567+0.61090*#554-0.61090*#567]
#101=[#568+0.61090*#555-0.61090*#568]
#100=[#102+0.14576*#101-0.14576*#102]
G01 X12.6435Y23.1923Z[#100+-0.1000]
#102=[#567+0.62468*#554-0.62468*#567]
#101=[#568+0.62468*#555-0.62468*#568]
#100=[#102+0.15869*#101-0.15869*#102]
G01 X12.7127Y23.1231Z[#100+-0.1000]
#102=[#567+0.63215*#554-0.63215*#567]
#101=[#568+0.63215*#555-0.63215*#568]
#100=[#102+0.17558*#101-0.17558*#102]
G01 X12.8031Y23.0856Z[#100+-0.1000]
#102=[#567+0.63215*#554-0.63215*#567]
#101=[#568+0.63215*#555-0.63215*#568]
#100=[#102+0.20794*#101-0.20794*#102]
G01 X12.9763Y23.0856Z[#100+-0.1000]
#102=[#567+0.63098*#554-0.63098*#567]
#101=[#568+0.63098*#555-0.63098*#568]
#100=[#102+0.20381*#101-0.20381*#102]
G01 X12.9542Y23.0915Z[#100+-0.1000]
#102=[#567+0.62849*#554-0.62849*#567]
#101=[#568+0.62849*#555-0.62849*#568]
#100=[#102+0.19707*#101-0.19707*#102]
G01 X12.9181Y23.1040Z[#100+-0.1000]
#102=[#567+0.62703*#554-0.62703*#567]
#101=[#568+0.62703*#555-0.62703*#568]
#100=[#102+0.19369*#101-0.19369*#102]
G01 X12.9000Y23.1113Z[#100+-0.1000]
#102=[#567+0.62394*#554-0.62394*#567]
#101=[#568+0.62394*#555-0.62394*#568]
#100=[#102+0.18752*#101-0.18752*#102]
G01 X12.8670Y23.1268Z[#100+-0.1000]
#102=[#567+0.62203*#554-0.62203*#567]
#101=[#568+0.62203*#555-0.62203*#568]
#100=[#102+0.18425*#101-0.18425*#102]
G01 X12.8495Y23.1364Z[#100+-0.1000]
#102=[#567+0.61817*#554-0.61817*#567]
#101=[#568+0.61817*#555-0.61817*#568]
#100=[#102+0.17833*#101-0.17833*#102]
G01 X12.8178Y23.1558Z[#100+-0.1000]
#102=[#567+0.61375*#554-0.61375*#567]
#101=[#568+0.61375*#555-0.61375*#568]
#100=[#102+0.17265*#101-0.17265*#102]
G01 X12.7874Y23.1780Z[#100+-0.1000]
#102=[#567+0.61145*#554-0.61145*#567]
#101=[#568+0.61145*#555-0.61145*#568]
#100=[#102+0.16994*#101-0.16994*#102]
G01 X12.7729Y23.1895Z[#100+-0.1000]
#102=[#567+0.60723*#554-0.60723*#567]
#101=[#568+0.60723*#555-0.60723*#568]
#100=[#102+0.16553*#101-0.16553*#102]
G01 X12.7493Y23.2107Z[#100+-0.1000]
#102=[#567+0.60361*#554-0.60361*#567]
#101=[#568+0.60361*#555-0.60361*#568]
#100=[#102+0.16213*#101-0.16213*#102]
G01 X12.7311Y23.2289Z[#100+-0.1000]
#102=[#567+0.59890*#554-0.59890*#567]
#101=[#568+0.59890*#555-0.59890*#568]
#100=[#102+0.15817*#101-0.15817*#102]
G01 X12.7099Y23.2525Z[#100+-0.1000]
#102=[#567+0.59209*#554-0.59209*#567]
#101=[#568+0.59209*#555-0.59209*#568]
#100=[#102+0.15327*#101-0.15327*#102]
G01 X12.6837Y23.2867Z[#100+-0.1000]
#102=[#567+0.58783*#554-0.58783*#567]
#101=[#568+0.58783*#555-0.58783*#568]
#100=[#102+0.15060*#101-0.15060*#102]
G01 X12.6694Y23.3081Z[#100+-0.1000]
#102=[#567+0.58016*#554-0.58016*#567]
#101=[#568+0.58016*#555-0.58016*#568]
#100=[#102+0.14645*#101-0.14645*#102]
G01 X12.6472Y23.3466Z[#100+-0.1000]
#102=[#567+0.57359*#554-0.57359*#567]
#101=[#568+0.57359*#555-0.57359*#568]
#100=[#102+0.14354*#101-0.14354*#102]
G01 X12.6316Y23.3796Z[#100+-0.1000]
#102=[#567+0.57139*#554-0.57139*#567]
#101=[#568+0.57139*#555-0.57139*#568]
#100=[#102+0.14272*#101-0.14272*#102]
G01 X12.6272Y23.3906Z[#100+-0.1000]
G00 Z1.0000
G00 X12.7533Y23.5526
#102=[#567+0.53912*#554-0.53912*#567]
#101=[#568+0.53912*#555-0.53912*#568]
#100=[#102+0.16628*#101-0.16628*#102]
G01 Z[#100+-0.1000]
#102=[#567+0.53912*#554-0.53912*#567]
#101=[#568+0.53912*#555-0.53912*#568]
#100=[#102+0.11331*#101-0.11331*#102]
G01 X12.4698Y23.5526Z[#100+-0.1000]
#102=[#567+0.54424*#554-0.54424*#567]
#101=[#568+0.54424*#555-0.54424*#568]
#100=[#102+0.10849*#101-0.10849*#102]
G01 X12.4440Y23.5269Z[#100+-0.1000]
#102=[#567+0.59930*#554-0.59930*#567]
#101=[#568+0.59930*#555-0.59930*#568]
#100=[#102+0.10849*#101-0.10849*#102]
G01 X12.4440Y23.2505Z[#100+-0.1000]
#102=[#567+0.62918*#554-0.62918*#567]
#101=[#568+0.62918*#555-0.62918*#568]
#100=[#102+0.12011*#101-0.12011*#102]
G01 X12.5062Y23.1005Z[#100+-0.1000]
#102=[#567+0.65203*#554-0.65203*#567]
#101=[#568+0.65203*#555-0.65203*#568]
#100=[#102+0.14154*#101-0.14154*#102]
G01 X12.6209Y22.9858Z[#100+-0.1000]
#102=[#567+0.66442*#554-0.66442*#567]
#101=[#568+0.66442*#555-0.66442*#568]
#100=[#102+0.16956*#101-0.16956*#102]
G01 X12.7709Y22.9236Z[#100+-0.1000]
#102=[#567+0.66442*#554-0.66442*#567]
#101=[#568+0.66442*#555-0.66442*#568]
#100=[#102+0.24456*#101-0.24456*#102]
G01 X13.1723Y22.9236Z[#100+-0.1000]
#102=[#567+0.65928*#554-0.65928*#567]
#101=[#568+0.65928*#555-0.65928*#568]
#100=[#102+0.24936*#101-0.24936*#102]
G01 X13.1980Y22.9494Z[#100+-0.1000]
#102=[#567+0.60307*#554-0.60307*#567]
#101=[#568+0.60307*#555-0.60307*#568]
#100=[#102+0.24936*#101-0.24936*#102]
G01 X13.1980Y23.2316Z[#100+-0.1000]
#102=[#567+0.60303*#554-0.60303*#567]
#101=[#568+0.60303*#555-0.60303*#568]
#100=[#102+0.23051*#101-0.23051*#102]
G01 X13.0971Y23.2318Z[#100+-0.1000]
#102=[#567+0.60273*#554-0.60273*#567]
#101=[#568+0.60273*#555-0.60273*#568]
#100=[#102+0.22500*#101-0.22500*#102]
G01 X13.0676Y23.2333Z[#100+-0.1000]
#102=[#567+0.60163*#554-0.60163*#567]
#101=[#568+0.60163*#555-0.60163*#568]
#100=[#102+0.21827*#101-0.21827*#102]
G01 X13.0316Y23.2388Z[#100+-0.1000]
#102=[#567+0.60008*#554-0.60008*#567]
#101=[#568+0.60008*#555-0.60008*#568]
#100=[#102+0.21250*#101-0.21250*#102]
G01 X13.0007Y23.2466Z[#100+-0.1000]
#102=[#567+0.59755*#554-0.59755*#567]
#101=[#568+0.59755*#555-0.59755*#568]
#100=[#102+0.20598*#101-0.20598*#102]
G01 X12.9658Y23.2593Z[#100+-0.1000]
#102=[#567+0.59434*#554-0.59434*#567]
#101=[#568+0.59434*#555-0.59434*#568]
#100=[#102+0.19981*#101-0.19981*#102]
G01 X12.9328Y23.2754Z[#100+-0.1000]
#102=[#567+0.59074*#554-0.59074*#567]
#101=[#568+0.59074*#555-0.59074*#568]
#100=[#102+0.19436*#101-0.19436*#102]
G01 X12.9036Y23.2935Z[#100+-0.1000]
#102=[#567+0.58659*#554-0.58659*#567]
#101=[#568+0.58659*#555-0.58659*#568]
#100=[#102+0.18926*#101-0.18926*#102]
G01 X12.8763Y23.3143Z[#100+-0.1000]
#102=[#567+0.58263*#554-0.58263*#567]
#101=[#568+0.58263*#555-0.58263*#568]
#100=[#102+0.18518*#101-0.18518*#102]
G01 X12.8545Y23.3342Z[#100+-0.1000]
#102=[#567+0.57831*#554-0.57831*#567]
#101=[#568+0.57831*#555-0.57831*#568]
#100=[#102+0.18148*#101-0.18148*#102]
G01 X12.8347Y23.3559Z[#100+-0.1000]
#102=[#567+0.57205*#554-0.57205*#567]
#101=[#568+0.57205*#555-0.57205*#568]
#100=[#102+0.17706*#101-0.17706*#102]
G01 X12.8110Y23.3873Z[#100+-0.1000]
#102=[#567+0.56705*#554-0.56705*#567]
#101=[#568+0.56705*#555-0.56705*#568]
#100=[#102+0.17422*#101-0.17422*#102]
G01 X12.7958Y23.4124Z[#100+-0.1000]
#102=[#567+0.56048*#554-0.56048*#567]
#101=[#568+0.56048*#555-0.56048*#568]
#100=[#102+0.17121*#101-0.17121*#102]
G01 X12.7797Y23.4454Z[#100+-0.1000]
#102=[#567+0.55353*#554-0.55353*#567]
#101=[#568+0.55353*#555-0.55353*#568]
#100=[#102+0.16884*#101-0.16884*#102]
G01 X12.7670Y23.4803Z[#100+-0.1000]
#102=[#567+0.54737*#554-0.54737*#567]
#101=[#568+0.54737*#555-0.54737*#568]
#100=[#102+0.16738*#101-0.16738*#102]
G01 X12.7592Y23.5112Z[#100+-0.1000]
#102=[#567+0.53912*#554-0.53912*#567]
#101=[#568+0.53912*#555-0.53912*#568]
#100=[#102+0.16628*#101-0.16628*#102]
G01 X12.7533Y23.5526Z[#100+-0.1000]
G00 Z1.0000
G00 X14.1278Y23.0856
#102=[#567+0.63215*#554-0.63215*#567]
#101=[#568+0.63215*#555-0.63215*#568]
#100=[#102+0.42309*#101-0.42309*#102]
G01 Z[#100+-0.1000]
#102=[#567+0.63215*#554-0.63215*#567]
#101=[#568+0.63215*#555-0.63215*#568]
#100=[#102+0.45545*#101-0.45545*#102]
G01 X14.3010Y23.0856Z[#100+-0.1000]
#102=[#567+0.62468*#554-0.62468*#567]
#101=[#568+0.62468*#555-0.62468*#568]
#100=[#102+0.47234*#101-0.47234*#102]
G01 X14.3914Y23.1231Z[#100+-0.1000]
#102=[#567+0.61090*#554-0.61090*#567]
#101=[#568+0.61090*#555-0.61090*#568]
#100=[#102+0.48527*#101-0.48527*#102]
G01 X14.4606Y23.1923Z[#100+-0.1000]
#102=[#567+0.59289*#554-0.59289*#567]
#101=[#568+0.59289*#555-0.59289*#568]
#100=[#102+0.49226*#101-0.49226*#102]
G01 X14.4980Y23.2827Z[#100+-0.1000]
#102=[#567+0.57139*#554-0.57139*#567]
#101=[#568+0.57139*#555-0.57139*#568]
#100=[#102+0.49226*#101-0.49226*#102]
G01 X14.4980Y23.3906Z[#100+-0.1000]
#102=[#567+0.57139*#554-0.57139*#567]
#101=[#568+0.57139*#555-0.57139*#568]
#100=[#102+0.48831*#101-0.48831*#102]
G01 X14.4769Y23.3906Z[#100+-0.1000]
#102=[#567+0.57359*#554-0.57359*#567]
#101=[#568+0.57359*#555-0.57359*#568]
#100=[#102+0.48747*#101-0.48747*#102]
G01 X14.4724Y23.3796Z[#100+-0.1000]
#102=[#567+0.58016*#554-0.58016*#567]
#101=[#568+0.58016*#555-0.58016*#568]
#100=[#102+0.48458*#101-0.48458*#102]
G01 X14.4569Y23.3466Z[#100+-0.1000]
#102=[#567+0.58783*#554-0.58783*#567]
#101=[#568+0.58783*#555-0.58783*#568]
#100=[#102+0.48041*#101-0.48041*#102]
G01 X14.4346Y23.3081Z[#100+-0.1000]
#102=[#567+0.59209*#554-0.59209*#567]
#101=[#568+0.59209*#555-0.59209*#568]
#100=[#102+0.47774*#101-0.47774*#102]
G01 X14.4203Y23.2867Z[#100+-0.1000]
#102=[#567+0.59890*#554-0.59890*#567]
#101=[#568+0.59890*#555-0.59890*#568]
#100=[#102+0.47286*#101-0.47286*#102]
G01 X14.3942Y23.2525Z[#100+-0.1000]
#102=[#567+0.60361*#554-0.60361*#567]
#101=[#568+0.60361*#555-0.60361*#568]
#100=[#102+0.46888*#101-0.46888*#102]
G01 X14.3729Y23.2289Z[#100+-0.1000]
#102=[#567+0.60723*#554-0.60723*#567]
#101=[#568+0.60723*#555-0.60723*#568]
#100=[#102+0.46550*#101-0.46550*#102]
G01 X14.3548Y23.2107Z[#100+-0.1000]
#102=[#567+0.61145*#554-0.61145*#567]
#101=[#568+0.61145*#555-0.61145*#568]
#100=[#102+0.46107*#101-0.46107*#102]
G01 X14.3311Y23.1895Z[#100+-0.1000]
#102=[#567+0.61375*#554-0.61375*#567]
#101=[#568+0.61375*#555-0.61375*#568]
#100=[#102+0.45838*#101-0.45838*#102]
G01 X14.3167Y23.1780Z[#100+-0.1000]
#102=[#567+0.61817*#554-0.61817*#567]
#101=[#568+0.61817*#555-0.61817*#568]
#100=[#102+0.45270*#101-0.45270*#102]
G01 X14.2863Y23.1558Z[#100+-0.1000]
#102=[#567+0.62203*#554-0.62203*#567]
#101=[#568+0.62203*#555-0.62203*#568]
#100=[#102+0.44678*#101-0.44678*#102]
G01 X14.2546Y23.1364Z[#100+-0.1000]
#102=[#567+0.62394*#554-0.62394*#567]
#101=[#568+0.62394*#555-0.62394*#568]
#100=[#102+0.44351*#101-0.44351*#102]
G01 X14.2371Y23.1268Z[#100+-0.1000]
#102=[#567+0.62703*#554-0.62703*#567]
#101=[#568+0.62703*#555-0.62703*#568]
#100=[#102+0.43734*#101-0.43734*#102]
G01 X14.2041Y23.1113Z[#100+-0.1000]
#102=[#567+0.62849*#554-0.62849*#567]
#101=[#568+0.62849*#555-0.62849*#568]
#100=[#102+0.43396*#101-0.43396*#102]
G01 X14.1860Y23.1040Z[#100+-0.1000]
#102=[#567+0.63098*#554-0.63098*#567]
#101=[#568+0.63098*#555-0.63098*#568]
#100=[#102+0.42722*#101-0.42722*#102]
G01 X14.1499Y23.0915Z[#100+-0.1000]
#102=[#567+0.63215*#554-0.63215*#567]
#101=[#568+0.63215*#555-0.63215*#568]
#100=[#102+0.42309*#101-0.42309*#102]
G01 X14.1278Y23.0856Z[#100+-0.1000]
G00 Z1.0000
G00 X14.3507Y23.5526
#102=[#567+0.53912*#554-0.53912*#567]
#101=[#568+0.53912*#555-0.53912*#568]
#100=[#102+0.46473*#101-0.46473*#102]
G01 Z[#100+-0.1000]
#102=[#567+0.54737*#554-0.54737*#567]
#101=[#568+0.54737*#555-0.54737*#568]
#100=[#102+0.46365*#101-0.46365*#102]
G01 X14.3449Y23.5112Z[#100+-0.1000]
#102=[#567+0.55353*#554-0.55353*#567]
#101=[#568+0.55353*#555-0.55353*#568]
#100=[#102+0.46219*#101-0.46219*#102]
G01 X14.3371Y23.4803Z[#100+-0.1000]
#102=[#567+0.56048*#554-0.56048*#567]
#101=[#568+0.56048*#555-0.56048*#568]
#100=[#102+0.45982*#101-0.45982*#102]
G01 X14.3244Y23.4454Z[#100+-0.1000]
#102=[#567+0.56705*#554-0.56705*#567]
#101=[#568+0.56705*#555-0.56705*#568]
#100=[#102+0.45681*#101-0.45681*#102]
G01 X14.3083Y23.4124Z[#100+-0.1000]
#102=[#567+0.57205*#554-0.57205*#567]
#101=[#568+0.57205*#555-0.57205*#568]
#100=[#102+0.45397*#101-0.45397*#102]
G01 X14.2931Y23.3873Z[#100+-0.1000]
#102=[#567+0.57831*#554-0.57831*#567]
#101=[#568+0.57831*#555-0.57831*#568]
#100=[#102+0.44954*#101-0.44954*#102]
G01 X14.2694Y23.3559Z[#100+-0.1000]
#102=[#567+0.58263*#554-0.58263*#567]
#101=[#568+0.58263*#555-0.58263*#568]
#100=[#102+0.44583*#101-0.44583*#102]
G01 X14.2495Y23.3342Z[#100+-0.1000]
#102=[#567+0.58659*#554-0.58659*#567]
#101=[#568+0.58659*#555-0.58659*#568]
#100=[#102+0.44177*#101-0.44177*#102]
G01 X14.2278Y23.3143Z[#100+-0.1000]
#102=[#567+0.59074*#554-0.59074*#567]
#101=[#568+0.59074*#555-0.59074*#568]
#100=[#102+0.43667*#101-0.43667*#102]
G01 X14.2005Y23.2935Z[#100+-0.1000]
#102=[#567+0.59434*#554-0.59434*#567]
#101=[#568+0.59434*#555-0.59434*#568]
#100=[#102+0.43121*#101-0.43121*#102]
G01 X14.1713Y23.2754Z[#100+-0.1000]
#102=[#567+0.59755*#554-0.59755*#567]
#101=[#568+0.59755*#555-0.59755*#568]
#100=[#102+0.42505*#101-0.42505*#102]
G01 X14.1383Y23.2593Z[#100+-0.1000]
#102=[#567+0.60008*#554-0.60008*#567]
#101=[#568+0.60008*#555-0.60008*#568]
#100=[#102+0.41851*#101-0.41851*#102]
G01 X14.1033Y23.2466Z[#100+-0.1000]
#102=[#567+0.60163*#554-0.60163*#567]
#101=[#568+0.60163*#555-0.60163*#568]
#100=[#102+0.41276*#101-0.41276*#102]
G01 X14.0725Y23.2388Z[#100+-0.1000]
#102=[#567+0.60273*#554-0.60273*#567]
#101=[#568+0.60273*#555-0.60273*#568]
#100=[#102+0.40603*#101-0.40603*#102]
G01 X14.0365Y23.2333Z[#100+-0.1000]
#102=[#567+0.60303*#554-0.60303*#567]
#101=[#568+0.60303*#555-0.60303*#568]
#100=[#102+0.40050*#101-0.40050*#102]
G01 X14.0069Y23.2318Z[#100+-0.1000]
#102=[#567+0.60307*#554-0.60307*#567]
#101=[#568+0.60307*#555-0.60307*#568]
#100=[#102+0.38165*#101-0.38165*#102]
G01 X13.9060Y23.2316Z[#100+-0.1000]
#102=[#567+0.65928*#554-0.65928*#567]
#101=[#568+0.65928*#555-0.65928*#568]
#100=[#102+0.38165*#101-0.38165*#102]
G01 X13.9060Y22.9494Z[#100+-0.1000]
#102=[#567+0.66442*#554-0.66442*#567]
#101=[#568+0.66442*#555-0.66442*#568]
#100=[#102+0.38647*#101-0.38647*#102]
G01 X13.9318Y22.9236Z[#100+-0.1000]
#102=[#567+0.66442*#554-0.66442*#567]
#101=[#568+0.66442*#555-0.66442*#568]
#100=[#102+0.46146*#101-0.46146*#102]
G01 X14.3332Y22.9236Z[#100+-0.1000]
#102=[#567+0.65203*#554-0.65203*#567]
#101=[#568+0.65203*#555-0.65203*#568]
#100=[#102+0.48949*#101-0.48949*#102]
G01 X14.4832Y22.9858Z[#100+-0.1000]
#102=[#567+0.62918*#554-0.62918*#567]
#101=[#568+0.62918*#555-0.62918*#568]
#100=[#102+0.51092*#101-0.51092*#102]
G01 X14.5979Y23.1005Z[#100+-0.1000]
#102=[#567+0.59930*#554-0.59930*#567]
#101=[#568+0.59930*#555-0.59930*#568]
#100=[#102+0.52252*#101-0.52252*#102]
G01 X14.6600Y23.2505Z[#100+-0.1000]
#102=[#567+0.54424*#554-0.54424*#567]
#101=[#568+0.54424*#555-0.54424*#568]
#100=[#102+0.52252*#101-0.52252*#102]
G01 X14.6600Y23.5269Z[#100+-0.1000]
#102=[#567+0.53912*#554-0.53912*#567]
#101=[#568+0.53912*#555-0.53912*#568]
#100=[#102+0.51772*#101-0.51772*#102]
G01 X14.6343Y23.5526Z[#100+-0.1000]
#102=[#567+0.53912*#554-0.53912*#567]
#101=[#568+0.53912*#555-0.53912*#568]
#100=[#102+0.46473*#101-0.46473*#102]
G01 X14.3507Y23.5526Z[#100+-0.1000]
G00 Z1.0000
G00 X14.0856Y24.9630
#102=[#567+0.25817*#554-0.25817*#567]
#101=[#568+0.25817*#555-0.25817*#568]
#100=[#102+0.41520*#101-0.41520*#102]
G01 Z[#100+-0.1000]
#102=[#567+0.25888*#554-0.25888*#567]
#101=[#568+0.25888*#555-0.25888*#568]
#100=[#102+0.40807*#101-0.40807*#102]
G01 X14.0474Y24.9594Z[#100+-0.1000]
#102=[#567+0.25924*#554-0.25924*#567]
#101=[#568+0.25924*#555-0.25924*#568]
#100=[#102+0.39958*#101-0.39958*#102]
G01 X14.0020Y24.9576Z[#100+-0.1000]
#102=[#567+0.25924*#554-0.25924*#567]
#101=[#568+0.25924*#555-0.25924*#568]
#100=[#102+0.23143*#101-0.23143*#102]
G01 X13.1020Y24.9576Z[#100+-0.1000]
#102=[#567+0.25888*#554-0.25888*#567]
#101=[#568+0.25888*#555-0.25888*#568]
#100=[#102+0.22296*#101-0.22296*#102]
G01 X13.0567Y24.9594Z[#100+-0.1000]
#102=[#567+0.25817*#554-0.25817*#567]
#101=[#568+0.25817*#555-0.25817*#568]
#100=[#102+0.21583*#101-0.21583*#102]
G01 X13.0185Y24.9630Z[#100+-0.1000]
#102=[#567+0.26243*#554-0.26243*#567]
#101=[#568+0.26243*#555-0.26243*#568]
#100=[#102+0.21553*#101-0.21553*#102]
G01 X13.0169Y24.9416Z[#100+-0.1000]
#102=[#567+0.27088*#554-0.27088*#567]
#101=[#568+0.27088*#555-0.27088*#568]
#100=[#102+0.21437*#101-0.21437*#102]
G01 X13.0107Y24.8992Z[#100+-0.1000]
#102=[#567+0.27026*#554-0.27026*#567]
#101=[#568+0.27026*#555-0.27026*#568]
#100=[#102+0.21896*#101-0.21896*#102]
G01 X13.0353Y24.9023Z[#100+-0.1000]
#102=[#567+0.26994*#554-0.26994*#567]
#101=[#568+0.26994*#555-0.26994*#568]
#100=[#102+0.22296*#101-0.22296*#102]
G01 X13.0567Y24.9039Z[#100+-0.1000]
#102=[#567+0.26960*#554-0.26960*#567]
#101=[#568+0.26960*#555-0.26960*#568]
#100=[#102+0.23143*#101-0.23143*#102]
G01 X13.1020Y24.9056Z[#100+-0.1000]
#102=[#567+0.26960*#554-0.26960*#567]
#101=[#568+0.26960*#555-0.26960*#568]
#100=[#102+0.39958*#101-0.39958*#102]
G01 X14.0020Y24.9056Z[#100+-0.1000]
#102=[#567+0.26994*#554-0.26994*#567]
#101=[#568+0.26994*#555-0.26994*#568]
#100=[#102+0.40807*#101-0.40807*#102]
G01 X14.0474Y24.9039Z[#100+-0.1000]
#102=[#567+0.27026*#554-0.27026*#567]
#101=[#568+0.27026*#555-0.27026*#568]
#100=[#102+0.41205*#101-0.41205*#102]
G01 X14.0687Y24.9023Z[#100+-0.1000]
#102=[#567+0.27088*#554-0.27088*#567]
#101=[#568+0.27088*#555-0.27088*#568]
#100=[#102+0.41664*#101-0.41664*#102]
G01 X14.0933Y24.8992Z[#100+-0.1000]
#102=[#567+0.26243*#554-0.26243*#567]
#101=[#568+0.26243*#555-0.26243*#568]
#100=[#102+0.41550*#101-0.41550*#102]
G01 X14.0872Y24.9416Z[#100+-0.1000]
#102=[#567+0.25817*#554-0.25817*#567]
#101=[#568+0.25817*#555-0.25817*#568]
#100=[#102+0.41520*#101-0.41520*#102]
G01 X14.0856Y24.9630Z[#100+-0.1000]
G00 Z1.0000
G00 X13.1020Y25.2816
#102=[#567+0.19470*#554-0.19470*#567]
#101=[#568+0.19470*#555-0.19470*#568]
#100=[#102+0.23143*#101-0.23143*#102]
G01 Z[#100+-0.1000]
#102=[#567+0.19470*#554-0.19470*#567]
#101=[#568+0.19470*#555-0.19470*#568]
#100=[#102+0.39958*#101-0.39958*#102]
G01 X14.0020Y25.2816Z[#100+-0.1000]
#102=[#567+0.19436*#554-0.19436*#567]
#101=[#568+0.19436*#555-0.19436*#568]
#100=[#102+0.40603*#101-0.40603*#102]
G01 X14.0365Y25.2833Z[#100+-0.1000]
#102=[#567+0.19327*#554-0.19327*#567]
#101=[#568+0.19327*#555-0.19327*#568]
#100=[#102+0.41276*#101-0.41276*#102]
G01 X14.0725Y25.2888Z[#100+-0.1000]
#102=[#567+0.19137*#554-0.19137*#567]
#101=[#568+0.19137*#555-0.19137*#568]
#100=[#102+0.41944*#101-0.41944*#102]
G01 X14.1083Y25.2983Z[#100+-0.1000]
#102=[#567+0.18918*#554-0.18918*#567]
#101=[#568+0.18918*#555-0.18918*#568]
#100=[#102+0.42505*#101-0.42505*#102]
G01 X14.1383Y25.3093Z[#100+-0.1000]
#102=[#567+0.18671*#554-0.18671*#567]
#101=[#568+0.18671*#555-0.18671*#568]
#100=[#102+0.42996*#101-0.42996*#102]
G01 X14.1646Y25.3217Z[#100+-0.1000]
#102=[#567+0.18237*#554-0.18237*#567]
#101=[#568+0.18237*#555-0.18237*#568]
#100=[#102+0.43667*#101-0.43667*#102]
G01 X14.2005Y25.3435Z[#100+-0.1000]
#102=[#567+0.17859*#554-0.17859*#567]
#101=[#568+0.17859*#555-0.17859*#568]
#100=[#102+0.44138*#101-0.44138*#102]
G01 X14.2257Y25.3625Z[#100+-0.1000]
#102=[#567+0.17494*#554-0.17494*#567]
#101=[#568+0.17494*#555-0.17494*#568]
#100=[#102+0.44517*#101-0.44517*#102]
G01 X14.2460Y25.3808Z[#100+-0.1000]
#102=[#567+0.16952*#554-0.16952*#567]
#101=[#568+0.16952*#555-0.16952*#568]
#100=[#102+0.44988*#101-0.44988*#102]
G01 X14.2712Y25.4080Z[#100+-0.1000]
#102=[#567+0.16289*#554-0.16289*#567]
#101=[#568+0.16289*#555-0.16289*#568]
#100=[#102+0.45446*#101-0.45446*#102]
G01 X14.2957Y25.4413Z[#100+-0.1000]
#102=[#567+0.15735*#554-0.15735*#567]
#101=[#568+0.15735*#555-0.15735*#568]
#100=[#102+0.45750*#101-0.45750*#102]
G01 X14.3120Y25.4691Z[#100+-0.1000]
#102=[#567+0.15255*#554-0.15255*#567]
#101=[#568+0.15255*#555-0.15255*#568]
#100=[#102+0.45963*#101-0.45963*#102]
G01 X14.3234Y25.4932Z[#100+-0.1000]
#102=[#567+0.14516*#554-0.14516*#567]
#101=[#568+0.14516*#555-0.14516*#568]
#100=[#102+0.46219*#101-0.46219*#102]
G01 X14.3371Y25.5303Z[#100+-0.1000]
#102=[#567+0.13900*#554-0.13900*#567]
#101=[#568+0.13900*#555-0.13900*#568]
#100=[#102+0.46365*#101-0.46365*#102]
G01 X14.3449Y25.5612Z[#100+-0.1000]
#102=[#567+0.13277*#554-0.13277*#567]
#101=[#568+0.13277*#555-0.13277*#568]
#100=[#102+0.46457*#101-0.46457*#102]
G01 X14.3498Y25.5925Z[#100+-0.1000]
#102=[#567+0.12498*#554-0.12498*#567]
#101=[#568+0.12498*#555-0.12498*#568]
#100=[#102+0.46498*#101-0.46498*#102]
G01 X14.3520Y25.6316Z[#100+-0.1000]
#102=[#580+0.99550*#567-0.99550*#580]
#101=[#581+0.99550*#568-0.99550*#581]
#100=[#102+0.46498*#101-0.46498*#102]
G01 X14.3520Y26.2816Z[#100+-0.1000]
#102=[#580+0.98863*#567-0.98863*#580]
#101=[#581+0.98863*#568-0.98863*#581]
#100=[#102+0.46466*#101-0.46466*#102]
G01 X14.3503Y26.3161Z[#100+-0.1000]
#102=[#580+0.98145*#567-0.98145*#580]
#101=[#581+0.98145*#568-0.98145*#581]
#100=[#102+0.46365*#101-0.46365*#102]
G01 X14.3449Y26.3521Z[#100+-0.1000]
#102=[#580+0.97530*#567-0.97530*#580]
#101=[#581+0.97530*#568-0.97530*#581]
#100=[#102+0.46219*#101-0.46219*#102]
G01 X14.3371Y26.3830Z[#100+-0.1000]
#102=[#580+0.96835*#567-0.96835*#580]
#101=[#581+0.96835*#568-0.96835*#581]
#100=[#102+0.45982*#101-0.45982*#102]
G01 X14.3244Y26.4179Z[#100+-0.1000]
#102=[#580+0.96311*#567-0.96311*#580]
#101=[#581+0.96311*#568-0.96311*#581]
#100=[#102+0.45750*#101-0.45750*#102]
G01 X14.3120Y26.4442Z[#100+-0.1000]
#102=[#580+0.95677*#567-0.95677*#580]
#101=[#581+0.95677*#568-0.95677*#581]
#100=[#102+0.45397*#101-0.45397*#102]
G01 X14.2931Y26.4760Z[#100+-0.1000]
#102=[#580+0.95094*#567-0.95094*#580]
#101=[#581+0.95094*#568-0.95094*#581]
#100=[#102+0.44988*#101-0.44988*#102]
G01 X14.2712Y26.5053Z[#100+-0.1000]
#102=[#580+0.94620*#567-0.94620*#580]
#101=[#581+0.94620*#568-0.94620*#581]
#100=[#102+0.44583*#101-0.44583*#102]
G01 X14.2495Y26.5291Z[#100+-0.1000]
#102=[#580+0.94187*#567-0.94187*#580]
#101=[#581+0.94187*#568-0.94187*#581]
#100=[#102+0.44138*#101-0.44138*#102]
G01 X14.2257Y26.5508Z[#100+-0.1000]
#102=[#580+0.93751*#567-0.93751*#580]
#101=[#581+0.93751*#568-0.93751*#581]
#100=[#102+0.43590*#101-0.43590*#102]
G01 X14.1964Y26.5727Z[#100+-0.1000]
#102=[#580+0.93375*#567-0.93375*#580]
#101=[#581+0.93375*#568-0.93375*#581]
#100=[#102+0.42996*#101-0.42996*#102]
G01 X14.1646Y26.5916Z[#100+-0.1000]
#102=[#580+0.93127*#567-0.93127*#580]
#101=[#581+0.93127*#568-0.93127*#581]
#100=[#102+0.42505*#101-0.42505*#102]
G01 X14.1383Y26.6040Z[#100+-0.1000]
#102=[#580+0.92851*#567-0.92851*#580]
#101=[#581+0.92851*#568-0.92851*#581]
#100=[#102+0.41769*#101-0.41769*#102]
G01 X14.0989Y26.6179Z[#100+-0.1000]
#102=[#580+0.92719*#567-0.92719*#580]
#101=[#581+0.92719*#568-0.92719*#581]
#100=[#102+0.41276*#101-0.41276*#102]
G01 X14.0725Y26.6245Z[#100+-0.1000]
#102=[#580+0.92612*#567-0.92612*#580]
#101=[#581+0.92612*#568-0.92612*#581]
#100=[#102+0.40603*#101-0.40603*#102]
G01 X14.0365Y26.6299Z[#100+-0.1000]
#102=[#580+0.92578*#567-0.92578*#580]
#101=[#581+0.92578*#568-0.92578*#581]
#100=[#102+0.39958*#101-0.39958*#102]
G01 X14.0020Y26.6316Z[#100+-0.1000]
#102=[#580+0.92578*#567-0.92578*#580]
#101=[#581+0.92578*#568-0.92578*#581]
#100=[#102+0.37156*#101-0.37156*#102]
G01 X13.8520Y26.6316Z[#100+-0.1000]
#102=[#580+0.58259*#567-0.58259*#580]
#101=[#581+0.58259*#568-0.58259*#581]
#100=[#102+0.37156*#101-0.37156*#102]
G01 X13.8520Y28.3544Z[#100+-0.1000]
#102=[#580+0.51641*#567-0.51641*#580]
#101=[#581+0.51641*#568-0.51641*#581]
#100=[#102+0.43364*#101-0.43364*#102]
G01 X14.1843Y28.6866Z[#100+-0.1000]
#102=[#580+0.51641*#567-0.51641*#580]
#101=[#581+0.51641*#568-0.51641*#581]
#100=[#102+0.50178*#101-0.50178*#102]
G01 X14.5490Y28.6866Z[#100+-0.1000]
#102=[#580+0.51849*#567-0.51849*#580]
#101=[#581+0.51849*#568-0.51849*#581]
#100=[#102+0.50190*#101-0.50190*#102]
G01 X14.5496Y28.6762Z[#100+-0.1000]
#102=[#580+0.52054*#567-0.52054*#580]
#101=[#581+0.52054*#568-0.52054*#581]
#100=[#102+0.50220*#101-0.50220*#102]
G01 X14.5512Y28.6659Z[#100+-0.1000]
#102=[#580+0.52255*#567-0.52255*#580]
#101=[#581+0.52255*#568-0.52255*#581]
#100=[#102+0.50270*#101-0.50270*#102]
G01 X14.5539Y28.6558Z[#100+-0.1000]
#102=[#580+0.52450*#567-0.52450*#580]
#101=[#581+0.52450*#568-0.52450*#581]
#100=[#102+0.50341*#101-0.50341*#102]
G01 X14.5577Y28.6460Z[#100+-0.1000]
#102=[#580+0.52635*#567-0.52635*#580]
#101=[#581+0.52635*#568-0.52635*#581]
#100=[#102+0.50429*#101-0.50429*#102]
G01 X14.5624Y28.6367Z[#100+-0.1000]
#102=[#580+0.52811*#567-0.52811*#580]
#101=[#581+0.52811*#568-0.52811*#581]
#100=[#102+0.50535*#101-0.50535*#102]
G01 X14.5681Y28.6279Z[#100+-0.1000]
#102=[#580+0.52974*#567-0.52974*#580]
#101=[#581+0.52974*#568-0.52974*#581]
#100=[#102+0.50659*#101-0.50659*#102]
G01 X14.5747Y28.6197Z[#100+-0.1000]
#102=[#580+0.53122*#567-0.53122*#580]
#101=[#581+0.53122*#568-0.53122*#581]
#100=[#102+0.50797*#101-0.50797*#102]
G01 X14.5821Y28.6123Z[#100+-0.1000]
#102=[#580+0.53253*#567-0.53253*#580]
#101=[#581+0.53253*#568-0.53253*#581]
#100=[#102+0.50950*#101-0.50950*#102]
G01 X14.5903Y28.6057Z[#100+-0.1000]
#102=[#580+0.53367*#567-0.53367*#580]
#101=[#581+0.53367*#568-0.53367*#581]
#100=[#102+0.51114*#101-0.51114*#102]
G01 X14.5991Y28.6000Z[#100+-0.1000]
#102=[#580+0.53460*#567-0.53460*#580]
#101=[#581+0.53460*#568-0.53460*#581]
#100=[#102+0.51288*#101-0.51288*#102]
G01 X14.6084Y28.5953Z[#100+-0.1000]
#102=[#580+0.53536*#567-0.53536*#580]
#101=[#581+0.53536*#568-0.53536*#581]
#100=[#102+0.51471*#101-0.51471*#102]
G01 X14.6182Y28.5915Z[#100+-0.1000]
#102=[#580+0.53590*#567-0.53590*#580]
#101=[#581+0.53590*#568-0.53590*#581]
#100=[#102+0.51660*#101-0.51660*#102]
G01 X14.6283Y28.5888Z[#100+-0.1000]
#102=[#580+0.53622*#567-0.53622*#580]
#101=[#581+0.53622*#568-0.53622*#581]
#100=[#102+0.51853*#101-0.51853*#102]
G01 X14.6386Y28.5872Z[#100+-0.1000]
#102=[#580+0.53633*#567-0.53633*#580]
#101=[#581+0.53633*#568-0.53633*#581]
#100=[#102+0.52047*#101-0.52047*#102]
G01 X14.6490Y28.5866Z[#100+-0.1000]
#102=[#580+0.53633*#567-0.53633*#580]
#101=[#581+0.53633*#568-0.53633*#581]
#100=[#102+0.81007*#101-0.81007*#102]
G01 X16.1990Y28.5866Z[#100+-0.1000]
#102=[#580+0.53622*#567-0.53622*#580]
#101=[#581+0.53622*#568-0.53622*#581]
#100=[#102+0.81203*#101-0.81203*#102]
G01 X16.2095Y28.5872Z[#100+-0.1000]
#102=[#580+0.53590*#567-0.53590*#580]
#101=[#581+0.53590*#568-0.53590*#581]
#100=[#102+0.81396*#101-0.81396*#102]
G01 X16.2198Y28.5888Z[#100+-0.1000]
#102=[#580+0.53536*#567-0.53536*#580]
#101=[#581+0.53536*#568-0.53536*#581]
#100=[#102+0.81584*#101-0.81584*#102]
G01 X16.2299Y28.5915Z[#100+-0.1000]
#102=[#580+0.53460*#567-0.53460*#580]
#101=[#581+0.53460*#568-0.53460*#581]
#100=[#102+0.81767*#101-0.81767*#102]
G01 X16.2397Y28.5953Z[#100+-0.1000]
#102=[#580+0.53367*#567-0.53367*#580]
#101=[#581+0.53367*#568-0.53367*#581]
#100=[#102+0.81941*#101-0.81941*#102]
G01 X16.2490Y28.6000Z[#100+-0.1000]
#102=[#580+0.53253*#567-0.53253*#580]
#101=[#581+0.53253*#568-0.53253*#581]
#100=[#102+0.82106*#101-0.82106*#102]
G01 X16.2578Y28.6057Z[#100+-0.1000]
#102=[#580+0.53122*#567-0.53122*#580]
#101=[#581+0.53122*#568-0.53122*#581]
#100=[#102+0.82257*#101-0.82257*#102]
G01 X16.2659Y28.6123Z[#100+-0.1000]
#102=[#580+0.52974*#567-0.52974*#580]
#101=[#581+0.52974*#568-0.52974*#581]
#100=[#102+0.82397*#101-0.82397*#102]
G01 X16.2734Y28.6197Z[#100+-0.1000]
#102=[#580+0.52811*#567-0.52811*#580]
#101=[#581+0.52811*#568-0.52811*#581]
#100=[#102+0.82520*#101-0.82520*#102]
G01 X16.2800Y28.6279Z[#100+-0.1000]
#102=[#580+0.52635*#567-0.52635*#580]
#101=[#581+0.52635*#568-0.52635*#581]
#100=[#102+0.82627*#101-0.82627*#102]
G01 X16.2857Y28.6367Z[#100+-0.1000]
#102=[#580+0.52450*#567-0.52450*#580]
#101=[#581+0.52450*#568-0.52450*#581]
#100=[#102+0.82715*#101-0.82715*#102]
G01 X16.2904Y28.6460Z[#100+-0.1000]
#102=[#580+0.52255*#567-0.52255*#580]
#101=[#581+0.52255*#568-0.52255*#581]
#100=[#102+0.82786*#101-0.82786*#102]
G01 X16.2942Y28.6558Z[#100+-0.1000]
#102=[#580+0.52054*#567-0.52054*#580]
#101=[#581+0.52054*#568-0.52054*#581]
#100=[#102+0.82836*#101-0.82836*#102]
G01 X16.2969Y28.6659Z[#100+-0.1000]
#102=[#580+0.51849*#567-0.51849*#580]
#101=[#581+0.51849*#568-0.51849*#581]
#100=[#102+0.82866*#101-0.82866*#102]
G01 X16.2985Y28.6762Z[#100+-0.1000]
#102=[#580+0.51641*#567-0.51641*#580]
#101=[#581+0.51641*#568-0.51641*#581]
#100=[#102+0.82875*#101-0.82875*#102]
G01 X16.2990Y28.6866Z[#100+-0.1000]
#102=[#580+0.51641*#567-0.51641*#580]
#101=[#581+0.51641*#568-0.51641*#581]
#100=[#102+0.95214*#101-0.95214*#102]
G01 X16.9594Y28.6866Z[#100+-0.1000]
#102=[#581+0.58871*#568-0.58871*#581]
#101=[#582+0.58871*#569-0.58871*#582]
#100=[#102+0.01997*#101-0.01997*#102]
G01 X17.3224Y28.3237Z[#100+-0.1000]
#102=[#568+0.58472*#555-0.58472*#568]
#101=[#569+0.58472*#556-0.58472*#569]
#100=[#102+0.01997*#101-0.01997*#102]
G01 X17.32240Y23.32370Z[#100+-0.1000] ;segmented line. Max segment length set to 5
#102=[#555+0.17697*#542-0.17697*#555]
#101=[#556+0.17697*#543-0.17697*#556]
#100=[#102+0.01997*#101-0.01997*#102]
G01 X17.3224Y20.3506Z[#100+-0.1000]
#102=[#555+0.18285*#542-0.18285*#555]
#101=[#556+0.18285*#543-0.18285*#556]
#100=[#102+0.02023*#101-0.02023*#102]
G01 X17.3238Y20.3211Z[#100+-0.1000]
#102=[#555+0.18765*#542-0.18765*#555]
#101=[#556+0.18765*#543-0.18765*#556]
#100=[#102+0.02088*#101-0.02088*#102]
G01 X17.3273Y20.2970Z[#100+-0.1000]
#102=[#555+0.19524*#542-0.19524*#555]
#101=[#556+0.19524*#543-0.19524*#556]
#100=[#102+0.02266*#101-0.02266*#102]
G01 X17.3368Y20.2589Z[#100+-0.1000]
#102=[#555+0.20030*#542-0.20030*#555]
#101=[#556+0.20030*#543-0.20030*#556]
#100=[#102+0.02441*#101-0.02441*#102]
G01 X17.3462Y20.2335Z[#100+-0.1000]
#102=[#555+0.20466*#542-0.20466*#555]
#101=[#556+0.20466*#543-0.20466*#556]
#100=[#102+0.02634*#101-0.02634*#102]
G01 X17.3565Y20.2116Z[#100+-0.1000]
#102=[#555+0.21014*#542-0.21014*#555]
#101=[#556+0.21014*#543-0.21014*#556]
#100=[#102+0.02940*#101-0.02940*#102]
G01 X17.3729Y20.1841Z[#100+-0.1000]
#102=[#555+0.21410*#542-0.21410*#555]
#101=[#556+0.21410*#543-0.21410*#556]
#100=[#102+0.03211*#101-0.03211*#102]
G01 X17.3874Y20.1642Z[#100+-0.1000]
#102=[#555+0.21922*#542-0.21922*#555]
#101=[#556+0.21922*#543-0.21922*#556]
#100=[#102+0.03637*#101-0.03637*#102]
G01 X17.4102Y20.1385Z[#100+-0.1000]
#102=[#555+0.92351*#542-0.92351*#555]
#101=[#556+0.92351*#543-0.92351*#556]
#100=[#102+0.69695*#101-0.69695*#102]
G01 X20.94575Y16.60298Z[#100+-0.1000] ;segmented line. Max segment length set to 5
#102=[#543+0.62780*#530-0.62780*#543]
#101=[#544+0.62780*#531-0.62780*#544]
#100=[#102+0.35753*#101-0.35753*#102]
G01 X24.48130Y13.06746Z[#100+-0.1000] ;segmented line. Max segment length set to 5
#102=[#531+0.33208*#518-0.33208*#531]
#101=[#532+0.33208*#519-0.33208*#532]
#100=[#102+0.01811*#101-0.01811*#102]
G01 X28.01685Y9.53194Z[#100+-0.1000] ;segmented line. Max segment length set to 5
#102=[#531+0.42631*#518-0.42631*#531]
#101=[#532+0.42631*#519-0.42631*#532]
#100=[#102+0.10650*#101-0.10650*#102]
G01 X28.4899Y9.0589Z[#100+-0.1000]
#102=[#531+0.42998*#518-0.42998*#531]
#101=[#532+0.42998*#519-0.42998*#532]
#100=[#102+0.11025*#101-0.11025*#102]
G01 X28.5100Y9.0405Z[#100+-0.1000]
#102=[#531+0.43319*#518-0.43319*#531]
#101=[#532+0.43319*#519-0.43319*#532]
#100=[#102+0.11423*#101-0.11423*#102]
G01 X28.5313Y9.0244Z[#100+-0.1000]
#102=[#531+0.43721*#518-0.43721*#531]
#101=[#532+0.43721*#519-0.43721*#532]
#100=[#102+0.12053*#101-0.12053*#102]
G01 X28.5650Y9.0042Z[#100+-0.1000]
#102=[#531+0.43908*#518-0.43908*#531]
#101=[#532+0.43908*#519-0.43908*#532]
#100=[#102+0.12423*#101-0.12423*#102]
G01 X28.5848Y8.9948Z[#100+-0.1000]
#102=[#531+0.44127*#518-0.44127*#531]
#101=[#532+0.44127*#519-0.44127*#532]
#100=[#102+0.12991*#101-0.12991*#102]
G01 X28.6152Y8.9838Z[#100+-0.1000]
#102=[#531+0.44259*#518-0.44259*#531]
#101=[#532+0.44259*#519-0.44259*#532]
#100=[#102+0.13479*#101-0.13479*#102]
G01 X28.6413Y8.9772Z[#100+-0.1000]
#102=[#531+0.44343*#518-0.44343*#531]
#101=[#532+0.44343*#519-0.44343*#532]
#100=[#102+0.13972*#101-0.13972*#102]
G01 X28.6677Y8.9730Z[#100+-0.1000]
#102=[#531+0.44382*#518-0.44382*#531]
#101=[#532+0.44382*#519-0.44382*#532]
#100=[#102+0.14613*#101-0.14613*#102]
G01 X28.7020Y8.9710Z[#100+-0.1000]
#102=[#531+0.44382*#518-0.44382*#531]
#101=[#532+0.44382*#519-0.44382*#532]
#100=[#102+0.50206*#101-0.50206*#102]
G01 X30.6070Y8.9710Z[#100+-0.1000]
#102=[#531+0.44343*#518-0.44343*#531]
#101=[#532+0.44343*#519-0.44343*#532]
#100=[#102+0.50847*#101-0.50847*#102]
G01 X30.6413Y8.9730Z[#100+-0.1000]
#102=[#531+0.44259*#518-0.44259*#531]
#101=[#532+0.44259*#519-0.44259*#532]
#100=[#102+0.51340*#101-0.51340*#102]
G01 X30.6677Y8.9772Z[#100+-0.1000]
#102=[#531+0.44151*#518-0.44151*#531]
#101=[#532+0.44151*#519-0.44151*#532]
#100=[#102+0.51745*#101-0.51745*#102]
G01 X30.6894Y8.9826Z[#100+-0.1000]
#102=[#531+0.43908*#518-0.43908*#531]
#101=[#532+0.43908*#519-0.43908*#532]
#100=[#102+0.52395*#101-0.52395*#102]
G01 X30.7242Y8.9948Z[#100+-0.1000]
#102=[#531+0.43629*#518-0.43629*#531]
#101=[#532+0.43629*#519-0.43629*#532]
#100=[#102+0.52928*#101-0.52928*#102]
G01 X30.7527Y9.0088Z[#100+-0.1000]
#102=[#531+0.43376*#518-0.43376*#531]
#101=[#532+0.43376*#519-0.43376*#532]
#100=[#102+0.53318*#101-0.53318*#102]
G01 X30.7736Y9.0215Z[#100+-0.1000]
#102=[#531+0.43086*#518-0.43086*#531]
#101=[#532+0.43086*#519-0.43086*#532]
#100=[#102+0.53688*#101-0.53688*#102]
G01 X30.7934Y9.0361Z[#100+-0.1000]
#102=[#531+0.42699*#518-0.42699*#531]
#101=[#532+0.42699*#519-0.42699*#532]
#100=[#102+0.54103*#101-0.54103*#102]
G01 X30.8156Y9.0555Z[#100+-0.1000]
#102=[#531+0.28448*#518-0.28448*#531]
#101=[#532+0.28448*#519-0.28448*#532]
#100=[#102+0.67472*#101-0.67472*#102]
G01 X31.5311Y9.7709Z[#100+-0.1000]
#102=[#531+0.28048*#518-0.28048*#531]
#101=[#532+0.28048*#519-0.28048*#532]
#100=[#102+0.67815*#101-0.67815*#102]
G01 X31.5495Y9.7910Z[#100+-0.1000]
#102=[#531+0.27542*#518-0.27542*#531]
#101=[#532+0.27542*#519-0.27542*#532]
#100=[#102+0.68170*#101-0.68170*#102]
G01 X31.5685Y9.8164Z[#100+-0.1000]
#102=[#531+0.27125*#518-0.27125*#531]
#101=[#532+0.27125*#519-0.27125*#532]
#100=[#102+0.68408*#101-0.68408*#102]
G01 X31.5812Y9.8373Z[#100+-0.1000]
#102=[#531+0.26418*#518-0.26418*#531]
#101=[#532+0.26418*#519-0.26418*#532]
#100=[#102+0.68720*#101-0.68720*#102]
G01 X31.5979Y9.8728Z[#100+-0.1000]
#102=[#531+0.25952*#518-0.25952*#531]
#101=[#532+0.25952*#519-0.25952*#532]
#100=[#102+0.68875*#101-0.68875*#102]
G01 X31.6062Y9.8962Z[#100+-0.1000]
#102=[#531+0.25432*#518-0.25432*#531]
#101=[#532+0.25432*#519-0.25432*#532]
#100=[#102+0.68998*#101-0.68998*#102]
G01 X31.6128Y9.9223Z[#100+-0.1000]
#102=[#531+0.24813*#518-0.24813*#531]
#101=[#532+0.24813*#519-0.24813*#532]
#100=[#102+0.69086*#101-0.69086*#102]
G01 X31.6175Y9.9534Z[#100+-0.1000]
#102=[#531+0.24321*#518-0.24321*#531]
#101=[#532+0.24321*#519-0.24321*#532]
#100=[#102+0.69112*#101-0.69112*#102]
G01 X31.6189Y9.9781Z[#100+-0.1000]
#102=[#544+0.95223*#531-0.95223*#544]
#101=[#545+0.95223*#532-0.95223*#545]
#100=[#102+0.69114*#101-0.69114*#102]
G01 X31.6190Y11.4388Z[#100+-0.1000]
#102=[#544+0.94988*#531-0.94988*#544]
#101=[#545+0.94988*#532-0.94988*#545]
#100=[#102+0.69716*#101-0.69716*#102]
G01 X31.6512Y11.4506Z[#100+-0.1000]
#102=[#544+0.94313*#531-0.94313*#544]
#101=[#545+0.94313*#532-0.94313*#545]
#100=[#102+0.71055*#101-0.71055*#102]
G01 X31.7229Y11.4845Z[#100+-0.1000]
#102=[#544+0.93365*#531-0.93365*#544]
#101=[#545+0.93365*#532-0.93365*#545]
#100=[#102+0.72531*#101-0.72531*#102]
G01 X31.8019Y11.5321Z[#100+-0.1000]
#102=[#544+0.92390*#531-0.92390*#544]
#101=[#545+0.92390*#532-0.92390*#545]
#100=[#102+0.73757*#101-0.73757*#102]
G01 X31.8675Y11.5810Z[#100+-0.1000]
#102=[#544+0.91353*#531-0.91353*#544]
#101=[#545+0.91353*#532-0.91353*#545]
#100=[#102+0.74831*#101-0.74831*#102]
G01 X31.9250Y11.6331Z[#100+-0.1000]
#102=[#544+0.89960*#531-0.89960*#544]
#101=[#545+0.89960*#532-0.89960*#545]
#100=[#102+0.76016*#101-0.76016*#102]
G01 X31.9884Y11.7030Z[#100+-0.1000]
#102=[#544+0.88681*#531-0.88681*#544]
#101=[#545+0.88681*#532-0.88681*#545]
#100=[#102+0.76901*#101-0.76901*#102]
G01 X32.0358Y11.7672Z[#100+-0.1000]
#102=[#544+0.87323*#531-0.87323*#544]
#101=[#545+0.87323*#532-0.87323*#545]
#100=[#102+0.77667*#101-0.77667*#102]
G01 X32.0768Y11.8354Z[#100+-0.1000]
#102=[#544+0.85761*#531-0.85761*#544]
#101=[#545+0.85761*#532-0.85761*#545]
#100=[#102+0.78370*#101-0.78370*#102]
G01 X32.1144Y11.9138Z[#100+-0.1000]
#102=[#544+0.84034*#531-0.84034*#544]
#101=[#545+0.84034*#532-0.84034*#545]
#100=[#102+0.78945*#101-0.78945*#102]
G01 X32.1452Y12.0005Z[#100+-0.1000]
#102=[#544+0.82538*#531-0.82538*#544]
#101=[#545+0.82538*#532-0.82538*#545]
#100=[#102+0.79297*#101-0.79297*#102]
G01 X32.1640Y12.0756Z[#100+-0.1000]
#102=[#544+0.80829*#531-0.80829*#544]
#101=[#545+0.80829*#532-0.80829*#545]
#100=[#102+0.79536*#101-0.79536*#102]
G01 X32.1768Y12.1614Z[#100+-0.1000]
#102=[#544+0.79046*#531-0.79046*#544]
#101=[#545+0.79046*#532-0.79046*#545]
#100=[#102+0.79612*#101-0.79612*#102]
G01 X32.1809Y12.2509Z[#100+-0.1000]
#102=[#544+0.77458*#531-0.77458*#544]
#101=[#545+0.77458*#532-0.77458*#545]
#100=[#102+0.79536*#101-0.79536*#102]
G01 X32.1768Y12.3306Z[#100+-0.1000]
#102=[#544+0.75890*#531-0.75890*#544]
#101=[#545+0.75890*#532-0.75890*#545]
#100=[#102+0.79321*#101-0.79321*#102]
G01 X32.1653Y12.4093Z[#100+-0.1000]
#102=[#544+0.74165*#531-0.74165*#544]
#101=[#545+0.74165*#532-0.74165*#545]
#100=[#102+0.78923*#101-0.78923*#102]
G01 X32.1440Y12.4959Z[#100+-0.1000]
#102=[#544+0.72526*#531-0.72526*#544]
#101=[#545+0.72526*#532-0.72526*#545]
#100=[#102+0.78370*#101-0.78370*#102]
G01 X32.1144Y12.5782Z[#100+-0.1000]
#102=[#544+0.70964*#531-0.70964*#544]
#101=[#545+0.70964*#532-0.70964*#545]
#100=[#102+0.77667*#101-0.77667*#102]
G01 X32.0768Y12.6566Z[#100+-0.1000]
#102=[#544+0.69606*#531-0.69606*#544]
#101=[#545+0.69606*#532-0.69606*#545]
#100=[#102+0.76901*#101-0.76901*#102]
G01 X32.0358Y12.7248Z[#100+-0.1000]
#102=[#544+0.68327*#531-0.68327*#544]
#101=[#545+0.68327*#532-0.68327*#545]
#100=[#102+0.76016*#101-0.76016*#102]
G01 X31.9884Y12.7890Z[#100+-0.1000]
#102=[#544+0.67002*#531-0.67002*#544]
#101=[#545+0.67002*#532-0.67002*#545]
#100=[#102+0.74897*#101-0.74897*#102]
G01 X31.9285Y12.8555Z[#100+-0.1000]
#102=[#544+0.65809*#531-0.65809*#544]
#101=[#545+0.65809*#532-0.65809*#545]
#100=[#102+0.73654*#101-0.73654*#102]
G01 X31.8620Y12.9154Z[#100+-0.1000]
#102=[#544+0.64813*#531-0.64813*#544]
#101=[#545+0.64813*#532-0.64813*#545]
#100=[#102+0.72380*#101-0.72380*#102]
G01 X31.7938Y12.9654Z[#100+-0.1000]
#102=[#544+0.63974*#531-0.63974*#544]
#101=[#545+0.63974*#532-0.63974*#545]
#100=[#102+0.71055*#101-0.71055*#102]
G01 X31.7229Y13.0075Z[#100+-0.1000]
#102=[#544+0.63319*#531-0.63319*#544]
#101=[#545+0.63319*#532-0.63319*#545]
#100=[#102+0.69757*#101-0.69757*#102]
G01 X31.6534Y13.0404Z[#100+-0.1000]
#102=[#544+0.62709*#531-0.62709*#544]
#101=[#545+0.62709*#532-0.62709*#545]
#100=[#102+0.68178*#101-0.68178*#102]
G01 X31.5689Y13.0710Z[#100+-0.1000]
#102=[#544+0.62311*#531-0.62311*#544]
#101=[#545+0.62311*#532-0.62311*#545]
#100=[#102+0.66692*#101-0.66692*#102]
G01 X31.4894Y13.0910Z[#100+-0.1000]
#102=[#544+0.62056*#531-0.62056*#544]
#101=[#545+0.62056*#532-0.62056*#545]
#100=[#102+0.65089*#101-0.65089*#102]
G01 X31.4036Y13.1038Z[#100+-0.1000]
#102=[#544+0.61974*#531-0.61974*#544]
#101=[#545+0.61974*#532-0.61974*#545]
#100=[#102+0.63417*#101-0.63417*#102]
G01 X31.3141Y13.1079Z[#100+-0.1000]
#102=[#544+0.62056*#531-0.62056*#544]
#101=[#545+0.62056*#532-0.62056*#545]
#100=[#102+0.61928*#101-0.61928*#102]
G01 X31.2344Y13.1038Z[#100+-0.1000]
#102=[#544+0.62285*#531-0.62285*#544]
#101=[#545+0.62285*#532-0.62285*#545]
#100=[#102+0.60458*#101-0.60458*#102]
G01 X31.1557Y13.0923Z[#100+-0.1000]
#102=[#544+0.62709*#531-0.62709*#544]
#101=[#545+0.62709*#532-0.62709*#545]
#100=[#102+0.58840*#101-0.58840*#102]
G01 X31.0691Y13.0710Z[#100+-0.1000]
#102=[#544+0.63299*#531-0.63299*#544]
#101=[#545+0.63299*#532-0.63299*#545]
#100=[#102+0.57302*#101-0.57302*#102]
G01 X30.9868Y13.0414Z[#100+-0.1000]
#102=[#544+0.64048*#531-0.64048*#544]
#101=[#545+0.64048*#532-0.64048*#545]
#100=[#102+0.55837*#101-0.55837*#102]
G01 X30.9084Y13.0038Z[#100+-0.1000]
#102=[#544+0.64865*#531-0.64865*#544]
#101=[#545+0.64865*#532-0.64865*#545]
#100=[#102+0.54563*#101-0.54563*#102]
G01 X30.8402Y12.9628Z[#100+-0.1000]
#102=[#544+0.65809*#531-0.65809*#544]
#101=[#545+0.65809*#532-0.65809*#545]
#100=[#102+0.53363*#101-0.53363*#102]
G01 X30.7760Y12.9154Z[#100+-0.1000]
#102=[#544+0.67002*#531-0.67002*#544]
#101=[#545+0.67002*#532-0.67002*#545]
#100=[#102+0.52121*#101-0.52121*#102]
G01 X30.7095Y12.8555Z[#100+-0.1000]
#102=[#544+0.68327*#531-0.68327*#544]
#101=[#545+0.68327*#532-0.68327*#545]
#100=[#102+0.51002*#101-0.51002*#102]
G01 X30.6496Y12.7890Z[#100+-0.1000]
#102=[#544+0.69606*#531-0.69606*#544]
#101=[#545+0.69606*#532-0.69606*#545]
#100=[#102+0.50116*#101-0.50116*#102]
G01 X30.6022Y12.7248Z[#100+-0.1000]
#102=[#544+0.70964*#531-0.70964*#544]
#101=[#545+0.70964*#532-0.70964*#545]
#100=[#102+0.49350*#101-0.49350*#102]
G01 X30.5612Y12.6566Z[#100+-0.1000]
#102=[#544+0.72526*#531-0.72526*#544]
#101=[#545+0.72526*#532-0.72526*#545]
#100=[#102+0.48647*#101-0.48647*#102]
G01 X30.5236Y12.5782Z[#100+-0.1000]
#102=[#544+0.74165*#531-0.74165*#544]
#101=[#545+0.74165*#532-0.74165*#545]
#100=[#102+0.48094*#101-0.48094*#102]
G01 X30.4940Y12.4959Z[#100+-0.1000]
#102=[#544+0.75749*#531-0.75749*#544]
#101=[#545+0.75749*#532-0.75749*#545]
#100=[#102+0.47721*#101-0.47721*#102]
G01 X30.4740Y12.4164Z[#100+-0.1000]
#102=[#544+0.77458*#531-0.77458*#544]
#101=[#545+0.77458*#532-0.77458*#545]
#100=[#102+0.47482*#101-0.47482*#102]
G01 X30.4612Y12.3306Z[#100+-0.1000]
#102=[#544+0.79143*#531-0.79143*#544]
#101=[#545+0.79143*#532-0.79143*#545]
#100=[#102+0.47403*#101-0.47403*#102]
G01 X30.4570Y12.2460Z[#100+-0.1000]
#102=[#544+0.80829*#531-0.80829*#544]
#101=[#545+0.80829*#532-0.80829*#545]
#100=[#102+0.47482*#101-0.47482*#102]
G01 X30.4612Y12.1614Z[#100+-0.1000]
#102=[#544+0.82538*#531-0.82538*#544]
#101=[#545+0.82538*#532-0.82538*#545]
#100=[#102+0.47721*#101-0.47721*#102]
G01 X30.4740Y12.0756Z[#100+-0.1000]
#102=[#544+0.84122*#531-0.84122*#544]
#101=[#545+0.84122*#532-0.84122*#545]
#100=[#102+0.48094*#101-0.48094*#102]
G01 X30.4940Y11.9961Z[#100+-0.1000]
#102=[#544+0.85761*#531-0.85761*#544]
#101=[#545+0.85761*#532-0.85761*#545]
#100=[#102+0.48647*#101-0.48647*#102]
G01 X30.5236Y11.9138Z[#100+-0.1000]
#102=[#544+0.87189*#531-0.87189*#544]
#101=[#545+0.87189*#532-0.87189*#545]
#100=[#102+0.49281*#101-0.49281*#102]
G01 X30.5575Y11.8421Z[#100+-0.1000]
#102=[#544+0.88681*#531-0.88681*#544]
#101=[#545+0.88681*#532-0.88681*#545]
#100=[#102+0.50116*#101-0.50116*#102]
G01 X30.6022Y11.7672Z[#100+-0.1000]
#102=[#544+0.90070*#531-0.90070*#544]
#101=[#545+0.90070*#532-0.90070*#545]
#100=[#102+0.51084*#101-0.51084*#102]
G01 X30.6540Y11.6975Z[#100+-0.1000]
#102=[#544+0.91285*#531-0.91285*#544]
#101=[#545+0.91285*#532-0.91285*#545]
#100=[#102+0.52121*#101-0.52121*#102]
G01 X30.7095Y11.6365Z[#100+-0.1000]
#102=[#544+0.92390*#531-0.92390*#544]
#101=[#545+0.92390*#532-0.92390*#545]
#100=[#102+0.53261*#101-0.53261*#102]
G01 X30.7705Y11.5810Z[#100+-0.1000]
#102=[#544+0.93422*#531-0.93422*#544]
#101=[#545+0.93422*#532-0.93422*#545]
#100=[#102+0.54563*#101-0.54563*#102]
G01 X30.8402Y11.5292Z[#100+-0.1000]
#102=[#544+0.94239*#531-0.94239*#544]
#101=[#545+0.94239*#532-0.94239*#545]
#100=[#102+0.55837*#101-0.55837*#102]
G01 X30.9084Y11.4882Z[#100+-0.1000]
#102=[#544+0.94988*#531-0.94988*#544]
#101=[#545+0.94988*#532-0.94988*#545]
#100=[#102+0.57302*#101-0.57302*#102]
G01 X30.9868Y11.4506Z[#100+-0.1000]
#102=[#544+0.95223*#531-0.95223*#544]
#101=[#545+0.95223*#532-0.95223*#545]
#100=[#102+0.57904*#101-0.57904*#102]
G01 X31.0190Y11.4388Z[#100+-0.1000]
#102=[#531+0.21747*#518-0.21747*#531]
#101=[#532+0.21747*#519-0.21747*#532]
#100=[#102+0.57904*#101-0.57904*#102]
G01 X31.0190Y10.1073Z[#100+-0.1000]
#102=[#531+0.32430*#518-0.32430*#531]
#101=[#532+0.32430*#519-0.32430*#532]
#100=[#102+0.47883*#101-0.47883*#102]
G01 X30.4827Y9.5710Z[#100+-0.1000]
#102=[#531+0.32430*#518-0.32430*#531]
#101=[#532+0.32430*#519-0.32430*#532]
#100=[#102+0.16935*#101-0.16935*#102]
G01 X28.8263Y9.5710Z[#100+-0.1000]
#102=[#543+0.62001*#530-0.62001*#543]
#101=[#544+0.62001*#531-0.62001*#544]
#100=[#102+0.50877*#101-0.50877*#102]
G01 X25.29077Y13.10653Z[#100+-0.1000] ;segmented line. Max segment length set to 5
#102=[#555+0.91573*#542-0.91573*#555]
#101=[#556+0.91573*#543-0.91573*#556]
#100=[#102+0.84820*#101-0.84820*#102]
G01 X21.75524Y16.64206Z[#100+-0.1000] ;segmented line. Max segment length set to 5
#102=[#555+0.21144*#542-0.21144*#555]
#101=[#556+0.21144*#543-0.21144*#556]
#100=[#102+0.18762*#101-0.18762*#102]
G01 X18.21971Y20.17759Z[#100+-0.1000] ;segmented line. Max segment length set to 5
#102=[#555+0.15221*#542-0.15221*#555]
#101=[#556+0.15221*#543-0.15221*#556]
#100=[#102+0.13207*#101-0.13207*#102]
G01 X17.9224Y20.4749Z[#100+-0.1000]
#102=[#568+0.15620*#555-0.15620*#568]
#101=[#569+0.15620*#556-0.15620*#569]
#100=[#102+0.13207*#101-0.13207*#102]
G01 X17.92240Y25.47490Z[#100+-0.1000] ;segmented line. Max segment length set to 5
#102=[#581+0.56394*#568-0.56394*#581]
#101=[#582+0.56394*#569-0.56394*#582]
#100=[#102+0.13207*#101-0.13207*#102]
G01 X17.9224Y28.4480Z[#100+-0.1000]
#102=[#581+0.55906*#568-0.55906*#581]
#101=[#582+0.55906*#569-0.55906*#582]
#100=[#102+0.13186*#101-0.13186*#102]
G01 X17.9213Y28.4725Z[#100+-0.1000]
#102=[#581+0.55133*#568-0.55133*#581]
#101=[#582+0.55133*#569-0.55133*#582]
#100=[#102+0.13078*#101-0.13078*#102]
G01 X17.9155Y28.5113Z[#100+-0.1000]
#102=[#581+0.54665*#568-0.54665*#581]
#101=[#582+0.54665*#569-0.54665*#582]
#100=[#102+0.12966*#101-0.12966*#102]
G01 X17.9095Y28.5348Z[#100+-0.1000]
#102=[#581+0.54060*#568-0.54060*#581]
#101=[#582+0.54060*#569-0.54060*#582]
#100=[#102+0.12760*#101-0.12760*#102]
G01 X17.8985Y28.5652Z[#100+-0.1000]
#102=[#581+0.53625*#568-0.53625*#581]
#101=[#582+0.53625*#569-0.53625*#582]
#100=[#102+0.12568*#101-0.12568*#102]
G01 X17.8882Y28.5870Z[#100+-0.1000]
#102=[#581+0.53157*#568-0.53157*#581]
#101=[#582+0.53157*#569-0.53157*#582]
#100=[#102+0.12310*#101-0.12310*#102]
G01 X17.8744Y28.6105Z[#100+-0.1000]
#102=[#581+0.52570*#568-0.52570*#581]
#101=[#582+0.52570*#569-0.52570*#582]
#100=[#102+0.11908*#101-0.11908*#102]
G01 X17.8529Y28.6400Z[#100+-0.1000]
#102=[#581+0.52169*#568-0.52169*#581]
#101=[#582+0.52169*#569-0.52169*#582]
#100=[#102+0.11565*#101-0.11565*#102]
G01 X17.8345Y28.6601Z[#100+-0.1000]
#102=[#581+0.41438*#568-0.41438*#581]
#101=[#582+0.41438*#569-0.41438*#582]
#100=[#102+0.01500*#101-0.01500*#102]
G01 X17.2958Y29.1988Z[#100+-0.1000]
#102=[#581+0.41072*#568-0.41072*#581]
#101=[#582+0.41072*#569-0.41072*#582]
#100=[#102+0.01124*#101-0.01124*#102]
G01 X17.2757Y29.2172Z[#100+-0.1000]
#102=[#581+0.40643*#568-0.40643*#581]
#101=[#582+0.40643*#569-0.40643*#582]
#100=[#102+0.00573*#101-0.00573*#102]
G01 X17.2462Y29.2387Z[#100+-0.1000]
#102=[#581+0.40369*#568-0.40369*#581]
#101=[#582+0.40369*#569-0.40369*#582]
#100=[#102+0.00134*#101-0.00134*#102]
G01 X17.2227Y29.2525Z[#100+-0.1000]
#102=[#580+0.40163*#567-0.40163*#580]
#101=[#581+0.40163*#568-0.40163*#581]
#100=[#102+0.99726*#101-0.99726*#102]
G01 X17.2009Y29.2628Z[#100+-0.1000]
#102=[#580+0.39944*#567-0.39944*#580]
#101=[#581+0.39944*#568-0.39944*#581]
#100=[#102+0.99158*#101-0.99158*#102]
G01 X17.1705Y29.2738Z[#100+-0.1000]
#102=[#580+0.39825*#567-0.39825*#580]
#101=[#581+0.39825*#568-0.39825*#581]
#100=[#102+0.98719*#101-0.98719*#102]
G01 X17.1470Y29.2798Z[#100+-0.1000]
#102=[#580+0.39709*#567-0.39709*#580]
#101=[#581+0.39709*#568-0.39709*#581]
#100=[#102+0.97994*#101-0.97994*#102]
G01 X17.1082Y29.2856Z[#100+-0.1000]
#102=[#580+0.39689*#567-0.39689*#580]
#101=[#581+0.39689*#568-0.39689*#581]
#100=[#102+0.97537*#101-0.97537*#102]
G01 X17.0837Y29.2866Z[#100+-0.1000]
#102=[#580+0.39689*#567-0.39689*#580]
#101=[#581+0.39689*#568-0.39689*#581]
#100=[#102+0.82875*#101-0.82875*#102]
G01 X16.2990Y29.2866Z[#100+-0.1000]
#102=[#580+0.39480*#567-0.39480*#580]
#101=[#581+0.39480*#568-0.39480*#581]
#100=[#102+0.82866*#101-0.82866*#102]
G01 X16.2985Y29.2971Z[#100+-0.1000]
#102=[#580+0.39275*#567-0.39275*#580]
#101=[#581+0.39275*#568-0.39275*#581]
#100=[#102+0.82836*#101-0.82836*#102]
G01 X16.2969Y29.3074Z[#100+-0.1000]
#102=[#580+0.39074*#567-0.39074*#580]
#101=[#581+0.39074*#568-0.39074*#581]
#100=[#102+0.82786*#101-0.82786*#102]
G01 X16.2942Y29.3175Z[#100+-0.1000]
#102=[#580+0.38878*#567-0.38878*#580]
#101=[#581+0.38878*#568-0.38878*#581]
#100=[#102+0.82715*#101-0.82715*#102]
G01 X16.2904Y29.3273Z[#100+-0.1000]
#102=[#580+0.38693*#567-0.38693*#580]
#101=[#581+0.38693*#568-0.38693*#581]
#100=[#102+0.82627*#101-0.82627*#102]
G01 X16.2857Y29.3366Z[#100+-0.1000]
#102=[#580+0.38518*#567-0.38518*#580]
#101=[#581+0.38518*#568-0.38518*#581]
#100=[#102+0.82520*#101-0.82520*#102]
G01 X16.2800Y29.3454Z[#100+-0.1000]
#102=[#580+0.38355*#567-0.38355*#580]
#101=[#581+0.38355*#568-0.38355*#581]
#100=[#102+0.82397*#101-0.82397*#102]
G01 X16.2734Y29.3536Z[#100+-0.1000]
#102=[#580+0.38207*#567-0.38207*#580]
#101=[#581+0.38207*#568-0.38207*#581]
#100=[#102+0.82257*#101-0.82257*#102]
G01 X16.2659Y29.3610Z[#100+-0.1000]
#102=[#580+0.38076*#567-0.38076*#580]
#101=[#581+0.38076*#568-0.38076*#581]
#100=[#102+0.82106*#101-0.82106*#102]
G01 X16.2578Y29.3676Z[#100+-0.1000]
#102=[#580+0.37962*#567-0.37962*#580]
#101=[#581+0.37962*#568-0.37962*#581]
#100=[#102+0.81941*#101-0.81941*#102]
G01 X16.2490Y29.3733Z[#100+-0.1000]
#102=[#580+0.37869*#567-0.37869*#580]
#101=[#581+0.37869*#568-0.37869*#581]
#100=[#102+0.81767*#101-0.81767*#102]
G01 X16.2397Y29.3780Z[#100+-0.1000]
#102=[#580+0.37793*#567-0.37793*#580]
#101=[#581+0.37793*#568-0.37793*#581]
#100=[#102+0.81584*#101-0.81584*#102]
G01 X16.2299Y29.3818Z[#100+-0.1000]
#102=[#580+0.37739*#567-0.37739*#580]
#101=[#581+0.37739*#568-0.37739*#581]
#100=[#102+0.81396*#101-0.81396*#102]
G01 X16.2198Y29.3845Z[#100+-0.1000]
#102=[#580+0.37707*#567-0.37707*#580]
#101=[#581+0.37707*#568-0.37707*#581]
#100=[#102+0.81203*#101-0.81203*#102]
G01 X16.2095Y29.3861Z[#100+-0.1000]
#102=[#580+0.37697*#567-0.37697*#580]
#101=[#581+0.37697*#568-0.37697*#581]
#100=[#102+0.81007*#101-0.81007*#102]
G01 X16.1990Y29.3866Z[#100+-0.1000]
#102=[#580+0.37697*#567-0.37697*#580]
#101=[#581+0.37697*#568-0.37697*#581]
#100=[#102+0.52047*#101-0.52047*#102]
G01 X14.6490Y29.3866Z[#100+-0.1000]
#102=[#580+0.37707*#567-0.37707*#580]
#101=[#581+0.37707*#568-0.37707*#581]
#100=[#102+0.51853*#101-0.51853*#102]
G01 X14.6386Y29.3861Z[#100+-0.1000]
#102=[#580+0.37739*#567-0.37739*#580]
#101=[#581+0.37739*#568-0.37739*#581]
#100=[#102+0.51660*#101-0.51660*#102]
G01 X14.6283Y29.3845Z[#100+-0.1000]
#102=[#580+0.37793*#567-0.37793*#580]
#101=[#581+0.37793*#568-0.37793*#581]
#100=[#102+0.51471*#101-0.51471*#102]
G01 X14.6182Y29.3818Z[#100+-0.1000]
#102=[#580+0.37869*#567-0.37869*#580]
#101=[#581+0.37869*#568-0.37869*#581]
#100=[#102+0.51288*#101-0.51288*#102]
G01 X14.6084Y29.3780Z[#100+-0.1000]
#102=[#580+0.37962*#567-0.37962*#580]
#101=[#581+0.37962*#568-0.37962*#581]
#100=[#102+0.51114*#101-0.51114*#102]
G01 X14.5991Y29.3733Z[#100+-0.1000]
#102=[#580+0.38076*#567-0.38076*#580]
#101=[#581+0.38076*#568-0.38076*#581]
#100=[#102+0.50950*#101-0.50950*#102]
G01 X14.5903Y29.3676Z[#100+-0.1000]
#102=[#580+0.38207*#567-0.38207*#580]
#101=[#581+0.38207*#568-0.38207*#581]
#100=[#102+0.50797*#101-0.50797*#102]
G01 X14.5821Y29.3610Z[#100+-0.1000]
#102=[#580+0.38355*#567-0.38355*#580]
#101=[#581+0.38355*#568-0.38355*#581]
#100=[#102+0.50659*#101-0.50659*#102]
G01 X14.5747Y29.3536Z[#100+-0.1000]
#102=[#580+0.38518*#567-0.38518*#580]
#101=[#581+0.38518*#568-0.38518*#581]
#100=[#102+0.50535*#101-0.50535*#102]
G01 X14.5681Y29.3454Z[#100+-0.1000]
#102=[#580+0.38693*#567-0.38693*#580]
#101=[#581+0.38693*#568-0.38693*#581]
#100=[#102+0.50429*#101-0.50429*#102]
G01 X14.5624Y29.3366Z[#100+-0.1000]
#102=[#580+0.38878*#567-0.38878*#580]
#101=[#581+0.38878*#568-0.38878*#581]
#100=[#102+0.50341*#101-0.50341*#102]
G01 X14.5577Y29.3273Z[#100+-0.1000]
#102=[#580+0.39074*#567-0.39074*#580]
#101=[#581+0.39074*#568-0.39074*#581]
#100=[#102+0.50270*#101-0.50270*#102]
G01 X14.5539Y29.3175Z[#100+-0.1000]
#102=[#580+0.39275*#567-0.39275*#580]
#101=[#581+0.39275*#568-0.39275*#581]
#100=[#102+0.50220*#101-0.50220*#102]
G01 X14.5512Y29.3074Z[#100+-0.1000]
#102=[#580+0.39480*#567-0.39480*#580]
#101=[#581+0.39480*#568-0.39480*#581]
#100=[#102+0.50190*#101-0.50190*#102]
G01 X14.5496Y29.2971Z[#100+-0.1000]
#102=[#580+0.39689*#567-0.39689*#580]
#101=[#581+0.39689*#568-0.39689*#581]
#100=[#102+0.50178*#101-0.50178*#102]
G01 X14.5490Y29.2866Z[#100+-0.1000]
#102=[#580+0.39689*#567-0.39689*#580]
#101=[#581+0.39689*#568-0.39689*#581]
#100=[#102+0.41042*#101-0.41042*#102]
G01 X14.0600Y29.2866Z[#100+-0.1000]
#102=[#580+0.39717*#567-0.39717*#580]
#101=[#581+0.39717*#568-0.39717*#581]
#100=[#102+0.40491*#101-0.40491*#102]
G01 X14.0305Y29.2852Z[#100+-0.1000]
#102=[#580+0.39813*#567-0.39813*#580]
#101=[#581+0.39813*#568-0.39813*#581]
#100=[#102+0.39908*#101-0.39908*#102]
G01 X13.9993Y29.2804Z[#100+-0.1000]
#102=[#580+0.39920*#567-0.39920*#580]
#101=[#581+0.39920*#568-0.39920*#581]
#100=[#102+0.39504*#101-0.39504*#102]
G01 X13.9777Y29.2750Z[#100+-0.1000]
#102=[#580+0.40183*#567-0.40183*#580]
#101=[#581+0.40183*#568-0.40183*#581]
#100=[#102+0.38813*#101-0.38813*#102]
G01 X13.9407Y29.2618Z[#100+-0.1000]
#102=[#580+0.40369*#567-0.40369*#580]
#101=[#581+0.40369*#568-0.40369*#581]
#100=[#102+0.38445*#101-0.38445*#102]
G01 X13.9210Y29.2525Z[#100+-0.1000]
#102=[#580+0.40695*#567-0.40695*#580]
#101=[#581+0.40695*#568-0.40695*#581]
#100=[#102+0.37931*#101-0.37931*#102]
G01 X13.8935Y29.2361Z[#100+-0.1000]
#102=[#580+0.41072*#567-0.41072*#580]
#101=[#581+0.41072*#568-0.41072*#581]
#100=[#102+0.37457*#101-0.37457*#102]
G01 X13.8681Y29.2172Z[#100+-0.1000]
#102=[#580+0.41371*#567-0.41371*#580]
#101=[#581+0.41371*#568-0.41371*#581]
#100=[#102+0.37146*#101-0.37146*#102]
G01 X13.8515Y29.2022Z[#100+-0.1000]
#102=[#580+0.51558*#567-0.51558*#580]
#101=[#581+0.51558*#568-0.51558*#581]
#100=[#102+0.27588*#101-0.27588*#102]
G01 X13.3399Y28.6908Z[#100+-0.1000]
#102=[#580+0.51918*#567-0.51918*#580]
#101=[#581+0.51918*#568-0.51918*#581]
#100=[#102+0.27277*#101-0.27277*#102]
G01 X13.3233Y28.6727Z[#100+-0.1000]
#102=[#580+0.52466*#567-0.52466*#580]
#101=[#581+0.52466*#568-0.52466*#581]
#100=[#102+0.26889*#101-0.26889*#102]
G01 X13.3025Y28.6452Z[#100+-0.1000]
#102=[#580+0.53016*#567-0.53016*#580]
#101=[#581+0.53016*#568-0.53016*#581]
#100=[#102+0.26584*#101-0.26584*#102]
G01 X13.2862Y28.6176Z[#100+-0.1000]
#102=[#580+0.53450*#567-0.53450*#580]
#101=[#581+0.53450*#568-0.53450*#581]
#100=[#102+0.26392*#101-0.26392*#102]
G01 X13.2759Y28.5958Z[#100+-0.1000]
#102=[#580+0.53956*#567-0.53956*#580]
#101=[#581+0.53956*#568-0.53956*#581]
#100=[#102+0.26216*#101-0.26216*#102]
G01 X13.2665Y28.5704Z[#100+-0.1000]
#102=[#580+0.54574*#567-0.54574*#580]
#101=[#581+0.54574*#568-0.54574*#581]
#100=[#102+0.26063*#101-0.26063*#102]
G01 X13.2583Y28.5394Z[#100+-0.1000]
#102=[#580+0.55195*#567-0.55195*#580]
#101=[#581+0.55195*#568-0.55195*#581]
#100=[#102+0.25973*#101-0.25973*#102]
G01 X13.2535Y28.5082Z[#100+-0.1000]
#102=[#580+0.55785*#567-0.55785*#580]
#101=[#581+0.55785*#568-0.55785*#581]
#100=[#102+0.25945*#101-0.25945*#102]
G01 X13.2520Y28.4786Z[#100+-0.1000]
#102=[#580+0.92578*#567-0.92578*#580]
#101=[#581+0.92578*#568-0.92578*#581]
#100=[#102+0.25945*#101-0.25945*#102]
G01 X13.2520Y26.6316Z[#100+-0.1000]
#102=[#580+0.92578*#567-0.92578*#580]
#101=[#581+0.92578*#568-0.92578*#581]
#100=[#102+0.23143*#101-0.23143*#102]
G01 X13.1020Y26.6316Z[#100+-0.1000]
#102=[#580+0.92622*#567-0.92622*#580]
#101=[#581+0.92622*#568-0.92622*#581]
#100=[#102+0.22412*#101-0.22412*#102]
G01 X13.0629Y26.6294Z[#100+-0.1000]
#102=[#580+0.92719*#567-0.92719*#580]
#101=[#581+0.92719*#568-0.92719*#581]
#100=[#102+0.21827*#101-0.21827*#102]
G01 X13.0316Y26.6245Z[#100+-0.1000]
#102=[#580+0.92875*#567-0.92875*#580]
#101=[#581+0.92875*#568-0.92875*#581]
#100=[#102+0.21250*#101-0.21250*#102]
G01 X13.0007Y26.6167Z[#100+-0.1000]
#102=[#580+0.93127*#567-0.93127*#580]
#101=[#581+0.93127*#568-0.93127*#581]
#100=[#102+0.20598*#101-0.20598*#102]
G01 X12.9658Y26.6040Z[#100+-0.1000]
#102=[#580+0.93448*#567-0.93448*#580]
#101=[#581+0.93448*#568-0.93448*#581]
#100=[#102+0.19981*#101-0.19981*#102]
G01 X12.9328Y26.5879Z[#100+-0.1000]
#102=[#580+0.93751*#567-0.93751*#580]
#101=[#581+0.93751*#568-0.93751*#581]
#100=[#102+0.19512*#101-0.19512*#102]
G01 X12.9077Y26.5727Z[#100+-0.1000]
#102=[#580+0.94223*#567-0.94223*#580]
#101=[#581+0.94223*#568-0.94223*#581]
#100=[#102+0.18926*#101-0.18926*#102]
G01 X12.8763Y26.5490Z[#100+-0.1000]
#102=[#580+0.94620*#567-0.94620*#580]
#101=[#581+0.94620*#568-0.94620*#581]
#100=[#102+0.18518*#101-0.18518*#102]
G01 X12.8545Y26.5291Z[#100+-0.1000]
#102=[#580+0.95052*#567-0.95052*#580]
#101=[#581+0.95052*#568-0.95052*#581]
#100=[#102+0.18148*#101-0.18148*#102]
G01 X12.8347Y26.5074Z[#100+-0.1000]
#102=[#580+0.95596*#567-0.95596*#580]
#101=[#581+0.95596*#568-0.95596*#581]
#100=[#102+0.17758*#101-0.17758*#102]
G01 X12.8138Y26.4801Z[#100+-0.1000]
#102=[#580+0.96177*#567-0.96177*#580]
#101=[#581+0.96177*#568-0.96177*#581]
#100=[#102+0.17422*#101-0.17422*#102]
G01 X12.7958Y26.4509Z[#100+-0.1000]
#102=[#580+0.96835*#567-0.96835*#580]
#101=[#581+0.96835*#568-0.96835*#581]
#100=[#102+0.17121*#101-0.17121*#102]
G01 X12.7797Y26.4179Z[#100+-0.1000]
#102=[#580+0.97530*#567-0.97530*#580]
#101=[#581+0.97530*#568-0.97530*#581]
#100=[#102+0.16884*#101-0.16884*#102]
G01 X12.7670Y26.3830Z[#100+-0.1000]
#102=[#580+0.98145*#567-0.98145*#580]
#101=[#581+0.98145*#568-0.98145*#581]
#100=[#102+0.16738*#101-0.16738*#102]
G01 X12.7592Y26.3521Z[#100+-0.1000]
#102=[#580+0.98863*#567-0.98863*#580]
#101=[#581+0.98863*#568-0.98863*#581]
#100=[#102+0.16635*#101-0.16635*#102]
G01 X12.7537Y26.3161Z[#100+-0.1000]
#102=[#580+0.99550*#567-0.99550*#580]
#101=[#581+0.99550*#568-0.99550*#581]
#100=[#102+0.16603*#101-0.16603*#102]
G01 X12.7520Y26.2816Z[#100+-0.1000]
#102=[#567+0.12498*#554-0.12498*#567]
#101=[#568+0.12498*#555-0.12498*#568]
#100=[#102+0.16603*#101-0.16603*#102]
G01 X12.7520Y25.6316Z[#100+-0.1000]
#102=[#567+0.13277*#554-0.13277*#567]
#101=[#568+0.13277*#555-0.13277*#568]
#100=[#102+0.16646*#101-0.16646*#102]
G01 X12.7543Y25.5925Z[#100+-0.1000]
#102=[#567+0.13900*#554-0.13900*#567]
#101=[#568+0.13900*#555-0.13900*#568]
#100=[#102+0.16738*#101-0.16738*#102]
G01 X12.7592Y25.5612Z[#100+-0.1000]
#102=[#567+0.14516*#554-0.14516*#567]
#101=[#568+0.14516*#555-0.14516*#568]
#100=[#102+0.16884*#101-0.16884*#102]
G01 X12.7670Y25.5303Z[#100+-0.1000]
#102=[#567+0.15255*#554-0.15255*#567]
#101=[#568+0.15255*#555-0.15255*#568]
#100=[#102+0.17140*#101-0.17140*#102]
