(This GCode script was designed to adjust the Z height of a CNC machine according)
(to the minute variations in the surface height in order to achieve a better result in the milling/etching process)
(This script is the output of AutoLevellerAE, 0.9.4u2 Changeset: ...e37a75 @ http://autoleveller.co.uk)
(Author: James Hawthorne PhD. File creation date: 26-08-2018 19:30)
(This program and any of its output is licensed under GPLv2 and as such...)
(AutoLevellerAE comes with ABSOLUTELY NO WARRANTY; for details, see sections 11 and 12 of the GPLv2 @ http://www.gnu.org/licenses/old-licenses/gpl-2.0.html)

(The following is a checklist which can be used before the probe routine starts)
(The checklist may not be entirely correct given your machine, therefore you should make your own adaptations as appropriate)
(1. Make sure wires/clips are attached and the probe is working correctly)
(Test probe connections within control software before starting)
(2. Home all axis)
(3. Load GCode file that contains the probe routine into your software controller)
(4. Jog tool tip close to surface and touch off Z)
(5. Jog Z up a fraction to make sure surface is cleared)
(6. Jog to and touch off X and Y at the desired bottom left corner of the probe area)
(Note: The first probe will touch off Z to 0.0 when it first touches to the surface,)
(all other probe values are relative to this first point)

G90 G21 S20000 G17

M0 (Attach probe wires and clips that need attaching)
(Initialize probe routine)
G0 Z25 (Move clear of the board first)
G1 X1.163 Y1.163 F600 (Move to bottom left corner)
G0 Z1 (Quick move to probe clearance height)
G38.2 Z-1 F100 (Probe to a maximum of the specified probe height at the specified feed rate)
G92 Z0 (Touch off Z to 0 once contact is made)
G0 Z1 (Move Z to above the contact point)
G38.2 Z-1 F50 (Repeat at a more accurate slower rate)
G92 Z0
G0 Z1

G0 Z1
G1 X1.163 Y1.163 F600
G38.2 Z-1 F100
#500=#5422
G0 Z1
G1 X6.51483 Y1.163 F600
G38.2 Z-1 F100
#501=#5422
G0 Z1
G1 X11.86666 Y1.163 F600
G38.2 Z-1 F100
#502=#5422
G0 Z1
G1 X17.21849 Y1.163 F600
G38.2 Z-1 F100
#503=#5422
G0 Z1
G1 X22.57032 Y1.163 F600
G38.2 Z-1 F100
#504=#5422
G0 Z1
G1 X27.92215 Y1.163 F600
G38.2 Z-1 F100
#505=#5422
G0 Z1
G1 X33.27398 Y1.163 F600
G38.2 Z-1 F100
#506=#5422
G0 Z1
G1 X38.62581 Y1.163 F600
G38.2 Z-1 F100
#507=#5422
G0 Z1
G1 X43.97764 Y1.163 F600
G38.2 Z-1 F100
#508=#5422
G0 Z1
G1 X49.32947 Y1.163 F600
G38.2 Z-1 F100
#509=#5422
G0 Z1
G1 X54.6813 Y1.163 F600
G38.2 Z-1 F100
#510=#5422
G0 Z1
G1 X60.03313 Y1.163 F600
G38.2 Z-1 F100
#511=#5422
G0 Z1
G1 X65.38496 Y1.163 F600
G38.2 Z-1 F100
#512=#5422
G0 Z1
G1 X65.38496 Y6.18211 F600
G38.2 Z-1 F100
#525=#5422
G0 Z1
G1 X60.03313 Y6.18211 F600
G38.2 Z-1 F100
#524=#5422
G0 Z1
G1 X54.6813 Y6.18211 F600
G38.2 Z-1 F100
#523=#5422
G0 Z1
G1 X49.32947 Y6.18211 F600
G38.2 Z-1 F100
#522=#5422
G0 Z1
G1 X43.97764 Y6.18211 F600
G38.2 Z-1 F100
#521=#5422
G0 Z1
G1 X38.62581 Y6.18211 F600
G38.2 Z-1 F100
#520=#5422
G0 Z1
G1 X33.27398 Y6.18211 F600
G38.2 Z-1 F100
#519=#5422
G0 Z1
G1 X27.92215 Y6.18211 F600
G38.2 Z-1 F100
#518=#5422
G0 Z1
G1 X22.57032 Y6.18211 F600
G38.2 Z-1 F100
#517=#5422
G0 Z1
G1 X17.21849 Y6.18211 F600
G38.2 Z-1 F100
#516=#5422
G0 Z1
G1 X11.86666 Y6.18211 F600
G38.2 Z-1 F100
#515=#5422
G0 Z1
G1 X6.51483 Y6.18211 F600
G38.2 Z-1 F100
#514=#5422
G0 Z1
G1 X1.163 Y6.18211 F600
G38.2 Z-1 F100
#513=#5422
G0 Z1
G1 X1.163 Y11.20122 F600
G38.2 Z-1 F100
#526=#5422
G0 Z1
G1 X6.51483 Y11.20122 F600
G38.2 Z-1 F100
#527=#5422
G0 Z1
G1 X11.86666 Y11.20122 F600
G38.2 Z-1 F100
#528=#5422
G0 Z1
G1 X17.21849 Y11.20122 F600
G38.2 Z-1 F100
#529=#5422
G0 Z1
G1 X22.57032 Y11.20122 F600
G38.2 Z-1 F100
#530=#5422
G0 Z1
G1 X27.92215 Y11.20122 F600
G38.2 Z-1 F100
#531=#5422
G0 Z1
G1 X33.27398 Y11.20122 F600
G38.2 Z-1 F100
#532=#5422
G0 Z1
G1 X38.62581 Y11.20122 F600
G38.2 Z-1 F100
#533=#5422
G0 Z1
G1 X43.97764 Y11.20122 F600
G38.2 Z-1 F100
#534=#5422
G0 Z1
G1 X49.32947 Y11.20122 F600
G38.2 Z-1 F100
#535=#5422
G0 Z1
G1 X54.6813 Y11.20122 F600
G38.2 Z-1 F100
#536=#5422
G0 Z1
G1 X60.03313 Y11.20122 F600
G38.2 Z-1 F100
#537=#5422
G0 Z1
G1 X65.38496 Y11.20122 F600
G38.2 Z-1 F100
#538=#5422
G0 Z1
G1 X65.38496 Y16.22033 F600
G38.2 Z-1 F100
#551=#5422
G0 Z1
G1 X60.03313 Y16.22033 F600
G38.2 Z-1 F100
#550=#5422
G0 Z1
G1 X54.6813 Y16.22033 F600
G38.2 Z-1 F100
#549=#5422
G0 Z1
G1 X49.32947 Y16.22033 F600
G38.2 Z-1 F100
#548=#5422
G0 Z1
G1 X43.97764 Y16.22033 F600
G38.2 Z-1 F100
#547=#5422
G0 Z1
G1 X38.62581 Y16.22033 F600
G38.2 Z-1 F100
#546=#5422
G0 Z1
G1 X33.27398 Y16.22033 F600
G38.2 Z-1 F100
#545=#5422
G0 Z1
G1 X27.92215 Y16.22033 F600
G38.2 Z-1 F100
#544=#5422
G0 Z1
G1 X22.57032 Y16.22033 F600
G38.2 Z-1 F100
#543=#5422
G0 Z1
G1 X17.21849 Y16.22033 F600
G38.2 Z-1 F100
#542=#5422
G0 Z1
G1 X11.86666 Y16.22033 F600
G38.2 Z-1 F100
#541=#5422
G0 Z1
G1 X6.51483 Y16.22033 F600
G38.2 Z-1 F100
#540=#5422
G0 Z1
G1 X1.163 Y16.22033 F600
G38.2 Z-1 F100
#539=#5422
G0 Z1
G1 X1.163 Y21.23944 F600
G38.2 Z-1 F100
#552=#5422
G0 Z1
G1 X6.51483 Y21.23944 F600
G38.2 Z-1 F100
#553=#5422
G0 Z1
G1 X11.86666 Y21.23944 F600
G38.2 Z-1 F100
#554=#5422
G0 Z1
G1 X17.21849 Y21.23944 F600
G38.2 Z-1 F100
#555=#5422
G0 Z1
G1 X22.57032 Y21.23944 F600
G38.2 Z-1 F100
#556=#5422
G0 Z1
G1 X27.92215 Y21.23944 F600
G38.2 Z-1 F100
#557=#5422
G0 Z1
G1 X33.27398 Y21.23944 F600
G38.2 Z-1 F100
#558=#5422
G0 Z1
G1 X38.62581 Y21.23944 F600
G38.2 Z-1 F100
#559=#5422
G0 Z1
G1 X43.97764 Y21.23944 F600
G38.2 Z-1 F100
#560=#5422
G0 Z1
G1 X49.32947 Y21.23944 F600
G38.2 Z-1 F100
#561=#5422
G0 Z1
G1 X54.6813 Y21.23944 F600
G38.2 Z-1 F100
#562=#5422
G0 Z1
G1 X60.03313 Y21.23944 F600
G38.2 Z-1 F100
#563=#5422
G0 Z1
G1 X65.38496 Y21.23944 F600
G38.2 Z-1 F100
#564=#5422
G0 Z1
G1 X65.38496 Y26.25855 F600
G38.2 Z-1 F100
#577=#5422
G0 Z1
G1 X60.03313 Y26.25855 F600
G38.2 Z-1 F100
#576=#5422
G0 Z1
G1 X54.6813 Y26.25855 F600
G38.2 Z-1 F100
#575=#5422
G0 Z1
G1 X49.32947 Y26.25855 F600
G38.2 Z-1 F100
#574=#5422
G0 Z1
G1 X43.97764 Y26.25855 F600
G38.2 Z-1 F100
#573=#5422
G0 Z1
G1 X38.62581 Y26.25855 F600
G38.2 Z-1 F100
#572=#5422
G0 Z1
G1 X33.27398 Y26.25855 F600
G38.2 Z-1 F100
#571=#5422
G0 Z1
G1 X27.92215 Y26.25855 F600
G38.2 Z-1 F100
#570=#5422
G0 Z1
G1 X22.57032 Y26.25855 F600
G38.2 Z-1 F100
#569=#5422
G0 Z1
G1 X17.21849 Y26.25855 F600
G38.2 Z-1 F100
#568=#5422
G0 Z1
G1 X11.86666 Y26.25855 F600
G38.2 Z-1 F100
#567=#5422
G0 Z1
G1 X6.51483 Y26.25855 F600
G38.2 Z-1 F100
#566=#5422
G0 Z1
G1 X1.163 Y26.25855 F600
G38.2 Z-1 F100
#565=#5422
G0 Z1
G1 X1.163 Y31.27766 F600
G38.2 Z-1 F100
#578=#5422
G0 Z1
G1 X6.51483 Y31.27766 F600
G38.2 Z-1 F100
#579=#5422
G0 Z1
G1 X11.86666 Y31.27766 F600
G38.2 Z-1 F100
#580=#5422
G0 Z1
G1 X17.21849 Y31.27766 F600
G38.2 Z-1 F100
#581=#5422
G0 Z1
G1 X22.57032 Y31.27766 F600
G38.2 Z-1 F100
#582=#5422
G0 Z1
G1 X27.92215 Y31.27766 F600
G38.2 Z-1 F100
#583=#5422
G0 Z1
G1 X33.27398 Y31.27766 F600
G38.2 Z-1 F100
#584=#5422
G0 Z1
G1 X38.62581 Y31.27766 F600
G38.2 Z-1 F100
#585=#5422
G0 Z1
G1 X43.97764 Y31.27766 F600
G38.2 Z-1 F100
#586=#5422
G0 Z1
G1 X49.32947 Y31.27766 F600
G38.2 Z-1 F100
#587=#5422
G0 Z1
G1 X54.6813 Y31.27766 F600
G38.2 Z-1 F100
#588=#5422
G0 Z1
G1 X60.03313 Y31.27766 F600
G38.2 Z-1 F100
#589=#5422
G0 Z1
G1 X65.38496 Y31.27766 F600
G38.2 Z-1 F100
#590=#5422
G0 Z1
G1 X65.38496 Y36.29677 F600
G38.2 Z-1 F100
#603=#5422
G0 Z1
G1 X60.03313 Y36.29677 F600
G38.2 Z-1 F100
#602=#5422
G0 Z1
G1 X54.6813 Y36.29677 F600
G38.2 Z-1 F100
#601=#5422
G0 Z1
G1 X49.32947 Y36.29677 F600
G38.2 Z-1 F100
#600=#5422
G0 Z1
G1 X43.97764 Y36.29677 F600
G38.2 Z-1 F100
#599=#5422
G0 Z1
G1 X38.62581 Y36.29677 F600
G38.2 Z-1 F100
#598=#5422
G0 Z1
G1 X33.27398 Y36.29677 F600
G38.2 Z-1 F100
#597=#5422
G0 Z1
G1 X27.92215 Y36.29677 F600
G38.2 Z-1 F100
#596=#5422
G0 Z1
G1 X22.57032 Y36.29677 F600
G38.2 Z-1 F100
#595=#5422
G0 Z1
G1 X17.21849 Y36.29677 F600
G38.2 Z-1 F100
#594=#5422
G0 Z1
G1 X11.86666 Y36.29677 F600
G38.2 Z-1 F100
#593=#5422
G0 Z1
G1 X6.51483 Y36.29677 F600
G38.2 Z-1 F100
#592=#5422
G0 Z1
G1 X1.163 Y36.29677 F600
G38.2 Z-1 F100
#591=#5422
G0 Z1
G1 X1.163 Y41.31588 F600
G38.2 Z-1 F100
#604=#5422
G0 Z1
G1 X6.51483 Y41.31588 F600
G38.2 Z-1 F100
#605=#5422
G0 Z1
G1 X11.86666 Y41.31588 F600
G38.2 Z-1 F100
#606=#5422
G0 Z1
G1 X17.21849 Y41.31588 F600
G38.2 Z-1 F100
#607=#5422
G0 Z1
G1 X22.57032 Y41.31588 F600
G38.2 Z-1 F100
#608=#5422
G0 Z1
G1 X27.92215 Y41.31588 F600
G38.2 Z-1 F100
#609=#5422
G0 Z1
G1 X33.27398 Y41.31588 F600
G38.2 Z-1 F100
#610=#5422
G0 Z1
G1 X38.62581 Y41.31588 F600
G38.2 Z-1 F100
#611=#5422
G0 Z1
G1 X43.97764 Y41.31588 F600
G38.2 Z-1 F100
#612=#5422
G0 Z1
G1 X49.32947 Y41.31588 F600
G38.2 Z-1 F100
#613=#5422
G0 Z1
G1 X54.6813 Y41.31588 F600
G38.2 Z-1 F100
#614=#5422
G0 Z1
G1 X60.03313 Y41.31588 F600
G38.2 Z-1 F100
#615=#5422
G0 Z1
G1 X65.38496 Y41.31588 F600
G38.2 Z-1 F100
#616=#5422
G0 Z1
G1 X65.38496 Y46.33499 F600
G38.2 Z-1 F100
#629=#5422
G0 Z1
G1 X60.03313 Y46.33499 F600
G38.2 Z-1 F100
#628=#5422
G0 Z1
G1 X54.6813 Y46.33499 F600
G38.2 Z-1 F100
#627=#5422
G0 Z1
G1 X49.32947 Y46.33499 F600
G38.2 Z-1 F100
#626=#5422
G0 Z1
G1 X43.97764 Y46.33499 F600
G38.2 Z-1 F100
#625=#5422
G0 Z1
G1 X38.62581 Y46.33499 F600
G38.2 Z-1 F100
#624=#5422
G0 Z1
G1 X33.27398 Y46.33499 F600
G38.2 Z-1 F100
#623=#5422
G0 Z1
G1 X27.92215 Y46.33499 F600
G38.2 Z-1 F100
#622=#5422
G0 Z1
G1 X22.57032 Y46.33499 F600
G38.2 Z-1 F100
#621=#5422
G0 Z1
G1 X17.21849 Y46.33499 F600
G38.2 Z-1 F100
#620=#5422
G0 Z1
G1 X11.86666 Y46.33499 F600
G38.2 Z-1 F100
#619=#5422
G0 Z1
G1 X6.51483 Y46.33499 F600
G38.2 Z-1 F100
#618=#5422
G0 Z1
G1 X1.163 Y46.33499 F600
G38.2 Z-1 F100
#617=#5422
G0 Z1.00000

M0 (Detach any clips used for probing)

G94 ( Millimeters per minute feed rate. )
G21 ( Units == Millimeters. )

G90 ( Absolute coordinates. )
G64 P0.01000 ( set maximum deviation from commanded toolpath )
G21
G90
G94
G21
G90
G94
F400.00
G00 Z1.0000
M03 S18000
G4 P1
G00 X4.8630Y3.7698
#102=[#513+0.48063*#500-0.48063*#513]
#101=[#514+0.48063*#501-0.48063*#514]
#100=[#102+0.69135*#101-0.69135*#102]
G01 Z[#100+-0.1000]
#102=[#513+0.35702*#500-0.35702*#513]
#101=[#514+0.35702*#501-0.35702*#514]
#100=[#102+0.64333*#101-0.64333*#102]
G01 X4.6060Y4.3902Z[#100+-0.1000]
#102=[#513+0.26242*#500-0.26242*#513]
#101=[#514+0.26242*#501-0.26242*#514]
#100=[#102+0.55461*#101-0.55461*#102]
G01 X4.1312Y4.8650Z[#100+-0.1000]
#102=[#513+0.21121*#500-0.21121*#513]
#101=[#514+0.21121*#501-0.21121*#514]
#100=[#102+0.43869*#101-0.43869*#102]
G01 X3.5108Y5.1220Z[#100+-0.1000]
#102=[#513+0.21121*#500-0.21121*#513]
#101=[#514+0.21121*#501-0.21121*#514]
#100=[#102+0.31320*#101-0.31320*#102]
G01 X2.8392Y5.1220Z[#100+-0.1000]
#102=[#513+0.26242*#500-0.26242*#513]
#101=[#514+0.26242*#501-0.26242*#514]
#100=[#102+0.19728*#101-0.19728*#102]
G01 X2.2188Y4.8650Z[#100+-0.1000]
#102=[#513+0.35702*#500-0.35702*#513]
#101=[#514+0.35702*#501-0.35702*#514]
#100=[#102+0.10856*#101-0.10856*#102]
G01 X1.7440Y4.3902Z[#100+-0.1000]
#102=[#513+0.48063*#500-0.48063*#513]
#101=[#514+0.48063*#501-0.48063*#514]
#100=[#102+0.06054*#101-0.06054*#102]
G01 X1.4870Y3.7698Z[#100+-0.1000]
#102=[#513+0.61443*#500-0.61443*#513]
#101=[#514+0.61443*#501-0.61443*#514]
#100=[#102+0.06054*#101-0.06054*#102]
G01 X1.4870Y3.0982Z[#100+-0.1000]
#102=[#513+0.73804*#500-0.73804*#513]
#101=[#514+0.73804*#501-0.73804*#514]
#100=[#102+0.10856*#101-0.10856*#102]
G01 X1.7440Y2.4778Z[#100+-0.1000]
#102=[#513+0.83264*#500-0.83264*#513]
#101=[#514+0.83264*#501-0.83264*#514]
#100=[#102+0.19728*#101-0.19728*#102]
G01 X2.2188Y2.0030Z[#100+-0.1000]
#102=[#513+0.88384*#500-0.88384*#513]
#101=[#514+0.88384*#501-0.88384*#514]
#100=[#102+0.31320*#101-0.31320*#102]
G01 X2.8392Y1.7460Z[#100+-0.1000]
#102=[#513+0.88384*#500-0.88384*#513]
#101=[#514+0.88384*#501-0.88384*#514]
#100=[#102+0.43869*#101-0.43869*#102]
G01 X3.5108Y1.7460Z[#100+-0.1000]
#102=[#513+0.83264*#500-0.83264*#513]
#101=[#514+0.83264*#501-0.83264*#514]
#100=[#102+0.55461*#101-0.55461*#102]
G01 X4.1312Y2.0030Z[#100+-0.1000]
#102=[#513+0.73804*#500-0.73804*#513]
#101=[#514+0.73804*#501-0.73804*#514]
#100=[#102+0.64333*#101-0.64333*#102]
G01 X4.6060Y2.4778Z[#100+-0.1000]
#102=[#513+0.61443*#500-0.61443*#513]
#101=[#514+0.61443*#501-0.61443*#514]
#100=[#102+0.69135*#101-0.69135*#102]
G01 X4.8630Y3.0982Z[#100+-0.1000]
#102=[#513+0.48063*#500-0.48063*#513]
#101=[#514+0.48063*#501-0.48063*#514]
#100=[#102+0.69135*#101-0.69135*#102]
G01 X4.8630Y3.7698Z[#100+-0.1000]
G00 Z1.0000
G00 X5.0230Y3.8016
#102=[#513+0.47429*#500-0.47429*#513]
#101=[#514+0.47429*#501-0.47429*#514]
#100=[#102+0.72125*#101-0.72125*#102]
G01 Z[#100+-0.1000]
#102=[#513+0.33897*#500-0.33897*#513]
#101=[#514+0.33897*#501-0.33897*#514]
#100=[#102+0.66869*#101-0.66869*#102]
G01 X4.7417Y4.4808Z[#100+-0.1000]
#102=[#513+0.23538*#500-0.23538*#513]
#101=[#514+0.23538*#501-0.23538*#514]
#100=[#102+0.57154*#101-0.57154*#102]
G01 X4.2218Y5.0007Z[#100+-0.1000]
#102=[#513+0.17934*#500-0.17934*#513]
#101=[#514+0.17934*#501-0.17934*#514]
#100=[#102+0.44463*#101-0.44463*#102]
G01 X3.5426Y5.2820Z[#100+-0.1000]
#102=[#513+0.17934*#500-0.17934*#513]
#101=[#514+0.17934*#501-0.17934*#514]
#100=[#102+0.30726*#101-0.30726*#102]
G01 X2.8074Y5.2820Z[#100+-0.1000]
#102=[#513+0.23538*#500-0.23538*#513]
#101=[#514+0.23538*#501-0.23538*#514]
#100=[#102+0.18035*#101-0.18035*#102]
G01 X2.1282Y5.0007Z[#100+-0.1000]
#102=[#513+0.33897*#500-0.33897*#513]
#101=[#514+0.33897*#501-0.33897*#514]
#100=[#102+0.08321*#101-0.08321*#102]
G01 X1.6083Y4.4808Z[#100+-0.1000]
#102=[#513+0.47429*#500-0.47429*#513]
#101=[#514+0.47429*#501-0.47429*#514]
#100=[#102+0.03064*#101-0.03064*#102]
G01 X1.3270Y3.8016Z[#100+-0.1000]
#102=[#513+0.62077*#500-0.62077*#513]
#101=[#514+0.62077*#501-0.62077*#514]
#100=[#102+0.03064*#101-0.03064*#102]
G01 X1.3270Y3.0664Z[#100+-0.1000]
#102=[#513+0.75609*#500-0.75609*#513]
#101=[#514+0.75609*#501-0.75609*#514]
#100=[#102+0.08321*#101-0.08321*#102]
G01 X1.6083Y2.3872Z[#100+-0.1000]
#102=[#513+0.85968*#500-0.85968*#513]
#101=[#514+0.85968*#501-0.85968*#514]
#100=[#102+0.18035*#101-0.18035*#102]
G01 X2.1282Y1.8673Z[#100+-0.1000]
#102=[#513+0.91572*#500-0.91572*#513]
#101=[#514+0.91572*#501-0.91572*#514]
#100=[#102+0.30726*#101-0.30726*#102]
G01 X2.8074Y1.5860Z[#100+-0.1000]
#102=[#513+0.91572*#500-0.91572*#513]
#101=[#514+0.91572*#501-0.91572*#514]
#100=[#102+0.44463*#101-0.44463*#102]
G01 X3.5426Y1.5860Z[#100+-0.1000]
#102=[#513+0.85968*#500-0.85968*#513]
#101=[#514+0.85968*#501-0.85968*#514]
#100=[#102+0.57154*#101-0.57154*#102]
G01 X4.2218Y1.8673Z[#100+-0.1000]
#102=[#513+0.75609*#500-0.75609*#513]
#101=[#514+0.75609*#501-0.75609*#514]
#100=[#102+0.66869*#101-0.66869*#102]
G01 X4.7417Y2.3872Z[#100+-0.1000]
#102=[#513+0.62077*#500-0.62077*#513]
#101=[#514+0.62077*#501-0.62077*#514]
#100=[#102+0.72125*#101-0.72125*#102]
G01 X5.0230Y3.0664Z[#100+-0.1000]
#102=[#513+0.47429*#500-0.47429*#513]
#101=[#514+0.47429*#501-0.47429*#514]
#100=[#102+0.72125*#101-0.72125*#102]
G01 X5.0230Y3.8016Z[#100+-0.1000]
G00 Z1.0000
G00 X5.1830Y3.8334
#102=[#513+0.46795*#500-0.46795*#513]
#101=[#514+0.46795*#501-0.46795*#514]
#100=[#102+0.75114*#101-0.75114*#102]
G01 Z[#100+-0.1000]
#102=[#513+0.32092*#500-0.32092*#513]
#101=[#514+0.32092*#501-0.32092*#514]
#100=[#102+0.69402*#101-0.69402*#102]
G01 X4.8773Y4.5714Z[#100+-0.1000]
#102=[#513+0.20837*#500-0.20837*#513]
#101=[#514+0.20837*#501-0.20837*#514]
#100=[#102+0.58847*#101-0.58847*#102]
G01 X4.3124Y5.1363Z[#100+-0.1000]
#102=[#513+0.14746*#500-0.14746*#513]
#101=[#514+0.14746*#501-0.14746*#514]
#100=[#102+0.45057*#101-0.45057*#102]
G01 X3.5744Y5.4420Z[#100+-0.1000]
#102=[#513+0.14746*#500-0.14746*#513]
#101=[#514+0.14746*#501-0.14746*#514]
#100=[#102+0.30132*#101-0.30132*#102]
G01 X2.7756Y5.4420Z[#100+-0.1000]
#102=[#513+0.20837*#500-0.20837*#513]
#101=[#514+0.20837*#501-0.20837*#514]
#100=[#102+0.16342*#101-0.16342*#102]
G01 X2.0376Y5.1363Z[#100+-0.1000]
#102=[#513+0.32092*#500-0.32092*#513]
#101=[#514+0.32092*#501-0.32092*#514]
#100=[#102+0.05787*#101-0.05787*#102]
G01 X1.4727Y4.5714Z[#100+-0.1000]
#102=[#513+0.46795*#500-0.46795*#513]
#101=[#514+0.46795*#501-0.46795*#514]
#100=[#102+0.00075*#101-0.00075*#102]
G01 X1.1670Y3.8334Z[#100+-0.1000]
#102=[#513+0.62711*#500-0.62711*#513]
#101=[#514+0.62711*#501-0.62711*#514]
#100=[#102+0.00075*#101-0.00075*#102]
G01 X1.1670Y3.0346Z[#100+-0.1000]
#102=[#513+0.77414*#500-0.77414*#513]
#101=[#514+0.77414*#501-0.77414*#514]
#100=[#102+0.05787*#101-0.05787*#102]
G01 X1.4727Y2.2966Z[#100+-0.1000]
#102=[#513+0.88669*#500-0.88669*#513]
#101=[#514+0.88669*#501-0.88669*#514]
#100=[#102+0.16342*#101-0.16342*#102]
G01 X2.0376Y1.7317Z[#100+-0.1000]
#102=[#513+0.94760*#500-0.94760*#513]
#101=[#514+0.94760*#501-0.94760*#514]
#100=[#102+0.30132*#101-0.30132*#102]
G01 X2.7756Y1.4260Z[#100+-0.1000]
#102=[#513+0.94760*#500-0.94760*#513]
#101=[#514+0.94760*#501-0.94760*#514]
#100=[#102+0.45057*#101-0.45057*#102]
G01 X3.5744Y1.4260Z[#100+-0.1000]
#102=[#513+0.88669*#500-0.88669*#513]
#101=[#514+0.88669*#501-0.88669*#514]
#100=[#102+0.58847*#101-0.58847*#102]
G01 X4.3124Y1.7317Z[#100+-0.1000]
#102=[#513+0.77414*#500-0.77414*#513]
#101=[#514+0.77414*#501-0.77414*#514]
#100=[#102+0.69402*#101-0.69402*#102]
G01 X4.8773Y2.2966Z[#100+-0.1000]
#102=[#513+0.62711*#500-0.62711*#513]
#101=[#514+0.62711*#501-0.62711*#514]
#100=[#102+0.75114*#101-0.75114*#102]
G01 X5.1830Y3.0346Z[#100+-0.1000]
#102=[#513+0.46795*#500-0.46795*#513]
#101=[#514+0.46795*#501-0.46795*#514]
#100=[#102+0.75114*#101-0.75114*#102]
G01 X5.1830Y3.8334Z[#100+-0.1000]
G00 Z1.0000
G00 X9.5820Y13.1566
#102=[#540+0.61041*#527-0.61041*#540]
#101=[#541+0.61041*#528-0.61041*#541]
#100=[#102+0.57311*#101-0.57311*#102]
G01 Z[#100+-0.1000]
#102=[#540+0.64825*#527-0.64825*#540]
#101=[#541+0.64825*#528-0.64825*#541]
#100=[#102+0.57311*#101-0.57311*#102]
G01 X9.5820Y12.9667Z[#100+-0.1000]
#102=[#540+0.66642*#527-0.66642*#540]
#101=[#541+0.66642*#528-0.66642*#541]
#100=[#102+0.58017*#101-0.58017*#102]
G01 X9.6198Y12.8755Z[#100+-0.1000]
#102=[#540+0.68031*#527-0.68031*#540]
#101=[#541+0.68031*#528-0.68031*#541]
#100=[#102+0.59319*#101-0.59319*#102]
G01 X9.6895Y12.8058Z[#100+-0.1000]
#102=[#540+0.68784*#527-0.68784*#540]
#101=[#541+0.68784*#528-0.68784*#541]
#100=[#102+0.61023*#101-0.61023*#102]
G01 X9.7807Y12.7680Z[#100+-0.1000]
#102=[#540+0.68784*#527-0.68784*#540]
#101=[#541+0.68784*#528-0.68784*#541]
#100=[#102+0.63084*#101-0.63084*#102]
G01 X9.8910Y12.7680Z[#100+-0.1000]
#102=[#540+0.68296*#527-0.68296*#540]
#101=[#541+0.68296*#528-0.68296*#541]
#100=[#102+0.63084*#101-0.63084*#102]
G01 X9.8910Y12.7925Z[#100+-0.1000]
#102=[#540+0.68198*#527-0.68198*#540]
#101=[#541+0.68198*#528-0.68198*#541]
#100=[#102+0.62855*#101-0.62855*#102]
G01 X9.8787Y12.7974Z[#100+-0.1000]
#102=[#540+0.67937*#527-0.67937*#540]
#101=[#541+0.67937*#528-0.67937*#541]
#100=[#102+0.62337*#101-0.62337*#102]
G01 X9.8510Y12.8105Z[#100+-0.1000]
#102=[#540+0.67698*#527-0.67698*#540]
#101=[#541+0.67698*#528-0.67698*#541]
#100=[#102+0.61917*#101-0.61917*#102]
G01 X9.8285Y12.8225Z[#100+-0.1000]
#102=[#540+0.67313*#527-0.67313*#540]
#101=[#541+0.67313*#528-0.67313*#541]
#100=[#102+0.61326*#101-0.61326*#102]
G01 X9.7969Y12.8418Z[#100+-0.1000]
#102=[#540+0.66873*#527-0.66873*#540]
#101=[#541+0.66873*#528-0.66873*#541]
#100=[#102+0.60758*#101-0.60758*#102]
G01 X9.7665Y12.8639Z[#100+-0.1000]
#102=[#540+0.66646*#527-0.66646*#540]
#101=[#541+0.66646*#528-0.66646*#541]
#100=[#102+0.60491*#101-0.60491*#102]
G01 X9.7522Y12.8753Z[#100+-0.1000]
#102=[#540+0.66046*#527-0.66046*#540]
#101=[#541+0.66046*#528-0.66046*#541]
#100=[#102+0.59878*#101-0.59878*#102]
G01 X9.7194Y12.9054Z[#100+-0.1000]
#102=[#540+0.65393*#527-0.65393*#540]
#101=[#541+0.65393*#528-0.65393*#541]
#100=[#102+0.59316*#101-0.59316*#102]
G01 X9.6893Y12.9382Z[#100+-0.1000]
#102=[#540+0.65108*#527-0.65108*#540]
#101=[#541+0.65108*#528-0.65108*#541]
#100=[#102+0.59103*#101-0.59103*#102]
G01 X9.6779Y12.9525Z[#100+-0.1000]
#102=[#540+0.64715*#527-0.64715*#540]
#101=[#541+0.64715*#528-0.64715*#541]
#100=[#102+0.58830*#101-0.58830*#102]
G01 X9.6633Y12.9722Z[#100+-0.1000]
#102=[#540+0.64293*#527-0.64293*#540]
#101=[#541+0.64293*#528-0.64293*#541]
#100=[#102+0.58564*#101-0.58564*#102]
G01 X9.6491Y12.9934Z[#100+-0.1000]
#102=[#540+0.63526*#527-0.63526*#540]
#101=[#541+0.63526*#528-0.63526*#541]
#100=[#102+0.58152*#101-0.58152*#102]
G01 X9.6270Y13.0319Z[#100+-0.1000]
#102=[#540+0.62982*#527-0.62982*#540]
#101=[#541+0.62982*#528-0.62982*#541]
#100=[#102+0.57909*#101-0.57909*#102]
G01 X9.6140Y13.0592Z[#100+-0.1000]
#102=[#540+0.62514*#527-0.62514*#540]
#101=[#541+0.62514*#528-0.62514*#541]
#100=[#102+0.57725*#101-0.57725*#102]
G01 X9.6042Y13.0827Z[#100+-0.1000]
#102=[#540+0.61796*#527-0.61796*#540]
#101=[#541+0.61796*#528-0.61796*#541]
#100=[#102+0.57492*#101-0.57492*#102]
G01 X9.5917Y13.1187Z[#100+-0.1000]
#102=[#540+0.61041*#527-0.61041*#540]
#101=[#541+0.61041*#528-0.61041*#541]
#100=[#102+0.57311*#101-0.57311*#102]
G01 X9.5820Y13.1566Z[#100+-0.1000]
G00 Z1.0000
G00 X9.7300Y13.3620
#102=[#540+0.56949*#527-0.56949*#540]
#101=[#541+0.56949*#528-0.56949*#541]
#100=[#102+0.60076*#101-0.60076*#102]
G01 Z[#100+-0.1000]
#102=[#540+0.56949*#527-0.56949*#540]
#101=[#541+0.56949*#528-0.56949*#541]
#100=[#102+0.54803*#101-0.54803*#102]
G01 X9.4478Y13.3620Z[#100+-0.1000]
#102=[#540+0.57463*#527-0.57463*#540]
#101=[#541+0.57463*#528-0.57463*#541]
#100=[#102+0.54321*#101-0.54321*#102]
G01 X9.4220Y13.3362Z[#100+-0.1000]
#102=[#540+0.65460*#527-0.65460*#540]
#101=[#541+0.65460*#528-0.65460*#541]
#100=[#102+0.54321*#101-0.54321*#102]
G01 X9.4220Y12.9348Z[#100+-0.1000]
#102=[#540+0.68447*#527-0.68447*#540]
#101=[#541+0.68447*#528-0.68447*#541]
#100=[#102+0.55481*#101-0.55481*#102]
G01 X9.4841Y12.7849Z[#100+-0.1000]
#102=[#540+0.70734*#527-0.70734*#540]
#101=[#541+0.70734*#528-0.70734*#541]
#100=[#102+0.57626*#101-0.57626*#102]
G01 X9.5989Y12.6701Z[#100+-0.1000]
#102=[#540+0.71972*#527-0.71972*#540]
#101=[#541+0.71972*#528-0.71972*#541]
#100=[#102+0.60427*#101-0.60427*#102]
G01 X9.7488Y12.6080Z[#100+-0.1000]
#102=[#540+0.71972*#527-0.71972*#540]
#101=[#541+0.71972*#528-0.71972*#541]
#100=[#102+0.65592*#101-0.65592*#102]
G01 X10.0252Y12.6080Z[#100+-0.1000]
#102=[#540+0.71457*#527-0.71457*#540]
#101=[#541+0.71457*#528-0.71457*#541]
#100=[#102+0.66074*#101-0.66074*#102]
G01 X10.0510Y12.6338Z[#100+-0.1000]
#102=[#540+0.65809*#527-0.65809*#540]
#101=[#541+0.65809*#528-0.65809*#541]
#100=[#102+0.66074*#101-0.66074*#102]
G01 X10.0510Y12.9173Z[#100+-0.1000]
#102=[#540+0.65692*#527-0.65692*#540]
#101=[#541+0.65692*#528-0.65692*#541]
#100=[#102+0.65299*#101-0.65299*#102]
G01 X10.0095Y12.9232Z[#100+-0.1000]
#102=[#540+0.65536*#527-0.65536*#540]
#101=[#541+0.65536*#528-0.65536*#541]
#100=[#102+0.64723*#101-0.64723*#102]
G01 X9.9787Y12.9310Z[#100+-0.1000]
#102=[#540+0.65285*#527-0.65285*#540]
#101=[#541+0.65285*#528-0.65285*#541]
#100=[#102+0.64069*#101-0.64069*#102]
G01 X9.9437Y12.9436Z[#100+-0.1000]
#102=[#540+0.64964*#527-0.64964*#540]
#101=[#541+0.64964*#528-0.64964*#541]
#100=[#102+0.63453*#101-0.63453*#102]
G01 X9.9107Y12.9597Z[#100+-0.1000]
#102=[#540+0.64661*#527-0.64661*#540]
#101=[#541+0.64661*#528-0.64661*#541]
#100=[#102+0.62984*#101-0.62984*#102]
G01 X9.8856Y12.9749Z[#100+-0.1000]
#102=[#540+0.64187*#527-0.64187*#540]
#101=[#541+0.64187*#528-0.64187*#541]
#100=[#102+0.62397*#101-0.62397*#102]
G01 X9.8542Y12.9987Z[#100+-0.1000]
#102=[#540+0.63793*#527-0.63793*#540]
#101=[#541+0.63793*#528-0.63793*#541]
#100=[#102+0.61991*#101-0.61991*#102]
G01 X9.8325Y13.0185Z[#100+-0.1000]
#102=[#540+0.63360*#527-0.63360*#540]
#101=[#541+0.63360*#528-0.63360*#541]
#100=[#102+0.61621*#101-0.61621*#102]
G01 X9.8127Y13.0402Z[#100+-0.1000]
#102=[#540+0.62817*#527-0.62817*#540]
#101=[#541+0.62817*#528-0.62817*#541]
#100=[#102+0.61231*#101-0.61231*#102]
G01 X9.7918Y13.0675Z[#100+-0.1000]
#102=[#540+0.62235*#527-0.62235*#540]
#101=[#541+0.62235*#528-0.62235*#541]
#100=[#102+0.60893*#101-0.60893*#102]
G01 X9.7737Y13.0967Z[#100+-0.1000]
#102=[#540+0.61577*#527-0.61577*#540]
#101=[#541+0.61577*#528-0.61577*#541]
#100=[#102+0.60592*#101-0.60592*#102]
G01 X9.7576Y13.1297Z[#100+-0.1000]
#102=[#540+0.60880*#527-0.60880*#540]
#101=[#541+0.60880*#528-0.60880*#541]
#100=[#102+0.60356*#101-0.60356*#102]
G01 X9.7450Y13.1647Z[#100+-0.1000]
#102=[#540+0.60266*#527-0.60266*#540]
#101=[#541+0.60266*#528-0.60266*#541]
#100=[#102+0.60211*#101-0.60211*#102]
G01 X9.7372Y13.1955Z[#100+-0.1000]
#102=[#540+0.59549*#527-0.59549*#540]
#101=[#541+0.59549*#528-0.59549*#541]
#100=[#102+0.60108*#101-0.60108*#102]
G01 X9.7317Y13.2315Z[#100+-0.1000]
#102=[#540+0.58959*#527-0.58959*#540]
#101=[#541+0.58959*#528-0.58959*#541]
#100=[#102+0.60078*#101-0.60078*#102]
G01 X9.7301Y13.2611Z[#100+-0.1000]
#102=[#540+0.56949*#527-0.56949*#540]
#101=[#541+0.56949*#528-0.56949*#541]
#100=[#102+0.60076*#101-0.60076*#102]
G01 X9.7300Y13.3620Z[#100+-0.1000]
G00 Z1.0000
G00 X9.5343Y14.6976
#102=[#540+0.30339*#527-0.30339*#540]
#101=[#541+0.30339*#528-0.30339*#541]
#100=[#102+0.56419*#101-0.56419*#102]
G01 Z[#100+-0.1000]
#102=[#540+0.31345*#527-0.31345*#540]
#101=[#541+0.31345*#528-0.31345*#541]
#100=[#102+0.55481*#101-0.55481*#102]
G01 X9.4841Y14.6471Z[#100+-0.1000]
#102=[#540+0.34331*#527-0.34331*#540]
#101=[#541+0.34331*#528-0.34331*#541]
#100=[#102+0.54321*#101-0.54321*#102]
G01 X9.4220Y14.4972Z[#100+-0.1000]
#102=[#540+0.42329*#527-0.42329*#540]
#101=[#541+0.42329*#528-0.42329*#541]
#100=[#102+0.54321*#101-0.54321*#102]
G01 X9.4220Y14.0958Z[#100+-0.1000]
#102=[#540+0.42843*#527-0.42843*#540]
#101=[#541+0.42843*#528-0.42843*#541]
#100=[#102+0.54803*#101-0.54803*#102]
G01 X9.4478Y14.0700Z[#100+-0.1000]
#102=[#540+0.42843*#527-0.42843*#540]
#101=[#541+0.42843*#528-0.42843*#541]
#100=[#102+0.60076*#101-0.60076*#102]
G01 X9.7300Y14.0700Z[#100+-0.1000]
#102=[#540+0.40833*#527-0.40833*#540]
#101=[#541+0.40833*#528-0.40833*#541]
#100=[#102+0.60078*#101-0.60078*#102]
G01 X9.7301Y14.1709Z[#100+-0.1000]
#102=[#540+0.40243*#527-0.40243*#540]
#101=[#541+0.40243*#528-0.40243*#541]
#100=[#102+0.60108*#101-0.60108*#102]
G01 X9.7317Y14.2005Z[#100+-0.1000]
#102=[#540+0.39526*#527-0.39526*#540]
#101=[#541+0.39526*#528-0.39526*#541]
#100=[#102+0.60211*#101-0.60211*#102]
G01 X9.7372Y14.2365Z[#100+-0.1000]
#102=[#540+0.38912*#527-0.38912*#540]
#101=[#541+0.38912*#528-0.38912*#541]
#100=[#102+0.60356*#101-0.60356*#102]
G01 X9.7450Y14.2673Z[#100+-0.1000]
#102=[#540+0.38215*#527-0.38215*#540]
#101=[#541+0.38215*#528-0.38215*#541]
#100=[#102+0.60592*#101-0.60592*#102]
G01 X9.7576Y14.3023Z[#100+-0.1000]
#102=[#540+0.37557*#527-0.37557*#540]
#101=[#541+0.37557*#528-0.37557*#541]
#100=[#102+0.60893*#101-0.60893*#102]
G01 X9.7737Y14.3353Z[#100+-0.1000]
#102=[#540+0.36975*#527-0.36975*#540]
#101=[#541+0.36975*#528-0.36975*#541]
#100=[#102+0.61231*#101-0.61231*#102]
G01 X9.7918Y14.3645Z[#100+-0.1000]
#102=[#540+0.36431*#527-0.36431*#540]
#101=[#541+0.36431*#528-0.36431*#541]
#100=[#102+0.61621*#101-0.61621*#102]
G01 X9.8127Y14.3918Z[#100+-0.1000]
#102=[#540+0.35999*#527-0.35999*#540]
#101=[#541+0.35999*#528-0.35999*#541]
#100=[#102+0.61991*#101-0.61991*#102]
G01 X9.8325Y14.4135Z[#100+-0.1000]
#102=[#540+0.35605*#527-0.35605*#540]
#101=[#541+0.35605*#528-0.35605*#541]
#100=[#102+0.62397*#101-0.62397*#102]
G01 X9.8542Y14.4333Z[#100+-0.1000]
#102=[#540+0.35130*#527-0.35130*#540]
#101=[#541+0.35130*#528-0.35130*#541]
#100=[#102+0.62984*#101-0.62984*#102]
G01 X9.8856Y14.4571Z[#100+-0.1000]
#102=[#540+0.34827*#527-0.34827*#540]
#101=[#541+0.34827*#528-0.34827*#541]
#100=[#102+0.63453*#101-0.63453*#102]
G01 X9.9107Y14.4723Z[#100+-0.1000]
#102=[#540+0.34507*#527-0.34507*#540]
#101=[#541+0.34507*#528-0.34507*#541]
#100=[#102+0.64069*#101-0.64069*#102]
G01 X9.9437Y14.4884Z[#100+-0.1000]
#102=[#540+0.34256*#527-0.34256*#540]
#101=[#541+0.34256*#528-0.34256*#541]
#100=[#102+0.64723*#101-0.64723*#102]
G01 X9.9787Y14.5010Z[#100+-0.1000]
#102=[#540+0.34100*#527-0.34100*#540]
#101=[#541+0.34100*#528-0.34100*#541]
#100=[#102+0.65299*#101-0.65299*#102]
G01 X10.0095Y14.5088Z[#100+-0.1000]
#102=[#540+0.33983*#527-0.33983*#540]
#101=[#541+0.33983*#528-0.33983*#541]
#100=[#102+0.66074*#101-0.66074*#102]
G01 X10.0510Y14.5147Z[#100+-0.1000]
#102=[#540+0.27539*#527-0.27539*#540]
#101=[#541+0.27539*#528-0.27539*#541]
#100=[#102+0.66074*#101-0.66074*#102]
G01 X10.0510Y14.8381Z[#100+-0.1000]
#102=[#540+0.27067*#527-0.27067*#540]
#101=[#541+0.27067*#528-0.27067*#541]
#100=[#102+0.65971*#101-0.65971*#102]
G01 X10.0455Y14.8618Z[#100+-0.1000]
#102=[#540+0.26726*#527-0.26726*#540]
#101=[#541+0.26726*#528-0.26726*#541]
#100=[#102+0.65926*#101-0.65926*#102]
G01 X10.0431Y14.8789Z[#100+-0.1000]
#102=[#540+0.26380*#527-0.26380*#540]
#101=[#541+0.26380*#528-0.26380*#541]
#100=[#102+0.65908*#101-0.65908*#102]
G01 X10.0421Y14.8963Z[#100+-0.1000]
#102=[#540+0.20263*#527-0.20263*#540]
#101=[#541+0.20263*#528-0.20263*#541]
#100=[#102+0.65906*#101-0.65906*#102]
G01 X10.0420Y15.2033Z[#100+-0.1000]
#102=[#540+0.20146*#527-0.20146*#540]
#101=[#541+0.20146*#528-0.20146*#541]
#100=[#102+0.65130*#101-0.65130*#102]
G01 X10.0005Y15.2092Z[#100+-0.1000]
#102=[#540+0.19990*#527-0.19990*#540]
#101=[#541+0.19990*#528-0.19990*#541]
#100=[#102+0.64555*#101-0.64555*#102]
G01 X9.9697Y15.2170Z[#100+-0.1000]
#102=[#540+0.19739*#527-0.19739*#540]
#101=[#541+0.19739*#528-0.19739*#541]
#100=[#102+0.63901*#101-0.63901*#102]
G01 X9.9347Y15.2296Z[#100+-0.1000]
#102=[#540+0.19418*#527-0.19418*#540]
#101=[#541+0.19418*#528-0.19418*#541]
#100=[#102+0.63284*#101-0.63284*#102]
G01 X9.9017Y15.2457Z[#100+-0.1000]
#102=[#540+0.19116*#527-0.19116*#540]
#101=[#541+0.19116*#528-0.19116*#541]
#100=[#102+0.62815*#101-0.62815*#102]
G01 X9.8766Y15.2609Z[#100+-0.1000]
#102=[#540+0.18641*#527-0.18641*#540]
#101=[#541+0.18641*#528-0.18641*#541]
#100=[#102+0.62229*#101-0.62229*#102]
G01 X9.8452Y15.2847Z[#100+-0.1000]
#102=[#540+0.18247*#527-0.18247*#540]
#101=[#541+0.18247*#528-0.18247*#541]
#100=[#102+0.61823*#101-0.61823*#102]
G01 X9.8235Y15.3045Z[#100+-0.1000]
#102=[#540+0.17815*#527-0.17815*#540]
#101=[#541+0.17815*#528-0.17815*#541]
#100=[#102+0.61453*#101-0.61453*#102]
G01 X9.8037Y15.3262Z[#100+-0.1000]
#102=[#540+0.17271*#527-0.17271*#540]
#101=[#541+0.17271*#528-0.17271*#541]
#100=[#102+0.61063*#101-0.61063*#102]
G01 X9.7828Y15.3535Z[#100+-0.1000]
#102=[#540+0.16689*#527-0.16689*#540]
#101=[#541+0.16689*#528-0.16689*#541]
#100=[#102+0.60724*#101-0.60724*#102]
G01 X9.7647Y15.3827Z[#100+-0.1000]
#102=[#540+0.16031*#527-0.16031*#540]
#101=[#541+0.16031*#528-0.16031*#541]
#100=[#102+0.60424*#101-0.60424*#102]
G01 X9.7486Y15.4157Z[#100+-0.1000]
#102=[#540+0.15334*#527-0.15334*#540]
#101=[#541+0.15334*#528-0.15334*#541]
#100=[#102+0.60188*#101-0.60188*#102]
G01 X9.7360Y15.4507Z[#100+-0.1000]
#102=[#540+0.14720*#527-0.14720*#540]
#101=[#541+0.14720*#528-0.14720*#541]
#100=[#102+0.60042*#101-0.60042*#102]
G01 X9.7282Y15.4815Z[#100+-0.1000]
#102=[#540+0.14003*#527-0.14003*#540]
#101=[#541+0.14003*#528-0.14003*#541]
#100=[#102+0.59940*#101-0.59940*#102]
G01 X9.7227Y15.5175Z[#100+-0.1000]
#102=[#540+0.13413*#527-0.13413*#540]
#101=[#541+0.13413*#528-0.13413*#541]
#100=[#102+0.59910*#101-0.59910*#102]
G01 X9.7211Y15.5471Z[#100+-0.1000]
#102=[#540+0.11403*#527-0.11403*#540]
#101=[#541+0.11403*#528-0.11403*#541]
#100=[#102+0.59908*#101-0.59908*#102]
G01 X9.7210Y15.6480Z[#100+-0.1000]
#102=[#540+0.11403*#527-0.11403*#540]
#101=[#541+0.11403*#528-0.11403*#541]
#100=[#102+0.54635*#101-0.54635*#102]
G01 X9.4388Y15.6480Z[#100+-0.1000]
#102=[#540+0.11917*#527-0.11917*#540]
#101=[#541+0.11917*#528-0.11917*#541]
#100=[#102+0.54153*#101-0.54153*#102]
G01 X9.4130Y15.6222Z[#100+-0.1000]
#102=[#540+0.19914*#527-0.19914*#540]
#101=[#541+0.19914*#528-0.19914*#541]
#100=[#102+0.54153*#101-0.54153*#102]
G01 X9.4130Y15.2208Z[#100+-0.1000]
#102=[#540+0.22901*#527-0.22901*#540]
#101=[#541+0.22901*#528-0.22901*#541]
#100=[#102+0.55313*#101-0.55313*#102]
G01 X9.4751Y15.0709Z[#100+-0.1000]
#102=[#540+0.24085*#527-0.24085*#540]
#101=[#541+0.24085*#528-0.24085*#541]
#100=[#102+0.56421*#101-0.56421*#102]
G01 X9.5344Y15.0115Z[#100+-0.1000]
#102=[#540+0.24312*#527-0.24312*#540]
#101=[#541+0.24312*#528-0.24312*#541]
#100=[#102+0.56612*#101-0.56612*#102]
G01 X9.5446Y15.0001Z[#100+-0.1000]
#102=[#540+0.24702*#527-0.24702*#540]
#101=[#541+0.24702*#528-0.24702*#541]
#100=[#102+0.56887*#101-0.56887*#102]
G01 X9.5593Y14.9805Z[#100+-0.1000]
#102=[#540+0.25129*#527-0.25129*#540]
#101=[#541+0.25129*#528-0.25129*#541]
#100=[#102+0.57122*#101-0.57122*#102]
G01 X9.5719Y14.9591Z[#100+-0.1000]
#102=[#540+0.25573*#527-0.25573*#540]
#101=[#541+0.25573*#528-0.25573*#541]
#100=[#102+0.57311*#101-0.57311*#102]
G01 X9.5820Y14.9368Z[#100+-0.1000]
#102=[#540+0.25906*#527-0.25906*#540]
#101=[#541+0.25906*#528-0.25906*#541]
#100=[#102+0.57419*#101-0.57419*#102]
G01 X9.5878Y14.9201Z[#100+-0.1000]
#102=[#540+0.26234*#527-0.26234*#540]
#101=[#541+0.26234*#528-0.26234*#541]
#100=[#102+0.57498*#101-0.57498*#102]
G01 X9.5920Y14.9036Z[#100+-0.1000]
#102=[#540+0.26673*#527-0.26673*#540]
#101=[#541+0.26673*#528-0.26673*#541]
#100=[#102+0.57569*#101-0.57569*#102]
G01 X9.5958Y14.8816Z[#100+-0.1000]
#102=[#540+0.27213*#527-0.27213*#540]
#101=[#541+0.27213*#528-0.27213*#541]
#100=[#102+0.57600*#101-0.57600*#102]
G01 X9.5975Y14.8545Z[#100+-0.1000]
#102=[#540+0.27659*#527-0.27659*#540]
#101=[#541+0.27659*#528-0.27659*#541]
#100=[#102+0.57580*#101-0.57580*#102]
G01 X9.5964Y14.8321Z[#100+-0.1000]
#102=[#540+0.28139*#527-0.28139*#540]
#101=[#541+0.28139*#528-0.28139*#541]
#100=[#102+0.57511*#101-0.57511*#102]
G01 X9.5927Y14.8080Z[#100+-0.1000]
#102=[#540+0.28619*#527-0.28619*#540]
#101=[#541+0.28619*#528-0.28619*#541]
#100=[#102+0.57389*#101-0.57389*#102]
G01 X9.5862Y14.7839Z[#100+-0.1000]
#102=[#540+0.28990*#527-0.28990*#540]
#101=[#541+0.28990*#528-0.28990*#541]
#100=[#102+0.57258*#101-0.57258*#102]
G01 X9.5792Y14.7653Z[#100+-0.1000]
#102=[#540+0.29257*#527-0.29257*#540]
#101=[#541+0.29257*#528-0.29257*#541]
#100=[#102+0.57141*#101-0.57141*#102]
G01 X9.5729Y14.7519Z[#100+-0.1000]
#102=[#540+0.29643*#527-0.29643*#540]
#101=[#541+0.29643*#528-0.29643*#541]
#100=[#102+0.56933*#101-0.56933*#102]
G01 X9.5618Y14.7325Z[#100+-0.1000]
#102=[#540+0.30004*#527-0.30004*#540]
#101=[#541+0.30004*#528-0.30004*#541]
#100=[#102+0.56694*#101-0.56694*#102]
G01 X9.5490Y14.7144Z[#100+-0.1000]
#102=[#540+0.30339*#527-0.30339*#540]
#101=[#541+0.30339*#528-0.30339*#541]
#100=[#102+0.56419*#101-0.56419*#102]
G01 X9.5343Y14.6976Z[#100+-0.1000]
G00 Z1.0000
G00 X9.5730Y15.4426
#102=[#540+0.15495*#527-0.15495*#540]
#101=[#541+0.15495*#528-0.15495*#541]
#100=[#102+0.57143*#101-0.57143*#102]
G01 Z[#100+-0.1000]
#102=[#540+0.19279*#527-0.19279*#540]
#101=[#541+0.19279*#528-0.19279*#541]
#100=[#102+0.57143*#101-0.57143*#102]
G01 X9.5730Y15.2527Z[#100+-0.1000]
#102=[#540+0.21096*#527-0.21096*#540]
#101=[#541+0.21096*#528-0.21096*#541]
#100=[#102+0.57849*#101-0.57849*#102]
G01 X9.6108Y15.1615Z[#100+-0.1000]
#102=[#540+0.21945*#527-0.21945*#540]
#101=[#541+0.21945*#528-0.21945*#541]
#100=[#102+0.58635*#101-0.58635*#102]
G01 X9.6529Y15.1189Z[#100+-0.1000]
#102=[#540+0.22236*#527-0.22236*#540]
#101=[#541+0.22236*#528-0.22236*#541]
#100=[#102+0.58882*#101-0.58882*#102]
G01 X9.6661Y15.1043Z[#100+-0.1000]
#102=[#540+0.22523*#527-0.22523*#540]
#101=[#541+0.22523*#528-0.22523*#541]
#100=[#102+0.59095*#101-0.59095*#102]
G01 X9.6775Y15.0899Z[#100+-0.1000]
#102=[#540+0.22933*#527-0.22933*#540]
#101=[#541+0.22933*#528-0.22933*#541]
#100=[#102+0.59374*#101-0.59374*#102]
G01 X9.6924Y15.0693Z[#100+-0.1000]
#102=[#540+0.23357*#527-0.23357*#540]
#101=[#541+0.23357*#528-0.23357*#541]
#100=[#102+0.59618*#101-0.59618*#102]
G01 X9.7055Y15.0480Z[#100+-0.1000]
#102=[#540+0.23704*#527-0.23704*#540]
#101=[#541+0.23704*#528-0.23704*#541]
#100=[#102+0.59796*#101-0.59796*#102]
G01 X9.7150Y15.0306Z[#100+-0.1000]
#102=[#540+0.24029*#527-0.24029*#540]
#101=[#541+0.24029*#528-0.24029*#541]
#100=[#102+0.59942*#101-0.59942*#102]
G01 X9.7228Y15.0143Z[#100+-0.1000]
#102=[#540+0.24732*#527-0.24732*#540]
#101=[#541+0.24732*#528-0.24732*#541]
#100=[#102+0.60203*#101-0.60203*#102]
G01 X9.7368Y14.9790Z[#100+-0.1000]
#102=[#540+0.24989*#527-0.24989*#540]
#101=[#541+0.24989*#528-0.24989*#541]
#100=[#102+0.60282*#101-0.60282*#102]
G01 X9.7410Y14.9661Z[#100+-0.1000]
#102=[#540+0.25595*#527-0.25595*#540]
#101=[#541+0.25595*#528-0.25595*#541]
#100=[#102+0.60427*#101-0.60427*#102]
G01 X9.7488Y14.9357Z[#100+-0.1000]
#102=[#540+0.25959*#527-0.25959*#540]
#101=[#541+0.25959*#528-0.25959*#541]
#100=[#102+0.60491*#101-0.60491*#102]
G01 X9.7522Y14.9174Z[#100+-0.1000]
#102=[#540+0.26450*#527-0.26450*#540]
#101=[#541+0.26450*#528-0.26450*#541]
#100=[#102+0.60554*#101-0.60554*#102]
G01 X9.7556Y14.8928Z[#100+-0.1000]
#102=[#540+0.27213*#527-0.27213*#540]
#101=[#541+0.27213*#528-0.27213*#541]
#100=[#102+0.60590*#101-0.60590*#102]
G01 X9.7575Y14.8545Z[#100+-0.1000]
#102=[#540+0.27976*#527-0.27976*#540]
#101=[#541+0.27976*#528-0.27976*#541]
#100=[#102+0.60554*#101-0.60554*#102]
G01 X9.7556Y14.8162Z[#100+-0.1000]
#102=[#540+0.28466*#527-0.28466*#540]
#101=[#541+0.28466*#528-0.28466*#541]
#100=[#102+0.60491*#101-0.60491*#102]
G01 X9.7522Y14.7916Z[#100+-0.1000]
#102=[#540+0.28830*#527-0.28830*#540]
#101=[#541+0.28830*#528-0.28830*#541]
#100=[#102+0.60427*#101-0.60427*#102]
G01 X9.7488Y14.7733Z[#100+-0.1000]
#102=[#540+0.29436*#527-0.29436*#540]
#101=[#541+0.29436*#528-0.29436*#541]
#100=[#102+0.60282*#101-0.60282*#102]
G01 X9.7410Y14.7429Z[#100+-0.1000]
#102=[#540+0.29926*#527-0.29926*#540]
#101=[#541+0.29926*#528-0.29926*#541]
#100=[#102+0.60125*#101-0.60125*#102]
G01 X9.7326Y14.7183Z[#100+-0.1000]
#102=[#540+0.30285*#527-0.30285*#540]
#101=[#541+0.30285*#528-0.30285*#541]
#100=[#102+0.59990*#101-0.59990*#102]
G01 X9.7254Y14.7003Z[#100+-0.1000]
#102=[#540+0.30721*#527-0.30721*#540]
#101=[#541+0.30721*#528-0.30721*#541]
#100=[#102+0.59796*#101-0.59796*#102]
G01 X9.7150Y14.6784Z[#100+-0.1000]
#102=[#540+0.31068*#527-0.31068*#540]
#101=[#541+0.31068*#528-0.31068*#541]
#100=[#102+0.59618*#101-0.59618*#102]
G01 X9.7055Y14.6610Z[#100+-0.1000]
#102=[#540+0.31492*#527-0.31492*#540]
#101=[#541+0.31492*#528-0.31492*#541]
#100=[#102+0.59374*#101-0.59374*#102]
G01 X9.6924Y14.6397Z[#100+-0.1000]
#102=[#540+0.31703*#527-0.31703*#540]
#101=[#541+0.31703*#528-0.31703*#541]
#100=[#102+0.59233*#101-0.59233*#102]
G01 X9.6849Y14.6291Z[#100+-0.1000]
#102=[#540+0.32297*#527-0.32297*#540]
#101=[#541+0.32297*#528-0.32297*#541]
#100=[#102+0.58792*#101-0.58792*#102]
G01 X9.6613Y14.5993Z[#100+-0.1000]
#102=[#540+0.32666*#527-0.32666*#540]
#101=[#541+0.32666*#528-0.32666*#541]
#100=[#102+0.58471*#101-0.58471*#102]
G01 X9.6441Y14.5808Z[#100+-0.1000]
#102=[#540+0.33150*#527-0.33150*#540]
#101=[#541+0.33150*#528-0.33150*#541]
#100=[#102+0.58017*#101-0.58017*#102]
G01 X9.6198Y14.5565Z[#100+-0.1000]
#102=[#540+0.34967*#527-0.34967*#540]
#101=[#541+0.34967*#528-0.34967*#541]
#100=[#102+0.57311*#101-0.57311*#102]
G01 X9.5820Y14.4653Z[#100+-0.1000]
#102=[#540+0.38750*#527-0.38750*#540]
#101=[#541+0.38750*#528-0.38750*#541]
#100=[#102+0.57311*#101-0.57311*#102]
G01 X9.5820Y14.2754Z[#100+-0.1000]
#102=[#540+0.37995*#527-0.37995*#540]
#101=[#541+0.37995*#528-0.37995*#541]
#100=[#102+0.57492*#101-0.57492*#102]
G01 X9.5917Y14.3133Z[#100+-0.1000]
#102=[#540+0.37278*#527-0.37278*#540]
#101=[#541+0.37278*#528-0.37278*#541]
#100=[#102+0.57725*#101-0.57725*#102]
G01 X9.6042Y14.3493Z[#100+-0.1000]
#102=[#540+0.36919*#527-0.36919*#540]
#101=[#541+0.36919*#528-0.36919*#541]
#100=[#102+0.57860*#101-0.57860*#102]
G01 X9.6114Y14.3673Z[#100+-0.1000]
#102=[#540+0.36266*#527-0.36266*#540]
#101=[#541+0.36266*#528-0.36266*#541]
#100=[#102+0.58152*#101-0.58152*#102]
G01 X9.6270Y14.4001Z[#100+-0.1000]
#102=[#540+0.35919*#527-0.35919*#540]
#101=[#541+0.35919*#528-0.35919*#541]
#100=[#102+0.58329*#101-0.58329*#102]
G01 X9.6365Y14.4175Z[#100+-0.1000]
#102=[#540+0.35290*#527-0.35290*#540]
#101=[#541+0.35290*#528-0.35290*#541]
#100=[#102+0.58690*#101-0.58690*#102]
G01 X9.6558Y14.4491Z[#100+-0.1000]
#102=[#540+0.34684*#527-0.34684*#540]
#101=[#541+0.34684*#528-0.34684*#541]
#100=[#102+0.59103*#101-0.59103*#102]
G01 X9.6779Y14.4795Z[#100+-0.1000]
#102=[#540+0.34399*#527-0.34399*#540]
#101=[#541+0.34399*#528-0.34399*#541]
#100=[#102+0.59316*#101-0.59316*#102]
G01 X9.6893Y14.4938Z[#100+-0.1000]
#102=[#540+0.33929*#527-0.33929*#540]
#101=[#541+0.33929*#528-0.33929*#541]
#100=[#102+0.59714*#101-0.59714*#102]
G01 X9.7106Y14.5174Z[#100+-0.1000]
#102=[#540+0.33570*#527-0.33570*#540]
#101=[#541+0.33570*#528-0.33570*#541]
#100=[#102+0.60050*#101-0.60050*#102]
G01 X9.7286Y14.5354Z[#100+-0.1000]
#102=[#540+0.33146*#527-0.33146*#540]
#101=[#541+0.33146*#528-0.33146*#541]
#100=[#102+0.60491*#101-0.60491*#102]
G01 X9.7522Y14.5567Z[#100+-0.1000]
#102=[#540+0.32628*#527-0.32628*#540]
#101=[#541+0.32628*#528-0.32628*#541]
#100=[#102+0.61126*#101-0.61126*#102]
G01 X9.7862Y14.5827Z[#100+-0.1000]
#102=[#540+0.32345*#527-0.32345*#540]
#101=[#541+0.32345*#528-0.32345*#541]
#100=[#102+0.61522*#101-0.61522*#102]
G01 X9.8074Y14.5969Z[#100+-0.1000]
#102=[#540+0.31905*#527-0.31905*#540]
#101=[#541+0.31905*#528-0.31905*#541]
#100=[#102+0.62242*#101-0.62242*#102]
G01 X9.8459Y14.6190Z[#100+-0.1000]
#102=[#540+0.31594*#527-0.31594*#540]
#101=[#541+0.31594*#528-0.31594*#541]
#100=[#102+0.62855*#101-0.62855*#102]
G01 X9.8787Y14.6346Z[#100+-0.1000]
#102=[#540+0.31496*#527-0.31496*#540]
#101=[#541+0.31496*#528-0.31496*#541]
#100=[#102+0.63084*#101-0.63084*#102]
G01 X9.8910Y14.6395Z[#100+-0.1000]
#102=[#540+0.27930*#527-0.27930*#540]
#101=[#541+0.27930*#528-0.27930*#541]
#100=[#102+0.63084*#101-0.63084*#102]
G01 X9.8910Y14.8185Z[#100+-0.1000]
#102=[#540+0.27288*#527-0.27288*#540]
#101=[#541+0.27288*#528-0.27288*#541]
#100=[#102+0.62980*#101-0.62980*#102]
G01 X9.8854Y14.8507Z[#100+-0.1000]
#102=[#540+0.27045*#527-0.27045*#540]
#101=[#541+0.27045*#528-0.27045*#541]
#100=[#102+0.62952*#101-0.62952*#102]
G01 X9.8839Y14.8629Z[#100+-0.1000]
#102=[#540+0.26535*#527-0.26535*#540]
#101=[#541+0.26535*#528-0.26535*#541]
#100=[#102+0.62922*#101-0.62922*#102]
G01 X9.8823Y14.8885Z[#100+-0.1000]
#102=[#540+0.22750*#527-0.22750*#540]
#101=[#541+0.22750*#528-0.22750*#541]
#100=[#102+0.62916*#101-0.62916*#102]
G01 X9.8820Y15.0785Z[#100+-0.1000]
#102=[#540+0.22652*#527-0.22652*#540]
#101=[#541+0.22652*#528-0.22652*#541]
#100=[#102+0.62686*#101-0.62686*#102]
G01 X9.8697Y15.0834Z[#100+-0.1000]
#102=[#540+0.22341*#527-0.22341*#540]
#101=[#541+0.22341*#528-0.22341*#541]
#100=[#102+0.62074*#101-0.62074*#102]
G01 X9.8369Y15.0990Z[#100+-0.1000]
#102=[#540+0.21901*#527-0.21901*#540]
#101=[#541+0.21901*#528-0.21901*#541]
#100=[#102+0.61354*#101-0.61354*#102]
G01 X9.7984Y15.1211Z[#100+-0.1000]
#102=[#540+0.21618*#527-0.21618*#540]
#101=[#541+0.21618*#528-0.21618*#541]
#100=[#102+0.60958*#101-0.60958*#102]
G01 X9.7772Y15.1353Z[#100+-0.1000]
#102=[#540+0.21100*#527-0.21100*#540]
#101=[#541+0.21100*#528-0.21100*#541]
#100=[#102+0.60323*#101-0.60323*#102]
G01 X9.7432Y15.1613Z[#100+-0.1000]
#102=[#540+0.20676*#527-0.20676*#540]
#101=[#541+0.20676*#528-0.20676*#541]
#100=[#102+0.59882*#101-0.59882*#102]
G01 X9.7196Y15.1826Z[#100+-0.1000]
#102=[#540+0.20317*#527-0.20317*#540]
#101=[#541+0.20317*#528-0.20317*#541]
#100=[#102+0.59545*#101-0.59545*#102]
G01 X9.7016Y15.2006Z[#100+-0.1000]
#102=[#540+0.19847*#527-0.19847*#540]
#101=[#541+0.19847*#528-0.19847*#541]
#100=[#102+0.59147*#101-0.59147*#102]
G01 X9.6803Y15.2242Z[#100+-0.1000]
#102=[#540+0.19562*#527-0.19562*#540]
#101=[#541+0.19562*#528-0.19562*#541]
#100=[#102+0.58934*#101-0.58934*#102]
G01 X9.6689Y15.2385Z[#100+-0.1000]
#102=[#540+0.18956*#527-0.18956*#540]
#101=[#541+0.18956*#528-0.18956*#541]
#100=[#102+0.58521*#101-0.58521*#102]
G01 X9.6468Y15.2689Z[#100+-0.1000]
#102=[#540+0.18327*#527-0.18327*#540]
#101=[#541+0.18327*#528-0.18327*#541]
#100=[#102+0.58161*#101-0.58161*#102]
G01 X9.6275Y15.3005Z[#100+-0.1000]
#102=[#540+0.17980*#527-0.17980*#540]
#101=[#541+0.17980*#528-0.17980*#541]
#100=[#102+0.57983*#101-0.57983*#102]
G01 X9.6180Y15.3179Z[#100+-0.1000]
#102=[#540+0.17326*#527-0.17326*#540]
#101=[#541+0.17326*#528-0.17326*#541]
#100=[#102+0.57692*#101-0.57692*#102]
G01 X9.6024Y15.3507Z[#100+-0.1000]
#102=[#540+0.16968*#527-0.16968*#540]
#101=[#541+0.16968*#528-0.16968*#541]
#100=[#102+0.57557*#101-0.57557*#102]
G01 X9.5952Y15.3687Z[#100+-0.1000]
#102=[#540+0.16250*#527-0.16250*#540]
#101=[#541+0.16250*#528-0.16250*#541]
#100=[#102+0.57324*#101-0.57324*#102]
G01 X9.5827Y15.4047Z[#100+-0.1000]
#102=[#540+0.15495*#527-0.15495*#540]
#101=[#541+0.15495*#528-0.15495*#541]
#100=[#102+0.57143*#101-0.57143*#102]
G01 X9.5730Y15.4426Z[#100+-0.1000]
G00 Z1.0000
G00 X9.5730Y16.5614
#102=[#553+0.93205*#540-0.93205*#553]
#101=[#554+0.93205*#541-0.93205*#554]
#100=[#102+0.57143*#101-0.57143*#102]
G01 Z[#100+-0.1000]
#102=[#553+0.92449*#540-0.92449*#553]
#101=[#554+0.92449*#541-0.92449*#554]
#100=[#102+0.57324*#101-0.57324*#102]
G01 X9.5827Y16.5993Z[#100+-0.1000]
#102=[#553+0.91732*#540-0.91732*#553]
#101=[#554+0.91732*#541-0.91732*#554]
#100=[#102+0.57557*#101-0.57557*#102]
G01 X9.5952Y16.6353Z[#100+-0.1000]
#102=[#553+0.91264*#540-0.91264*#553]
#101=[#554+0.91264*#541-0.91264*#554]
#100=[#102+0.57740*#101-0.57740*#102]
G01 X9.6050Y16.6588Z[#100+-0.1000]
#102=[#553+0.90720*#540-0.90720*#553]
#101=[#554+0.90720*#541-0.90720*#554]
#100=[#102+0.57983*#101-0.57983*#102]
G01 X9.6180Y16.6861Z[#100+-0.1000]
#102=[#553+0.89953*#540-0.89953*#553]
#101=[#554+0.89953*#541-0.89953*#554]
#100=[#102+0.58396*#101-0.58396*#102]
G01 X9.6401Y16.7246Z[#100+-0.1000]
#102=[#553+0.89531*#540-0.89531*#553]
#101=[#554+0.89531*#541-0.89531*#554]
#100=[#102+0.58662*#101-0.58662*#102]
G01 X9.6543Y16.7458Z[#100+-0.1000]
#102=[#553+0.89138*#540-0.89138*#553]
#101=[#554+0.89138*#541-0.89138*#554]
#100=[#102+0.58934*#101-0.58934*#102]
G01 X9.6689Y16.7655Z[#100+-0.1000]
#102=[#553+0.88853*#540-0.88853*#553]
#101=[#554+0.88853*#541-0.88853*#554]
#100=[#102+0.59147*#101-0.59147*#102]
G01 X9.6803Y16.7798Z[#100+-0.1000]
#102=[#553+0.88200*#540-0.88200*#553]
#101=[#554+0.88200*#541-0.88200*#554]
#100=[#102+0.59710*#101-0.59710*#102]
G01 X9.7104Y16.8126Z[#100+-0.1000]
#102=[#553+0.87600*#540-0.87600*#553]
#101=[#554+0.87600*#541-0.87600*#554]
#100=[#102+0.60323*#101-0.60323*#102]
G01 X9.7432Y16.8427Z[#100+-0.1000]
#102=[#553+0.87373*#540-0.87373*#553]
#101=[#554+0.87373*#541-0.87373*#554]
#100=[#102+0.60590*#101-0.60590*#102]
G01 X9.7575Y16.8541Z[#100+-0.1000]
#102=[#553+0.86933*#540-0.86933*#553]
#101=[#554+0.86933*#541-0.86933*#554]
#100=[#102+0.61158*#101-0.61158*#102]
G01 X9.7879Y16.8762Z[#100+-0.1000]
#102=[#553+0.86548*#540-0.86548*#553]
#101=[#554+0.86548*#541-0.86548*#554]
#100=[#102+0.61748*#101-0.61748*#102]
G01 X9.8195Y16.8955Z[#100+-0.1000]
#102=[#553+0.86309*#540-0.86309*#553]
#101=[#554+0.86309*#541-0.86309*#554]
#100=[#102+0.62169*#101-0.62169*#102]
G01 X9.8420Y16.9075Z[#100+-0.1000]
#102=[#553+0.86048*#540-0.86048*#553]
#101=[#554+0.86048*#541-0.86048*#554]
#100=[#102+0.62686*#101-0.62686*#102]
G01 X9.8697Y16.9206Z[#100+-0.1000]
#102=[#553+0.85950*#540-0.85950*#553]
#101=[#554+0.85950*#541-0.85950*#554]
#100=[#102+0.62916*#101-0.62916*#102]
G01 X9.8820Y16.9255Z[#100+-0.1000]
#102=[#553+0.85462*#540-0.85462*#553]
#101=[#554+0.85462*#541-0.85462*#554]
#100=[#102+0.62916*#101-0.62916*#102]
G01 X9.8820Y16.9500Z[#100+-0.1000]
#102=[#553+0.85462*#540-0.85462*#553]
#101=[#554+0.85462*#541-0.85462*#554]
#100=[#102+0.60855*#101-0.60855*#102]
G01 X9.7717Y16.9500Z[#100+-0.1000]
#102=[#553+0.86215*#540-0.86215*#553]
#101=[#554+0.86215*#541-0.86215*#554]
#100=[#102+0.59151*#101-0.59151*#102]
G01 X9.6805Y16.9122Z[#100+-0.1000]
#102=[#553+0.87604*#540-0.87604*#553]
#101=[#554+0.87604*#541-0.87604*#554]
#100=[#102+0.57849*#101-0.57849*#102]
G01 X9.6108Y16.8425Z[#100+-0.1000]
#102=[#553+0.89421*#540-0.89421*#553]
#101=[#554+0.89421*#541-0.89421*#554]
#100=[#102+0.57143*#101-0.57143*#102]
G01 X9.5730Y16.7513Z[#100+-0.1000]
#102=[#553+0.93205*#540-0.93205*#553]
#101=[#554+0.93205*#541-0.93205*#554]
#100=[#102+0.57143*#101-0.57143*#102]
G01 X9.5730Y16.5614Z[#100+-0.1000]
G00 Z1.0000
G00 X10.0420Y16.8007
#102=[#553+0.88437*#540-0.88437*#553]
#101=[#554+0.88437*#541-0.88437*#554]
#100=[#102+0.65906*#101-0.65906*#102]
G01 Z[#100+-0.1000]
#102=[#553+0.82788*#540-0.82788*#553]
#101=[#554+0.82788*#541-0.82788*#554]
#100=[#102+0.65906*#101-0.65906*#102]
G01 X10.0420Y17.0842Z[#100+-0.1000]
#102=[#553+0.82274*#540-0.82274*#553]
#101=[#554+0.82274*#541-0.82274*#554]
#100=[#102+0.65424*#101-0.65424*#102]
G01 X10.0162Y17.1100Z[#100+-0.1000]
#102=[#553+0.82274*#540-0.82274*#553]
#101=[#554+0.82274*#541-0.82274*#554]
#100=[#102+0.60259*#101-0.60259*#102]
G01 X9.7398Y17.1100Z[#100+-0.1000]
#102=[#553+0.83512*#540-0.83512*#553]
#101=[#554+0.83512*#541-0.83512*#554]
#100=[#102+0.57458*#101-0.57458*#102]
G01 X9.5899Y17.0479Z[#100+-0.1000]
#102=[#553+0.85799*#540-0.85799*#553]
#101=[#554+0.85799*#541-0.85799*#554]
#100=[#102+0.55313*#101-0.55313*#102]
G01 X9.4751Y16.9331Z[#100+-0.1000]
#102=[#553+0.88785*#540-0.88785*#553]
#101=[#554+0.88785*#541-0.88785*#554]
#100=[#102+0.54153*#101-0.54153*#102]
G01 X9.4130Y16.7832Z[#100+-0.1000]
#102=[#553+0.96783*#540-0.96783*#553]
#101=[#554+0.96783*#541-0.96783*#554]
#100=[#102+0.54153*#101-0.54153*#102]
G01 X9.4130Y16.3818Z[#100+-0.1000]
#102=[#553+0.97297*#540-0.97297*#553]
#101=[#554+0.97297*#541-0.97297*#554]
#100=[#102+0.54635*#101-0.54635*#102]
G01 X9.4388Y16.3560Z[#100+-0.1000]
#102=[#553+0.97297*#540-0.97297*#553]
#101=[#554+0.97297*#541-0.97297*#554]
#100=[#102+0.59908*#101-0.59908*#102]
G01 X9.7210Y16.3560Z[#100+-0.1000]
#102=[#553+0.95287*#540-0.95287*#553]
#101=[#554+0.95287*#541-0.95287*#554]
#100=[#102+0.59910*#101-0.59910*#102]
G01 X9.7211Y16.4569Z[#100+-0.1000]
#102=[#553+0.94697*#540-0.94697*#553]
#101=[#554+0.94697*#541-0.94697*#554]
#100=[#102+0.59940*#101-0.59940*#102]
G01 X9.7227Y16.4865Z[#100+-0.1000]
#102=[#553+0.93980*#540-0.93980*#553]
#101=[#554+0.93980*#541-0.93980*#554]
#100=[#102+0.60042*#101-0.60042*#102]
G01 X9.7282Y16.5225Z[#100+-0.1000]
#102=[#553+0.93366*#540-0.93366*#553]
#101=[#554+0.93366*#541-0.93366*#554]
#100=[#102+0.60188*#101-0.60188*#102]
G01 X9.7360Y16.5533Z[#100+-0.1000]
#102=[#553+0.92669*#540-0.92669*#553]
#101=[#554+0.92669*#541-0.92669*#554]
#100=[#102+0.60424*#101-0.60424*#102]
G01 X9.7486Y16.5883Z[#100+-0.1000]
#102=[#553+0.92011*#540-0.92011*#553]
#101=[#554+0.92011*#541-0.92011*#554]
#100=[#102+0.60724*#101-0.60724*#102]
G01 X9.7647Y16.6213Z[#100+-0.1000]
#102=[#553+0.91429*#540-0.91429*#553]
#101=[#554+0.91429*#541-0.91429*#554]
#100=[#102+0.61063*#101-0.61063*#102]
G01 X9.7828Y16.6505Z[#100+-0.1000]
#102=[#553+0.90885*#540-0.90885*#553]
#101=[#554+0.90885*#541-0.90885*#554]
#100=[#102+0.61453*#101-0.61453*#102]
G01 X9.8037Y16.6778Z[#100+-0.1000]
#102=[#553+0.90453*#540-0.90453*#553]
#101=[#554+0.90453*#541-0.90453*#554]
#100=[#102+0.61823*#101-0.61823*#102]
G01 X9.8235Y16.6995Z[#100+-0.1000]
#102=[#553+0.90059*#540-0.90059*#553]
#101=[#554+0.90059*#541-0.90059*#554]
#100=[#102+0.62229*#101-0.62229*#102]
G01 X9.8452Y16.7193Z[#100+-0.1000]
#102=[#553+0.89584*#540-0.89584*#553]
#101=[#554+0.89584*#541-0.89584*#554]
#100=[#102+0.62815*#101-0.62815*#102]
G01 X9.8766Y16.7431Z[#100+-0.1000]
#102=[#553+0.89282*#540-0.89282*#553]
#101=[#554+0.89282*#541-0.89282*#554]
#100=[#102+0.63284*#101-0.63284*#102]
G01 X9.9017Y16.7583Z[#100+-0.1000]
#102=[#553+0.88961*#540-0.88961*#553]
#101=[#554+0.88961*#541-0.88961*#554]
#100=[#102+0.63901*#101-0.63901*#102]
G01 X9.9347Y16.7744Z[#100+-0.1000]
#102=[#553+0.88710*#540-0.88710*#553]
#101=[#554+0.88710*#541-0.88710*#554]
#100=[#102+0.64555*#101-0.64555*#102]
G01 X9.9697Y16.7870Z[#100+-0.1000]
#102=[#553+0.88554*#540-0.88554*#553]
#101=[#554+0.88554*#541-0.88554*#554]
#100=[#102+0.65130*#101-0.65130*#102]
G01 X10.0005Y16.7948Z[#100+-0.1000]
#102=[#553+0.88437*#540-0.88437*#553]
#101=[#554+0.88437*#541-0.88437*#554]
#100=[#102+0.65906*#101-0.65906*#102]
G01 X10.0420Y16.8007Z[#100+-0.1000]
G00 Z1.0000
G00 X11.3837Y16.5483
#102=[#553+0.93466*#540-0.93466*#553]
#101=[#554+0.93466*#541-0.93466*#554]
#100=[#102+0.90976*#101-0.90976*#102]
G01 Z[#100+-0.1000]
#102=[#553+0.94063*#540-0.94063*#553]
#101=[#554+0.94063*#541-0.94063*#554]
#100=[#102+0.91051*#101-0.91051*#102]
G01 X11.3877Y16.5183Z[#100+-0.1000]
#102=[#553+0.94486*#540-0.94486*#553]
#101=[#554+0.94486*#541-0.94486*#554]
#100=[#102+0.91080*#101-0.91080*#102]
G01 X11.3893Y16.4971Z[#100+-0.1000]
#102=[#553+0.95384*#540-0.95384*#553]
#101=[#554+0.95384*#541-0.95384*#554]
#100=[#102+0.91112*#101-0.91112*#102]
G01 X11.3910Y16.4520Z[#100+-0.1000]
#102=[#540+0.13316*#527-0.13316*#540]
#101=[#541+0.13316*#528-0.13316*#541]
#100=[#102+0.91112*#101-0.91112*#102]
G01 X11.3910Y15.5520Z[#100+-0.1000]
#102=[#540+0.14214*#527-0.14214*#540]
#101=[#541+0.14214*#528-0.14214*#541]
#100=[#102+0.91080*#101-0.91080*#102]
G01 X11.3893Y15.5069Z[#100+-0.1000]
#102=[#540+0.14637*#527-0.14637*#540]
#101=[#541+0.14637*#528-0.14637*#541]
#100=[#102+0.91051*#101-0.91051*#102]
G01 X11.3877Y15.4857Z[#100+-0.1000]
#102=[#540+0.15515*#527-0.15515*#540]
#101=[#541+0.15515*#528-0.15515*#541]
#100=[#102+0.90937*#101-0.90937*#102]
G01 X11.3816Y15.4416Z[#100+-0.1000]
#102=[#540+0.16103*#527-0.16103*#540]
#101=[#541+0.16103*#528-0.16103*#541]
#100=[#102+0.90836*#101-0.90836*#102]
G01 X11.3762Y15.4121Z[#100+-0.1000]
#102=[#540+0.17167*#527-0.17167*#540]
#101=[#541+0.17167*#528-0.17167*#541]
#100=[#102+0.90580*#101-0.90580*#102]
G01 X11.3625Y15.3587Z[#100+-0.1000]
#102=[#540+0.18042*#527-0.18042*#540]
#101=[#541+0.18042*#528-0.18042*#541]
#100=[#102+0.90298*#101-0.90298*#102]
G01 X11.3474Y15.3148Z[#100+-0.1000]
#102=[#540+0.18619*#527-0.18619*#540]
#101=[#541+0.18619*#528-0.18619*#541]
#100=[#102+0.90081*#101-0.90081*#102]
G01 X11.3358Y15.2858Z[#100+-0.1000]
#102=[#540+0.19406*#527-0.19406*#540]
#101=[#541+0.19406*#528-0.19406*#541]
#100=[#102+0.89731*#101-0.89731*#102]
G01 X11.3171Y15.2463Z[#100+-0.1000]
#102=[#540+0.19966*#527-0.19966*#540]
#101=[#541+0.19966*#528-0.19966*#541]
#100=[#102+0.89444*#101-0.89444*#102]
G01 X11.3017Y15.2182Z[#100+-0.1000]
#102=[#540+0.20385*#527-0.20385*#540]
#101=[#541+0.20385*#528-0.20385*#541]
#100=[#102+0.89208*#101-0.89208*#102]
G01 X11.2891Y15.1972Z[#100+-0.1000]
#102=[#540+0.20725*#527-0.20725*#540]
#101=[#541+0.20725*#528-0.20725*#541]
#100=[#102+0.89006*#101-0.89006*#102]
G01 X11.2783Y15.1801Z[#100+-0.1000]
#102=[#540+0.21461*#527-0.21461*#540]
#101=[#541+0.21461*#528-0.21461*#541]
#100=[#102+0.88507*#101-0.88507*#102]
G01 X11.2516Y15.1432Z[#100+-0.1000]
#102=[#540+0.21921*#527-0.21921*#540]
#101=[#541+0.21921*#528-0.21921*#541]
#100=[#102+0.88162*#101-0.88162*#102]
G01 X11.2331Y15.1201Z[#100+-0.1000]
#102=[#540+0.22756*#527-0.22756*#540]
#101=[#541+0.22756*#528-0.22756*#541]
#100=[#102+0.87446*#101-0.87446*#102]
G01 X11.1948Y15.0782Z[#100+-0.1000]
#102=[#540+0.23519*#527-0.23519*#540]
#101=[#541+0.23519*#528-0.23519*#541]
#100=[#102+0.86663*#101-0.86663*#102]
G01 X11.1529Y15.0399Z[#100+-0.1000]
#102=[#540+0.23887*#527-0.23887*#540]
#101=[#541+0.23887*#528-0.23887*#541]
#100=[#102+0.86232*#101-0.86232*#102]
G01 X11.1298Y15.0214Z[#100+-0.1000]
#102=[#540+0.24419*#527-0.24419*#540]
#101=[#541+0.24419*#528-0.24419*#541]
#100=[#102+0.85542*#101-0.85542*#102]
G01 X11.0929Y14.9947Z[#100+-0.1000]
#102=[#540+0.24704*#527-0.24704*#540]
#101=[#541+0.24704*#528-0.24704*#541]
#100=[#102+0.85114*#101-0.85114*#102]
G01 X11.0700Y14.9804Z[#100+-0.1000]
#102=[#540+0.26027*#527-0.26027*#540]
#101=[#541+0.26027*#528-0.26027*#541]
#100=[#102+0.85114*#101-0.85114*#102]
G01 X11.0700Y14.9140Z[#100+-0.1000]
#102=[#540+0.26884*#527-0.26884*#540]
#101=[#541+0.26884*#528-0.26884*#541]
#100=[#102+0.85232*#101-0.85232*#102]
G01 X11.0763Y14.8710Z[#100+-0.1000]
#102=[#540+0.27306*#527-0.27306*#540]
#101=[#541+0.27306*#528-0.27306*#541]
#100=[#102+0.85262*#101-0.85262*#102]
G01 X11.0779Y14.8498Z[#100+-0.1000]
#102=[#540+0.27964*#527-0.27964*#540]
#101=[#541+0.27964*#528-0.27964*#541]
#100=[#102+0.85282*#101-0.85282*#102]
G01 X11.0790Y14.8168Z[#100+-0.1000]
#102=[#540+0.29542*#527-0.29542*#540]
#101=[#541+0.29542*#528-0.29542*#541]
#100=[#102+0.85282*#101-0.85282*#102]
G01 X11.0790Y14.7376Z[#100+-0.1000]
#102=[#540+0.29827*#527-0.29827*#540]
#101=[#541+0.29827*#528-0.29827*#541]
#100=[#102+0.85710*#101-0.85710*#102]
G01 X11.1019Y14.7233Z[#100+-0.1000]
#102=[#540+0.30359*#527-0.30359*#540]
#101=[#541+0.30359*#528-0.30359*#541]
#100=[#102+0.86400*#101-0.86400*#102]
G01 X11.1388Y14.6966Z[#100+-0.1000]
#102=[#540+0.30727*#527-0.30727*#540]
#101=[#541+0.30727*#528-0.30727*#541]
#100=[#102+0.86831*#101-0.86831*#102]
G01 X11.1619Y14.6781Z[#100+-0.1000]
#102=[#540+0.31490*#527-0.31490*#540]
#101=[#541+0.31490*#528-0.31490*#541]
#100=[#102+0.87614*#101-0.87614*#102]
G01 X11.2038Y14.6398Z[#100+-0.1000]
#102=[#540+0.32325*#527-0.32325*#540]
#101=[#541+0.32325*#528-0.32325*#541]
#100=[#102+0.88330*#101-0.88330*#102]
G01 X11.2421Y14.5979Z[#100+-0.1000]
#102=[#540+0.32785*#527-0.32785*#540]
#101=[#541+0.32785*#528-0.32785*#541]
#100=[#102+0.88676*#101-0.88676*#102]
G01 X11.2606Y14.5748Z[#100+-0.1000]
#102=[#540+0.33520*#527-0.33520*#540]
#101=[#541+0.33520*#528-0.33520*#541]
#100=[#102+0.89175*#101-0.89175*#102]
G01 X11.2873Y14.5379Z[#100+-0.1000]
#102=[#540+0.34280*#527-0.34280*#540]
#101=[#541+0.34280*#528-0.34280*#541]
#100=[#102+0.89612*#101-0.89612*#102]
G01 X11.3107Y14.4998Z[#100+-0.1000]
#102=[#540+0.34839*#527-0.34839*#540]
#101=[#541+0.34839*#528-0.34839*#541]
#100=[#102+0.89900*#101-0.89900*#102]
G01 X11.3261Y14.4717Z[#100+-0.1000]
#102=[#540+0.35626*#527-0.35626*#540]
#101=[#541+0.35626*#528-0.35626*#541]
#100=[#102+0.90249*#101-0.90249*#102]
G01 X11.3448Y14.4322Z[#100+-0.1000]
#102=[#540+0.36204*#527-0.36204*#540]
#101=[#541+0.36204*#528-0.36204*#541]
#100=[#102+0.90466*#101-0.90466*#102]
G01 X11.3564Y14.4032Z[#100+-0.1000]
#102=[#540+0.37079*#527-0.37079*#540]
#101=[#541+0.37079*#528-0.37079*#541]
#100=[#102+0.90748*#101-0.90748*#102]
G01 X11.3715Y14.3593Z[#100+-0.1000]
#102=[#540+0.37451*#527-0.37451*#540]
#101=[#541+0.37451*#528-0.37451*#541]
#100=[#102+0.90843*#101-0.90843*#102]
G01 X11.3766Y14.3406Z[#100+-0.1000]
#102=[#540+0.38143*#527-0.38143*#540]
#101=[#541+0.38143*#528-0.38143*#541]
#100=[#102+0.91004*#101-0.91004*#102]
G01 X11.3852Y14.3059Z[#100+-0.1000]
#102=[#540+0.38731*#527-0.38731*#540]
#101=[#541+0.38731*#528-0.38731*#541]
#100=[#102+0.91105*#101-0.91105*#102]
G01 X11.3906Y14.2764Z[#100+-0.1000]
#102=[#540+0.39609*#527-0.39609*#540]
#101=[#541+0.39609*#528-0.39609*#541]
#100=[#102+0.91219*#101-0.91219*#102]
G01 X11.3967Y14.2323Z[#100+-0.1000]
#102=[#540+0.40032*#527-0.40032*#540]
#101=[#541+0.40032*#528-0.40032*#541]
#100=[#102+0.91249*#101-0.91249*#102]
G01 X11.3983Y14.2111Z[#100+-0.1000]
#102=[#540+0.40930*#527-0.40930*#540]
#101=[#541+0.40930*#528-0.40930*#541]
#100=[#102+0.91280*#101-0.91280*#102]
G01 X11.4000Y14.1660Z[#100+-0.1000]
#102=[#540+0.58862*#527-0.58862*#540]
#101=[#541+0.58862*#528-0.58862*#541]
#100=[#102+0.91280*#101-0.91280*#102]
G01 X11.4000Y13.2660Z[#100+-0.1000]
#102=[#540+0.59760*#527-0.59760*#540]
#101=[#541+0.59760*#528-0.59760*#541]
#100=[#102+0.91249*#101-0.91249*#102]
G01 X11.3983Y13.2209Z[#100+-0.1000]
#102=[#540+0.60183*#527-0.60183*#540]
#101=[#541+0.60183*#528-0.60183*#541]
#100=[#102+0.91219*#101-0.91219*#102]
G01 X11.3967Y13.1997Z[#100+-0.1000]
#102=[#540+0.60780*#527-0.60780*#540]
#101=[#541+0.60780*#528-0.60780*#541]
#100=[#102+0.91144*#101-0.91144*#102]
G01 X11.3927Y13.1697Z[#100+-0.1000]
#102=[#540+0.60723*#527-0.60723*#540]
#101=[#541+0.60723*#528-0.60723*#541]
#100=[#102+0.91434*#101-0.91434*#102]
G01 X11.4082Y13.1726Z[#100+-0.1000]
#102=[#540+0.60637*#527-0.60637*#540]
#101=[#541+0.60637*#528-0.60637*#541]
#100=[#102+0.92035*#101-0.92035*#102]
G01 X11.4404Y13.1769Z[#100+-0.1000]
#102=[#540+0.60601*#527-0.60601*#540]
#101=[#541+0.60601*#528-0.60601*#541]
#100=[#102+0.92512*#101-0.92512*#102]
G01 X11.4659Y13.1787Z[#100+-0.1000]
#102=[#540+0.60183*#527-0.60183*#540]
#101=[#541+0.60183*#528-0.60183*#541]
#100=[#102+0.92463*#101-0.92463*#102]
G01 X11.4633Y13.1997Z[#100+-0.1000]
#102=[#540+0.59760*#527-0.59760*#540]
#101=[#541+0.59760*#528-0.59760*#541]
#100=[#102+0.92433*#101-0.92433*#102]
G01 X11.4617Y13.2209Z[#100+-0.1000]
#102=[#540+0.58862*#527-0.58862*#540]
#101=[#541+0.58862*#528-0.58862*#541]
#100=[#102+0.92401*#101-0.92401*#102]
G01 X11.4600Y13.2660Z[#100+-0.1000]
#102=[#540+0.40930*#527-0.40930*#540]
#101=[#541+0.40930*#528-0.40930*#541]
#100=[#102+0.92401*#101-0.92401*#102]
G01 X11.4600Y14.1660Z[#100+-0.1000]
#102=[#540+0.40032*#527-0.40032*#540]
#101=[#541+0.40032*#528-0.40032*#541]
#100=[#102+0.92433*#101-0.92433*#102]
G01 X11.4617Y14.2111Z[#100+-0.1000]
#102=[#540+0.39609*#527-0.39609*#540]
#101=[#541+0.39609*#528-0.39609*#541]
#100=[#102+0.92463*#101-0.92463*#102]
G01 X11.4633Y14.2323Z[#100+-0.1000]
#102=[#540+0.38731*#527-0.38731*#540]
#101=[#541+0.38731*#528-0.38731*#541]
#100=[#102+0.92577*#101-0.92577*#102]
G01 X11.4694Y14.2764Z[#100+-0.1000]
#102=[#540+0.37926*#527-0.37926*#540]
#101=[#541+0.37926*#528-0.37926*#541]
#100=[#102+0.92727*#101-0.92727*#102]
G01 X11.4774Y14.3168Z[#100+-0.1000]
#102=[#540+0.37079*#527-0.37079*#540]
#101=[#541+0.37079*#528-0.37079*#541]
#100=[#102+0.92934*#101-0.92934*#102]
G01 X11.4885Y14.3593Z[#100+-0.1000]
#102=[#540+0.36664*#527-0.36664*#540]
#101=[#541+0.36664*#528-0.36664*#541]
#100=[#102+0.93061*#101-0.93061*#102]
G01 X11.4953Y14.3801Z[#100+-0.1000]
#102=[#540+0.36204*#527-0.36204*#540]
#101=[#541+0.36204*#528-0.36204*#541]
#100=[#102+0.93216*#101-0.93216*#102]
G01 X11.5036Y14.4032Z[#100+-0.1000]
#102=[#540+0.35447*#527-0.35447*#540]
#101=[#541+0.35447*#528-0.35447*#541]
#100=[#102+0.93511*#101-0.93511*#102]
G01 X11.5194Y14.4412Z[#100+-0.1000]
#102=[#540+0.34839*#527-0.34839*#540]
#101=[#541+0.34839*#528-0.34839*#541]
#100=[#102+0.93782*#101-0.93782*#102]
G01 X11.5339Y14.4717Z[#100+-0.1000]
#102=[#540+0.34280*#527-0.34280*#540]
#101=[#541+0.34280*#528-0.34280*#541]
#100=[#102+0.94070*#101-0.94070*#102]
G01 X11.5493Y14.4998Z[#100+-0.1000]
#102=[#540+0.33861*#527-0.33861*#540]
#101=[#541+0.33861*#528-0.33861*#541]
#100=[#102+0.94305*#101-0.94305*#102]
G01 X11.5619Y14.5208Z[#100+-0.1000]
#102=[#540+0.33520*#527-0.33520*#540]
#101=[#541+0.33520*#528-0.33520*#541]
#100=[#102+0.94507*#101-0.94507*#102]
G01 X11.5727Y14.5379Z[#100+-0.1000]
#102=[#540+0.32785*#527-0.32785*#540]
#101=[#541+0.32785*#528-0.32785*#541]
#100=[#102+0.95006*#101-0.95006*#102]
G01 X11.5994Y14.5748Z[#100+-0.1000]
#102=[#540+0.32325*#527-0.32325*#540]
#101=[#541+0.32325*#528-0.32325*#541]
#100=[#102+0.95352*#101-0.95352*#102]
G01 X11.6179Y14.5979Z[#100+-0.1000]
#102=[#540+0.31490*#527-0.31490*#540]
#101=[#541+0.31490*#528-0.31490*#541]
#100=[#102+0.96068*#101-0.96068*#102]
G01 X11.6562Y14.6398Z[#100+-0.1000]
#102=[#540+0.30727*#527-0.30727*#540]
#101=[#541+0.30727*#528-0.30727*#541]
#100=[#102+0.96850*#101-0.96850*#102]
G01 X11.6981Y14.6781Z[#100+-0.1000]
#102=[#540+0.30359*#527-0.30359*#540]
#101=[#541+0.30359*#528-0.30359*#541]
#100=[#102+0.97282*#101-0.97282*#102]
G01 X11.7212Y14.6966Z[#100+-0.1000]
#102=[#540+0.29827*#527-0.29827*#540]
#101=[#541+0.29827*#528-0.29827*#541]
#100=[#102+0.97972*#101-0.97972*#102]
G01 X11.7581Y14.7233Z[#100+-0.1000]
#102=[#540+0.29360*#527-0.29360*#540]
#101=[#541+0.29360*#528-0.29360*#541]
#100=[#102+0.98683*#101-0.98683*#102]
G01 X11.7962Y14.7467Z[#100+-0.1000]
#102=[#540+0.28950*#527-0.28950*#540]
#101=[#541+0.28950*#528-0.28950*#541]
#100=[#102+0.99408*#101-0.99408*#102]
G01 X11.8350Y14.7673Z[#100+-0.1000]
#102=[#540+0.25382*#527-0.25382*#540]
#101=[#541+0.25382*#528-0.25382*#541]
#100=[#102+0.99408*#101-0.99408*#102]
G01 X11.8350Y14.9464Z[#100+-0.1000]
#102=[#540+0.25192*#527-0.25192*#540]
#101=[#541+0.25192*#528-0.25192*#541]
#100=[#102+0.99040*#101-0.99040*#102]
G01 X11.8153Y14.9559Z[#100+-0.1000]
#102=[#540+0.24885*#527-0.24885*#540]
#101=[#541+0.24885*#528-0.24885*#541]
#100=[#102+0.98515*#101-0.98515*#102]
G01 X11.7872Y14.9713Z[#100+-0.1000]
#102=[#540+0.24634*#527-0.24634*#540]
#101=[#541+0.24634*#528-0.24634*#541]
#100=[#102+0.98123*#101-0.98123*#102]
G01 X11.7662Y14.9839Z[#100+-0.1000]
#102=[#540+0.24419*#527-0.24419*#540]
#101=[#541+0.24419*#528-0.24419*#541]
#100=[#102+0.97803*#101-0.97803*#102]
G01 X11.7491Y14.9947Z[#100+-0.1000]
#102=[#540+0.23887*#527-0.23887*#540]
#101=[#541+0.23887*#528-0.23887*#541]
#100=[#102+0.97114*#101-0.97114*#102]
G01 X11.7122Y15.0214Z[#100+-0.1000]
#102=[#540+0.23519*#527-0.23519*#540]
#101=[#541+0.23519*#528-0.23519*#541]
#100=[#102+0.96682*#101-0.96682*#102]
G01 X11.6891Y15.0399Z[#100+-0.1000]
#102=[#540+0.22756*#527-0.22756*#540]
#101=[#541+0.22756*#528-0.22756*#541]
#100=[#102+0.95899*#101-0.95899*#102]
G01 X11.6472Y15.0782Z[#100+-0.1000]
#102=[#540+0.21921*#527-0.21921*#540]
#101=[#541+0.21921*#528-0.21921*#541]
#100=[#102+0.95184*#101-0.95184*#102]
G01 X11.6089Y15.1201Z[#100+-0.1000]
#102=[#540+0.21461*#527-0.21461*#540]
#101=[#541+0.21461*#528-0.21461*#541]
#100=[#102+0.94838*#101-0.94838*#102]
G01 X11.5904Y15.1432Z[#100+-0.1000]
#102=[#540+0.20725*#527-0.20725*#540]
#101=[#541+0.20725*#528-0.20725*#541]
#100=[#102+0.94339*#101-0.94339*#102]
G01 X11.5637Y15.1801Z[#100+-0.1000]
#102=[#540+0.19966*#527-0.19966*#540]
#101=[#541+0.19966*#528-0.19966*#541]
#100=[#102+0.93902*#101-0.93902*#102]
G01 X11.5403Y15.2182Z[#100+-0.1000]
#102=[#540+0.19406*#527-0.19406*#540]
#101=[#541+0.19406*#528-0.19406*#541]
#100=[#102+0.93614*#101-0.93614*#102]
G01 X11.5249Y15.2463Z[#100+-0.1000]
#102=[#540+0.18619*#527-0.18619*#540]
#101=[#541+0.18619*#528-0.18619*#541]
#100=[#102+0.93265*#101-0.93265*#102]
G01 X11.5062Y15.2858Z[#100+-0.1000]
#102=[#540+0.18042*#527-0.18042*#540]
#101=[#541+0.18042*#528-0.18042*#541]
#100=[#102+0.93048*#101-0.93048*#102]
G01 X11.4946Y15.3148Z[#100+-0.1000]
#102=[#540+0.17167*#527-0.17167*#540]
#101=[#541+0.17167*#528-0.17167*#541]
#100=[#102+0.92766*#101-0.92766*#102]
G01 X11.4795Y15.3587Z[#100+-0.1000]
#102=[#540+0.16103*#527-0.16103*#540]
#101=[#541+0.16103*#528-0.16103*#541]
#100=[#102+0.92510*#101-0.92510*#102]
G01 X11.4658Y15.4121Z[#100+-0.1000]
#102=[#540+0.15031*#527-0.15031*#540]
#101=[#541+0.15031*#528-0.15031*#541]
#100=[#102+0.92342*#101-0.92342*#102]
G01 X11.4568Y15.4659Z[#100+-0.1000]
#102=[#540+0.14637*#527-0.14637*#540]
#101=[#541+0.14637*#528-0.14637*#541]
#100=[#102+0.92295*#101-0.92295*#102]
G01 X11.4543Y15.4857Z[#100+-0.1000]
#102=[#540+0.14214*#527-0.14214*#540]
#101=[#541+0.14214*#528-0.14214*#541]
#100=[#102+0.92265*#101-0.92265*#102]
G01 X11.4527Y15.5069Z[#100+-0.1000]
#102=[#540+0.13316*#527-0.13316*#540]
#101=[#541+0.13316*#528-0.13316*#541]
#100=[#102+0.92233*#101-0.92233*#102]
G01 X11.4510Y15.5520Z[#100+-0.1000]
#102=[#553+0.95384*#540-0.95384*#553]
#101=[#554+0.95384*#541-0.95384*#554]
#100=[#102+0.92233*#101-0.92233*#102]
G01 X11.4510Y16.4520Z[#100+-0.1000]
#102=[#553+0.94486*#540-0.94486*#553]
#101=[#554+0.94486*#541-0.94486*#554]
#100=[#102+0.92265*#101-0.92265*#102]
G01 X11.4527Y16.4971Z[#100+-0.1000]
#102=[#553+0.94063*#540-0.94063*#553]
#101=[#554+0.94063*#541-0.94063*#554]
#100=[#102+0.92295*#101-0.92295*#102]
G01 X11.4543Y16.5183Z[#100+-0.1000]
#102=[#553+0.93645*#540-0.93645*#553]
#101=[#554+0.93645*#541-0.93645*#554]
#100=[#102+0.92344*#101-0.92344*#102]
G01 X11.4569Y16.5393Z[#100+-0.1000]
#102=[#553+0.93609*#540-0.93609*#553]
#101=[#554+0.93609*#541-0.93609*#554]
#100=[#102+0.91867*#101-0.91867*#102]
G01 X11.4314Y16.5411Z[#100+-0.1000]
#102=[#553+0.93523*#540-0.93523*#553]
#101=[#554+0.93523*#541-0.93523*#554]
#100=[#102+0.91265*#101-0.91265*#102]
G01 X11.3992Y16.5454Z[#100+-0.1000]
#102=[#553+0.93466*#540-0.93466*#553]
#101=[#554+0.93466*#541-0.93466*#554]
#100=[#102+0.90976*#101-0.90976*#102]
G01 X11.3837Y16.5483Z[#100+-0.1000]
G00 Z1.0000
G00 X11.7710Y16.4520
#102=[#553+0.95384*#540-0.95384*#553]
#101=[#554+0.95384*#541-0.95384*#554]
#100=[#102+0.98213*#101-0.98213*#102]
G01 Z[#100+-0.1000]
#102=[#540+0.13316*#527-0.13316*#540]
#101=[#541+0.13316*#528-0.13316*#541]
#100=[#102+0.98213*#101-0.98213*#102]
G01 X11.7710Y15.5520Z[#100+-0.1000]
#102=[#540+0.14097*#527-0.14097*#540]
#101=[#541+0.14097*#528-0.14097*#541]
#100=[#102+0.98256*#101-0.98256*#102]
G01 X11.7733Y15.5128Z[#100+-0.1000]
#102=[#540+0.14720*#527-0.14720*#540]
#101=[#541+0.14720*#528-0.14720*#541]
#100=[#102+0.98347*#101-0.98347*#102]
G01 X11.7782Y15.4815Z[#100+-0.1000]
#102=[#540+0.15334*#527-0.15334*#540]
#101=[#541+0.15334*#528-0.15334*#541]
#100=[#102+0.98493*#101-0.98493*#102]
G01 X11.7860Y15.4507Z[#100+-0.1000]
#102=[#540+0.16031*#527-0.16031*#540]
#101=[#541+0.16031*#528-0.16031*#541]
#100=[#102+0.98728*#101-0.98728*#102]
G01 X11.7986Y15.4157Z[#100+-0.1000]
#102=[#540+0.16515*#527-0.16515*#540]
#101=[#541+0.16515*#528-0.16515*#541]
#100=[#102+0.98943*#101-0.98943*#102]
G01 X11.8101Y15.3914Z[#100+-0.1000]
#102=[#540+0.17271*#527-0.17271*#540]
#101=[#541+0.17271*#528-0.17271*#541]
#100=[#102+0.99367*#101-0.99367*#102]
G01 X11.8328Y15.3535Z[#100+-0.1000]
#102=[#540+0.17773*#527-0.17773*#540]
#101=[#541+0.17773*#528-0.17773*#541]
#100=[#102+0.99722*#101-0.99722*#102]
G01 X11.8518Y15.3283Z[#100+-0.1000]
#102=[#541+0.18247*#528-0.18247*#541]
#101=[#542+0.18247*#529-0.18247*#542]
#100=[#102+0.00128*#101-0.00128*#102]
G01 X11.8735Y15.3045Z[#100+-0.1000]
#102=[#541+0.18679*#528-0.18679*#541]
#101=[#542+0.18679*#529-0.18679*#542]
#100=[#102+0.00573*#101-0.00573*#102]
G01 X11.8973Y15.2828Z[#100+-0.1000]
#102=[#541+0.19116*#528-0.19116*#541]
#101=[#542+0.19116*#529-0.19116*#542]
#100=[#102+0.01120*#101-0.01120*#102]
G01 X11.9266Y15.2609Z[#100+-0.1000]
#102=[#541+0.19490*#528-0.19490*#541]
#101=[#542+0.19490*#529-0.19490*#542]
#100=[#102+0.01714*#101-0.01714*#102]
G01 X11.9584Y15.2421Z[#100+-0.1000]
#102=[#541+0.19719*#528-0.19719*#541]
#101=[#542+0.19719*#529-0.19719*#542]
#100=[#102+0.02166*#101-0.02166*#102]
G01 X11.9826Y15.2306Z[#100+-0.1000]
#102=[#541+0.20014*#528-0.20014*#541]
#101=[#542+0.20014*#529-0.20014*#542]
#100=[#102+0.02942*#101-0.02942*#102]
G01 X12.0241Y15.2158Z[#100+-0.1000]
#102=[#541+0.20146*#528-0.20146*#541]
#101=[#542+0.20146*#529-0.20146*#542]
#100=[#102+0.03435*#101-0.03435*#102]
G01 X12.0505Y15.2092Z[#100+-0.1000]
#102=[#541+0.20255*#528-0.20255*#541]
#101=[#542+0.20255*#529-0.20255*#542]
#100=[#102+0.04108*#101-0.04108*#102]
G01 X12.0865Y15.2037Z[#100+-0.1000]
#102=[#541+0.20287*#528-0.20287*#541]
#101=[#542+0.20287*#529-0.20287*#542]
#100=[#102+0.04661*#101-0.04661*#102]
G01 X12.1161Y15.2021Z[#100+-0.1000]
#102=[#541+0.20289*#528-0.20289*#541]
#101=[#542+0.20289*#529-0.20289*#542]
#100=[#102+0.05388*#101-0.05388*#102]
G01 X12.1550Y15.2020Z[#100+-0.1000]
#102=[#541+0.33957*#528-0.33957*#541]
#101=[#542+0.33957*#529-0.33957*#542]
#100=[#102+0.05388*#101-0.05388*#102]
G01 X12.1550Y14.5160Z[#100+-0.1000]
#102=[#541+0.33959*#528-0.33959*#541]
#101=[#542+0.33959*#529-0.33959*#542]
#100=[#102+0.04829*#101-0.04829*#102]
G01 X12.1251Y14.5159Z[#100+-0.1000]
#102=[#541+0.33991*#528-0.33991*#541]
#101=[#542+0.33991*#529-0.33991*#542]
#100=[#102+0.04276*#101-0.04276*#102]
G01 X12.0955Y14.5143Z[#100+-0.1000]
#102=[#541+0.34100*#528-0.34100*#541]
#101=[#542+0.34100*#529-0.34100*#542]
#100=[#102+0.03603*#101-0.03603*#102]
G01 X12.0595Y14.5088Z[#100+-0.1000]
#102=[#541+0.34256*#528-0.34256*#541]
#101=[#542+0.34256*#529-0.34256*#542]
#100=[#102+0.03028*#101-0.03028*#102]
G01 X12.0287Y14.5010Z[#100+-0.1000]
#102=[#541+0.34507*#528-0.34507*#541]
#101=[#542+0.34507*#529-0.34507*#542]
#100=[#102+0.02374*#101-0.02374*#102]
G01 X11.9937Y14.4884Z[#100+-0.1000]
#102=[#541+0.34756*#528-0.34756*#541]
#101=[#542+0.34756*#529-0.34756*#542]
#100=[#102+0.01882*#101-0.01882*#102]
G01 X11.9674Y14.4759Z[#100+-0.1000]
#102=[#541+0.35130*#528-0.35130*#541]
#101=[#542+0.35130*#529-0.35130*#542]
#100=[#102+0.01288*#101-0.01288*#102]
G01 X11.9356Y14.4571Z[#100+-0.1000]
#102=[#541+0.35479*#528-0.35479*#541]
#101=[#542+0.35479*#529-0.35479*#542]
#100=[#102+0.00843*#101-0.00843*#102]
G01 X11.9118Y14.4396Z[#100+-0.1000]
#102=[#541+0.35999*#528-0.35999*#541]
#101=[#542+0.35999*#529-0.35999*#542]
#100=[#102+0.00296*#101-0.00296*#102]
G01 X11.8825Y14.4135Z[#100+-0.1000]
#102=[#540+0.36431*#527-0.36431*#540]
#101=[#541+0.36431*#528-0.36431*#541]
#100=[#102+0.99926*#101-0.99926*#102]
G01 X11.8627Y14.3918Z[#100+-0.1000]
#102=[#540+0.37139*#527-0.37139*#540]
#101=[#541+0.37139*#528-0.37139*#541]
#100=[#102+0.99435*#101-0.99435*#102]
G01 X11.8364Y14.3563Z[#100+-0.1000]
#102=[#540+0.37691*#527-0.37691*#540]
#101=[#541+0.37691*#528-0.37691*#541]
#100=[#102+0.99130*#101-0.99130*#102]
G01 X11.8201Y14.3286Z[#100+-0.1000]
#102=[#540+0.38352*#527-0.38352*#540]
#101=[#541+0.38352*#528-0.38352*#541]
#100=[#102+0.98846*#101-0.98846*#102]
G01 X11.8049Y14.2954Z[#100+-0.1000]
#102=[#540+0.38912*#527-0.38912*#540]
#101=[#541+0.38912*#528-0.38912*#541]
#100=[#102+0.98661*#101-0.98661*#102]
G01 X11.7950Y14.2673Z[#100+-0.1000]
#102=[#540+0.39667*#527-0.39667*#540]
#101=[#541+0.39667*#528-0.39667*#541]
#100=[#102+0.98491*#101-0.98491*#102]
G01 X11.7859Y14.2294Z[#100+-0.1000]
#102=[#540+0.40243*#527-0.40243*#540]
#101=[#541+0.40243*#528-0.40243*#541]
#100=[#102+0.98413*#101-0.98413*#102]
G01 X11.7817Y14.2005Z[#100+-0.1000]
#102=[#540+0.40930*#527-0.40930*#540]
#101=[#541+0.40930*#528-0.40930*#541]
#100=[#102+0.98381*#101-0.98381*#102]
G01 X11.7800Y14.1660Z[#100+-0.1000]
#102=[#540+0.58862*#527-0.58862*#540]
#101=[#541+0.58862*#528-0.58862*#541]
#100=[#102+0.98381*#101-0.98381*#102]
G01 X11.7800Y13.2660Z[#100+-0.1000]
#102=[#540+0.59643*#527-0.59643*#540]
#101=[#541+0.59643*#528-0.59643*#541]
#100=[#102+0.98424*#101-0.98424*#102]
G01 X11.7823Y13.2268Z[#100+-0.1000]
#102=[#540+0.60266*#527-0.60266*#540]
#101=[#541+0.60266*#528-0.60266*#541]
#100=[#102+0.98515*#101-0.98515*#102]
G01 X11.7872Y13.1955Z[#100+-0.1000]
#102=[#540+0.60880*#527-0.60880*#540]
#101=[#541+0.60880*#528-0.60880*#541]
#100=[#102+0.98661*#101-0.98661*#102]
G01 X11.7950Y13.1647Z[#100+-0.1000]
#102=[#540+0.61619*#527-0.61619*#540]
#101=[#541+0.61619*#528-0.61619*#541]
#100=[#102+0.98915*#101-0.98915*#102]
G01 X11.8086Y13.1276Z[#100+-0.1000]
#102=[#540+0.62101*#527-0.62101*#540]
#101=[#541+0.62101*#528-0.62101*#541]
#100=[#102+0.99130*#101-0.99130*#102]
G01 X11.8201Y13.1034Z[#100+-0.1000]
#102=[#540+0.62653*#527-0.62653*#540]
#101=[#541+0.62653*#528-0.62653*#541]
#100=[#102+0.99435*#101-0.99435*#102]
G01 X11.8364Y13.0757Z[#100+-0.1000]
#102=[#540+0.63319*#527-0.63319*#540]
#101=[#541+0.63319*#528-0.63319*#541]
#100=[#102+0.99891*#101-0.99891*#102]
G01 X11.8608Y13.0423Z[#100+-0.1000]
#102=[#541+0.63861*#528-0.63861*#541]
#101=[#542+0.63861*#529-0.63861*#542]
#100=[#102+0.00363*#101-0.00363*#102]
G01 X11.8861Y13.0151Z[#100+-0.1000]
#102=[#541+0.64225*#528-0.64225*#541]
#101=[#542+0.64225*#529-0.64225*#542]
#100=[#102+0.00741*#101-0.00741*#102]
G01 X11.9063Y12.9968Z[#100+-0.1000]
#102=[#541+0.64604*#528-0.64604*#541]
#101=[#542+0.64604*#529-0.64604*#542]
#100=[#102+0.01212*#101-0.01212*#102]
G01 X11.9315Y12.9778Z[#100+-0.1000]
#102=[#541+0.65036*#528-0.65036*#541]
#101=[#542+0.65036*#529-0.65036*#542]
#100=[#102+0.01882*#101-0.01882*#102]
G01 X11.9674Y12.9561Z[#100+-0.1000]
#102=[#541+0.65285*#528-0.65285*#541]
#101=[#542+0.65285*#529-0.65285*#542]
#100=[#102+0.02374*#101-0.02374*#102]
G01 X11.9937Y12.9436Z[#100+-0.1000]
#102=[#541+0.65504*#528-0.65504*#541]
#101=[#542+0.65504*#529-0.65504*#542]
#100=[#102+0.02934*#101-0.02934*#102]
G01 X12.0237Y12.9326Z[#100+-0.1000]
#102=[#541+0.65692*#528-0.65692*#541]
#101=[#542+0.65692*#529-0.65692*#542]
#100=[#102+0.03603*#101-0.03603*#102]
G01 X12.0595Y12.9232Z[#100+-0.1000]
#102=[#541+0.65801*#528-0.65801*#541]
#101=[#542+0.65801*#529-0.65801*#542]
#100=[#102+0.04276*#101-0.04276*#102]
G01 X12.0955Y12.9177Z[#100+-0.1000]
#102=[#541+0.65835*#528-0.65835*#541]
#101=[#542+0.65835*#529-0.65835*#542]
#100=[#102+0.04921*#101-0.04921*#102]
G01 X12.1300Y12.9160Z[#100+-0.1000]
#102=[#541+0.65835*#528-0.65835*#541]
#101=[#542+0.65835*#529-0.65835*#542]
#100=[#102+0.17066*#101-0.17066*#102]
G01 X12.7800Y12.9160Z[#100+-0.1000]
#102=[#541+0.65789*#528-0.65789*#541]
#101=[#542+0.65789*#529-0.65789*#542]
#100=[#102+0.17798*#101-0.17798*#102]
G01 X12.8192Y12.9183Z[#100+-0.1000]
#102=[#541+0.65692*#528-0.65692*#541]
#101=[#542+0.65692*#529-0.65692*#542]
#100=[#102+0.18383*#101-0.18383*#102]
G01 X12.8505Y12.9232Z[#100+-0.1000]
#102=[#541+0.65536*#528-0.65536*#541]
#101=[#542+0.65536*#529-0.65536*#542]
#100=[#102+0.18959*#101-0.18959*#102]
G01 X12.8813Y12.9310Z[#100+-0.1000]
#102=[#541+0.65265*#528-0.65265*#541]
#101=[#542+0.65265*#529-0.65265*#542]
#100=[#102+0.19652*#101-0.19652*#102]
G01 X12.9184Y12.9446Z[#100+-0.1000]
#102=[#541+0.65036*#528-0.65036*#541]
#101=[#542+0.65036*#529-0.65036*#542]
#100=[#102+0.20104*#101-0.20104*#102]
G01 X12.9426Y12.9561Z[#100+-0.1000]
#102=[#541+0.64711*#528-0.64711*#541]
#101=[#542+0.64711*#529-0.64711*#542]
#100=[#102+0.20622*#101-0.20622*#102]
G01 X12.9703Y12.9724Z[#100+-0.1000]
#102=[#541+0.64225*#528-0.64225*#541]
#101=[#542+0.64225*#529-0.64225*#542]
#100=[#102+0.21246*#101-0.21246*#102]
G01 X13.0037Y12.9968Z[#100+-0.1000]
#102=[#541+0.63721*#528-0.63721*#541]
#101=[#542+0.63721*#529-0.63721*#542]
#100=[#102+0.21754*#101-0.21754*#102]
G01 X13.0309Y13.0221Z[#100+-0.1000]
#102=[#541+0.63319*#528-0.63319*#541]
#101=[#542+0.63319*#529-0.63319*#542]
#100=[#102+0.22096*#101-0.22096*#102]
G01 X13.0492Y13.0423Z[#100+-0.1000]
#102=[#541+0.62817*#528-0.62817*#541]
#101=[#542+0.62817*#529-0.62817*#542]
#100=[#102+0.22451*#101-0.22451*#102]
G01 X13.0682Y13.0675Z[#100+-0.1000]
#102=[#541+0.62101*#528-0.62101*#541]
#101=[#542+0.62101*#529-0.62101*#542]
#100=[#102+0.22856*#101-0.22856*#102]
G01 X13.0899Y13.1034Z[#100+-0.1000]
#102=[#541+0.61577*#528-0.61577*#541]
#101=[#542+0.61577*#529-0.61577*#542]
#100=[#102+0.23090*#101-0.23090*#102]
G01 X13.1024Y13.1297Z[#100+-0.1000]
#102=[#541+0.60980*#528-0.60980*#541]
#101=[#542+0.60980*#529-0.60980*#542]
#100=[#102+0.23296*#101-0.23296*#102]
G01 X13.1134Y13.1597Z[#100+-0.1000]
#102=[#541+0.60266*#528-0.60266*#541]
#101=[#542+0.60266*#529-0.60266*#542]
#100=[#102+0.23471*#101-0.23471*#102]
G01 X13.1228Y13.1955Z[#100+-0.1000]
#102=[#541+0.59549*#528-0.59549*#541]
#101=[#542+0.59549*#529-0.59549*#542]
#100=[#102+0.23574*#101-0.23574*#102]
G01 X13.1283Y13.2315Z[#100+-0.1000]
#102=[#541+0.58862*#528-0.58862*#541]
#101=[#542+0.58862*#529-0.58862*#542]
#100=[#102+0.23606*#101-0.23606*#102]
G01 X13.1300Y13.2660Z[#100+-0.1000]
#102=[#541+0.40930*#528-0.40930*#541]
#101=[#542+0.40930*#529-0.40930*#542]
#100=[#102+0.23606*#101-0.23606*#102]
G01 X13.1300Y14.1660Z[#100+-0.1000]
#102=[#541+0.40344*#528-0.40344*#541]
#101=[#542+0.40344*#529-0.40344*#542]
#100=[#102+0.23581*#101-0.23581*#102]
G01 X13.1287Y14.1954Z[#100+-0.1000]
#102=[#541+0.39526*#528-0.39526*#541]
#101=[#542+0.39526*#529-0.39526*#542]
#100=[#102+0.23471*#101-0.23471*#102]
G01 X13.1228Y14.2365Z[#100+-0.1000]
#102=[#541+0.38912*#528-0.38912*#541]
#101=[#542+0.38912*#529-0.38912*#542]
#100=[#102+0.23325*#101-0.23325*#102]
G01 X13.1150Y14.2673Z[#100+-0.1000]
#102=[#541+0.38215*#528-0.38215*#541]
#101=[#542+0.38215*#529-0.38215*#542]
#100=[#102+0.23090*#101-0.23090*#102]
G01 X13.1024Y14.3023Z[#100+-0.1000]
#102=[#541+0.37691*#528-0.37691*#541]
#101=[#542+0.37691*#529-0.37691*#542]
#100=[#102+0.22856*#101-0.22856*#102]
G01 X13.0899Y14.3286Z[#100+-0.1000]
#102=[#541+0.37057*#528-0.37057*#541]
#101=[#542+0.37057*#529-0.37057*#542]
#100=[#102+0.22505*#101-0.22505*#102]
G01 X13.0711Y14.3604Z[#100+-0.1000]
#102=[#541+0.36473*#528-0.36473*#541]
#101=[#542+0.36473*#529-0.36473*#542]
#100=[#102+0.22096*#101-0.22096*#102]
G01 X13.0492Y14.3897Z[#100+-0.1000]
#102=[#541+0.35999*#528-0.35999*#541]
#101=[#542+0.35999*#529-0.35999*#542]
#100=[#102+0.21691*#101-0.21691*#102]
G01 X13.0275Y14.4135Z[#100+-0.1000]
#102=[#541+0.35567*#528-0.35567*#541]
#101=[#542+0.35567*#529-0.35567*#542]
#100=[#102+0.21246*#101-0.21246*#102]
G01 X13.0037Y14.4352Z[#100+-0.1000]
#102=[#541+0.35130*#528-0.35130*#541]
#101=[#542+0.35130*#529-0.35130*#542]
#100=[#102+0.20698*#101-0.20698*#102]
G01 X12.9744Y14.4571Z[#100+-0.1000]
#102=[#541+0.34756*#528-0.34756*#541]
#101=[#542+0.34756*#529-0.34756*#542]
#100=[#102+0.20104*#101-0.20104*#102]
G01 X12.9426Y14.4759Z[#100+-0.1000]
#102=[#541+0.34507*#528-0.34507*#541]
#101=[#542+0.34507*#529-0.34507*#542]
#100=[#102+0.19613*#101-0.19613*#102]
G01 X12.9163Y14.4884Z[#100+-0.1000]
#102=[#541+0.34256*#528-0.34256*#541]
#101=[#542+0.34256*#529-0.34256*#542]
#100=[#102+0.18959*#101-0.18959*#102]
G01 X12.8813Y14.5010Z[#100+-0.1000]
#102=[#541+0.34100*#528-0.34100*#541]
#101=[#542+0.34100*#529-0.34100*#542]
#100=[#102+0.18383*#101-0.18383*#102]
G01 X12.8505Y14.5088Z[#100+-0.1000]
#102=[#541+0.33991*#528-0.33991*#541]
#101=[#542+0.33991*#529-0.33991*#542]
#100=[#102+0.17711*#101-0.17711*#102]
G01 X12.8145Y14.5143Z[#100+-0.1000]
#102=[#541+0.33959*#528-0.33959*#541]
#101=[#542+0.33959*#529-0.33959*#542]
#100=[#102+0.17157*#101-0.17157*#102]
G01 X12.7849Y14.5159Z[#100+-0.1000]
#102=[#541+0.33957*#528-0.33957*#541]
#101=[#542+0.33957*#529-0.33957*#542]
#100=[#102+0.16599*#101-0.16599*#102]
G01 X12.7550Y14.5160Z[#100+-0.1000]
#102=[#541+0.20289*#528-0.20289*#541]
#101=[#542+0.20289*#529-0.20289*#542]
#100=[#102+0.16599*#101-0.16599*#102]
G01 X12.7550Y15.2020Z[#100+-0.1000]
#102=[#541+0.20287*#528-0.20287*#541]
#101=[#542+0.20287*#529-0.20287*#542]
#100=[#102+0.16989*#101-0.16989*#102]
G01 X12.7759Y15.2021Z[#100+-0.1000]
#102=[#541+0.20255*#528-0.20255*#541]
#101=[#542+0.20255*#529-0.20255*#542]
#100=[#102+0.17542*#101-0.17542*#102]
G01 X12.8055Y15.2037Z[#100+-0.1000]
#102=[#541+0.20146*#528-0.20146*#541]
#101=[#542+0.20146*#529-0.20146*#542]
#100=[#102+0.18215*#101-0.18215*#102]
G01 X12.8415Y15.2092Z[#100+-0.1000]
#102=[#541+0.20014*#528-0.20014*#541]
#101=[#542+0.20014*#529-0.20014*#542]
#100=[#102+0.18708*#101-0.18708*#102]
G01 X12.8679Y15.2158Z[#100+-0.1000]
#102=[#541+0.19739*#528-0.19739*#541]
#101=[#542+0.19739*#529-0.19739*#542]
#100=[#102+0.19445*#101-0.19445*#102]
G01 X12.9073Y15.2296Z[#100+-0.1000]
#102=[#541+0.19490*#528-0.19490*#541]
#101=[#542+0.19490*#529-0.19490*#542]
#100=[#102+0.19936*#101-0.19936*#102]
G01 X12.9336Y15.2421Z[#100+-0.1000]
#102=[#541+0.19165*#528-0.19165*#541]
#101=[#542+0.19165*#529-0.19165*#542]
#100=[#102+0.20454*#101-0.20454*#102]
G01 X12.9613Y15.2584Z[#100+-0.1000]
#102=[#541+0.18641*#528-0.18641*#541]
#101=[#542+0.18641*#529-0.18641*#542]
#100=[#102+0.21117*#101-0.21117*#102]
G01 X12.9968Y15.2847Z[#100+-0.1000]
#102=[#541+0.18247*#528-0.18247*#541]
#101=[#542+0.18247*#529-0.18247*#542]
#100=[#102+0.21522*#101-0.21522*#102]
G01 X13.0185Y15.3045Z[#100+-0.1000]
#102=[#541+0.17773*#528-0.17773*#541]
#101=[#542+0.17773*#529-0.17773*#542]
#100=[#102+0.21928*#101-0.21928*#102]
G01 X13.0402Y15.3283Z[#100+-0.1000]
#102=[#541+0.17107*#528-0.17107*#541]
#101=[#542+0.17107*#529-0.17107*#542]
#100=[#102+0.22384*#101-0.22384*#102]
G01 X13.0646Y15.3617Z[#100+-0.1000]
#102=[#541+0.16555*#528-0.16555*#541]
#101=[#542+0.16555*#529-0.16555*#542]
#100=[#102+0.22688*#101-0.22688*#102]
G01 X13.0809Y15.3894Z[#100+-0.1000]
#102=[#541+0.16073*#528-0.16073*#541]
#101=[#542+0.16073*#529-0.16073*#542]
#100=[#102+0.22903*#101-0.22903*#102]
G01 X13.0924Y15.4136Z[#100+-0.1000]
#102=[#541+0.15246*#528-0.15246*#541]
#101=[#542+0.15246*#529-0.15246*#542]
#100=[#102+0.23180*#101-0.23180*#102]
G01 X13.1072Y15.4551Z[#100+-0.1000]
#102=[#541+0.14579*#528-0.14579*#541]
#101=[#542+0.14579*#529-0.14579*#542]
#100=[#102+0.23327*#101-0.23327*#102]
G01 X13.1151Y15.4886Z[#100+-0.1000]
#102=[#541+0.13901*#528-0.13901*#541]
#101=[#542+0.13901*#529-0.13901*#542]
#100=[#102+0.23413*#101-0.23413*#102]
G01 X13.1197Y15.5226Z[#100+-0.1000]
#102=[#541+0.13316*#528-0.13316*#541]
#101=[#542+0.13316*#529-0.13316*#542]
#100=[#102+0.23438*#101-0.23438*#102]
G01 X13.1210Y15.5520Z[#100+-0.1000]
#102=[#541+0.04609*#528-0.04609*#541]
#101=[#542+0.04609*#529-0.04609*#542]
#100=[#102+0.23438*#101-0.23438*#102]
G01 X13.1210Y15.9890Z[#100+-0.1000]
#102=[#541+0.04609*#528-0.04609*#541]
#101=[#542+0.04609*#529-0.04609*#542]
#100=[#102+0.46065*#101-0.46065*#102]
G01 X14.3320Y15.9890Z[#100+-0.1000]
#102=[#541+0.14073*#528-0.14073*#541]
#101=[#542+0.14073*#529-0.14073*#542]
#100=[#102+0.46065*#101-0.46065*#102]
G01 X14.3320Y15.5140Z[#100+-0.1000]
#102=[#541+0.14280*#528-0.14280*#541]
#101=[#542+0.14280*#529-0.14280*#542]
#100=[#102+0.46075*#101-0.46075*#102]
G01 X14.3325Y15.5036Z[#100+-0.1000]
#102=[#541+0.14487*#528-0.14487*#541]
#101=[#542+0.14487*#529-0.14487*#542]
#100=[#102+0.46106*#101-0.46106*#102]
G01 X14.3342Y15.4932Z[#100+-0.1000]
#102=[#541+0.14688*#528-0.14688*#541]
#101=[#542+0.14688*#529-0.14688*#542]
#100=[#102+0.46157*#101-0.46157*#102]
G01 X14.3369Y15.4831Z[#100+-0.1000]
#102=[#541+0.14882*#528-0.14882*#541]
#101=[#542+0.14882*#529-0.14882*#542]
#100=[#102+0.46226*#101-0.46226*#102]
G01 X14.3406Y15.4734Z[#100+-0.1000]
#102=[#541+0.15069*#528-0.15069*#541]
#101=[#542+0.15069*#529-0.15069*#542]
#100=[#102+0.46316*#101-0.46316*#102]
G01 X14.3454Y15.4640Z[#100+-0.1000]
#102=[#541+0.15244*#528-0.15244*#541]
#101=[#542+0.15244*#529-0.15244*#542]
#100=[#102+0.46422*#101-0.46422*#102]
G01 X14.3511Y15.4552Z[#100+-0.1000]
#102=[#541+0.15406*#528-0.15406*#541]
#101=[#542+0.15406*#529-0.15406*#542]
#100=[#102+0.46546*#101-0.46546*#102]
G01 X14.3577Y15.4471Z[#100+-0.1000]
#102=[#541+0.15553*#528-0.15553*#541]
#101=[#542+0.15553*#529-0.15553*#542]
#100=[#102+0.46684*#101-0.46684*#102]
G01 X14.3651Y15.4397Z[#100+-0.1000]
#102=[#541+0.15685*#528-0.15685*#541]
#101=[#542+0.15685*#529-0.15685*#542]
#100=[#102+0.46835*#101-0.46835*#102]
G01 X14.3732Y15.4331Z[#100+-0.1000]
#102=[#541+0.15798*#528-0.15798*#541]
#101=[#542+0.15798*#529-0.15798*#542]
#100=[#102+0.47000*#101-0.47000*#102]
G01 X14.3820Y15.4274Z[#100+-0.1000]
#102=[#541+0.15894*#528-0.15894*#541]
#101=[#542+0.15894*#529-0.15894*#542]
#100=[#102+0.47175*#101-0.47175*#102]
G01 X14.3914Y15.4226Z[#100+-0.1000]
#102=[#541+0.15968*#528-0.15968*#541]
#101=[#542+0.15968*#529-0.15968*#542]
#100=[#102+0.47357*#101-0.47357*#102]
G01 X14.4011Y15.4189Z[#100+-0.1000]
#102=[#541+0.16021*#528-0.16021*#541]
#101=[#542+0.16021*#529-0.16021*#542]
#100=[#102+0.47545*#101-0.47545*#102]
G01 X14.4112Y15.4162Z[#100+-0.1000]
#102=[#541+0.16055*#528-0.16055*#541]
#101=[#542+0.16055*#529-0.16055*#542]
#100=[#102+0.47740*#101-0.47740*#102]
G01 X14.4216Y15.4145Z[#100+-0.1000]
#102=[#541+0.16065*#528-0.16065*#541]
#101=[#542+0.16065*#529-0.16065*#542]
#100=[#102+0.47934*#101-0.47934*#102]
G01 X14.4320Y15.4140Z[#100+-0.1000]
#102=[#541+0.16065*#528-0.16065*#541]
#101=[#542+0.16065*#529-0.16065*#542]
#100=[#102+0.59145*#101-0.59145*#102]
G01 X15.0320Y15.4140Z[#100+-0.1000]
#102=[#541+0.16055*#528-0.16055*#541]
#101=[#542+0.16055*#529-0.16055*#542]
#100=[#102+0.59339*#101-0.59339*#102]
G01 X15.0424Y15.4145Z[#100+-0.1000]
#102=[#541+0.16021*#528-0.16021*#541]
#101=[#542+0.16021*#529-0.16021*#542]
#100=[#102+0.59534*#101-0.59534*#102]
G01 X15.0528Y15.4162Z[#100+-0.1000]
#102=[#541+0.15968*#528-0.15968*#541]
#101=[#542+0.15968*#529-0.15968*#542]
#100=[#102+0.59722*#101-0.59722*#102]
G01 X15.0629Y15.4189Z[#100+-0.1000]
#102=[#541+0.15894*#528-0.15894*#541]
#101=[#542+0.15894*#529-0.15894*#542]
#100=[#102+0.59904*#101-0.59904*#102]
G01 X15.0726Y15.4226Z[#100+-0.1000]
#102=[#541+0.15798*#528-0.15798*#541]
#101=[#542+0.15798*#529-0.15798*#542]
#100=[#102+0.60079*#101-0.60079*#102]
G01 X15.0820Y15.4274Z[#100+-0.1000]
#102=[#541+0.15685*#528-0.15685*#541]
#101=[#542+0.15685*#529-0.15685*#542]
#100=[#102+0.60244*#101-0.60244*#102]
G01 X15.0908Y15.4331Z[#100+-0.1000]
#102=[#541+0.15553*#528-0.15553*#541]
#101=[#542+0.15553*#529-0.15553*#542]
#100=[#102+0.60395*#101-0.60395*#102]
G01 X15.0989Y15.4397Z[#100+-0.1000]
#102=[#541+0.15406*#528-0.15406*#541]
#101=[#542+0.15406*#529-0.15406*#542]
#100=[#102+0.60533*#101-0.60533*#102]
G01 X15.1063Y15.4471Z[#100+-0.1000]
#102=[#541+0.15244*#528-0.15244*#541]
#101=[#542+0.15244*#529-0.15244*#542]
#100=[#102+0.60657*#101-0.60657*#102]
G01 X15.1129Y15.4552Z[#100+-0.1000]
#102=[#541+0.15069*#528-0.15069*#541]
#101=[#542+0.15069*#529-0.15069*#542]
#100=[#102+0.60763*#101-0.60763*#102]
G01 X15.1186Y15.4640Z[#100+-0.1000]
#102=[#541+0.14882*#528-0.14882*#541]
#101=[#542+0.14882*#529-0.14882*#542]
#100=[#102+0.60853*#101-0.60853*#102]
G01 X15.1234Y15.4734Z[#100+-0.1000]
#102=[#541+0.14688*#528-0.14688*#541]
#101=[#542+0.14688*#529-0.14688*#542]
#100=[#102+0.60922*#101-0.60922*#102]
G01 X15.1271Y15.4831Z[#100+-0.1000]
#102=[#541+0.14487*#528-0.14487*#541]
#101=[#542+0.14487*#529-0.14487*#542]
#100=[#102+0.60972*#101-0.60972*#102]
G01 X15.1298Y15.4932Z[#100+-0.1000]
#102=[#541+0.14280*#528-0.14280*#541]
#101=[#542+0.14280*#529-0.14280*#542]
#100=[#102+0.61004*#101-0.61004*#102]
G01 X15.1315Y15.5036Z[#100+-0.1000]
#102=[#541+0.14073*#528-0.14073*#541]
#101=[#542+0.14073*#529-0.14073*#542]
#100=[#102+0.61014*#101-0.61014*#102]
G01 X15.1320Y15.5140Z[#100+-0.1000]
#102=[#554+0.83191*#541-0.83191*#554]
#101=[#555+0.83191*#542-0.83191*#555]
#100=[#102+0.61014*#101-0.61014*#102]
G01 X15.1320Y17.0640Z[#100+-0.1000]
#102=[#554+0.82984*#541-0.82984*#554]
#101=[#555+0.82984*#542-0.82984*#555]
#100=[#102+0.61004*#101-0.61004*#102]
G01 X15.1315Y17.0744Z[#100+-0.1000]
#102=[#554+0.82776*#541-0.82776*#554]
#101=[#555+0.82776*#542-0.82776*#555]
#100=[#102+0.60972*#101-0.60972*#102]
G01 X15.1298Y17.0848Z[#100+-0.1000]
#102=[#554+0.82575*#541-0.82575*#554]
#101=[#555+0.82575*#542-0.82575*#555]
#100=[#102+0.60922*#101-0.60922*#102]
G01 X15.1271Y17.0949Z[#100+-0.1000]
#102=[#554+0.82382*#541-0.82382*#554]
#101=[#555+0.82382*#542-0.82382*#555]
#100=[#102+0.60853*#101-0.60853*#102]
G01 X15.1234Y17.1046Z[#100+-0.1000]
#102=[#554+0.82195*#541-0.82195*#554]
#101=[#555+0.82195*#542-0.82195*#555]
#100=[#102+0.60763*#101-0.60763*#102]
G01 X15.1186Y17.1140Z[#100+-0.1000]
#102=[#554+0.82019*#541-0.82019*#554]
#101=[#555+0.82019*#542-0.82019*#555]
#100=[#102+0.60657*#101-0.60657*#102]
G01 X15.1129Y17.1228Z[#100+-0.1000]
#102=[#554+0.81858*#541-0.81858*#554]
#101=[#555+0.81858*#542-0.81858*#555]
#100=[#102+0.60533*#101-0.60533*#102]
G01 X15.1063Y17.1309Z[#100+-0.1000]
#102=[#554+0.81711*#541-0.81711*#554]
#101=[#555+0.81711*#542-0.81711*#555]
#100=[#102+0.60395*#101-0.60395*#102]
G01 X15.0989Y17.1383Z[#100+-0.1000]
#102=[#554+0.81579*#541-0.81579*#554]
#101=[#555+0.81579*#542-0.81579*#555]
#100=[#102+0.60244*#101-0.60244*#102]
G01 X15.0908Y17.1449Z[#100+-0.1000]
#102=[#554+0.81465*#541-0.81465*#554]
#101=[#555+0.81465*#542-0.81465*#555]
#100=[#102+0.60079*#101-0.60079*#102]
G01 X15.0820Y17.1506Z[#100+-0.1000]
#102=[#554+0.81370*#541-0.81370*#554]
#101=[#555+0.81370*#542-0.81370*#555]
#100=[#102+0.59904*#101-0.59904*#102]
G01 X15.0726Y17.1554Z[#100+-0.1000]
#102=[#554+0.81296*#541-0.81296*#554]
#101=[#555+0.81296*#542-0.81296*#555]
#100=[#102+0.59722*#101-0.59722*#102]
G01 X15.0629Y17.1591Z[#100+-0.1000]
#102=[#554+0.81242*#541-0.81242*#554]
#101=[#555+0.81242*#542-0.81242*#555]
#100=[#102+0.59534*#101-0.59534*#102]
G01 X15.0528Y17.1618Z[#100+-0.1000]
#102=[#554+0.81208*#541-0.81208*#554]
#101=[#555+0.81208*#542-0.81208*#555]
#100=[#102+0.59339*#101-0.59339*#102]
G01 X15.0424Y17.1635Z[#100+-0.1000]
#102=[#554+0.81198*#541-0.81198*#554]
#101=[#555+0.81198*#542-0.81198*#555]
#100=[#102+0.59145*#101-0.59145*#102]
G01 X15.0320Y17.1640Z[#100+-0.1000]
#102=[#567+0.81579*#554-0.81579*#567]
#101=[#568+0.81579*#555-0.81579*#568]
#100=[#102+0.59145*#101-0.59145*#102]
G01 X15.03200Y22.16400Z[#100+-0.1000] ;segmented line. Max segment length set to 5
#102=[#580+0.81960*#567-0.81960*#580]
#101=[#581+0.81960*#568-0.81960*#581]
#100=[#102+0.59145*#101-0.59145*#102]
G01 X15.03200Y27.16400Z[#100+-0.1000] ;segmented line. Max segment length set to 5
#102=[#593+0.82341*#580-0.82341*#593]
#101=[#594+0.82341*#581-0.82341*#594]
#100=[#102+0.59145*#101-0.59145*#102]
G01 X15.03200Y32.16400Z[#100+-0.1000] ;segmented line. Max segment length set to 5
#102=[#593+0.47520*#580-0.47520*#593]
#101=[#594+0.47520*#581-0.47520*#594]
#100=[#102+0.59145*#101-0.59145*#102]
G01 X15.0320Y33.9117Z[#100+-0.1000]
#102=[#607+0.77078*#594-0.77078*#607]
#101=[#608+0.77078*#595-0.77078*#608]
#100=[#102+0.25207*#101-0.25207*#102]
G01 X18.56753Y37.44723Z[#100+-0.1000] ;segmented line. Max segment length set to 5
#102=[#607+0.67520*#594-0.67520*#607]
#101=[#608+0.67520*#595-0.67520*#608]
#100=[#102+0.34172*#101-0.34172*#102]
G01 X19.0473Y37.9270Z[#100+-0.1000]
#102=[#608+0.67520*#595-0.67520*#608]
#101=[#609+0.67520*#596-0.67520*#609]
#100=[#102+0.27598*#101-0.27598*#102]
G01 X24.04730Y37.92700Z[#100+-0.1000] ;segmented line. Max segment length set to 5
#102=[#609+0.67520*#596-0.67520*#609]
#101=[#610+0.67520*#597-0.67520*#610]
#100=[#102+0.21024*#101-0.21024*#102]
G01 X29.04730Y37.92700Z[#100+-0.1000] ;segmented line. Max segment length set to 5
#102=[#610+0.67520*#597-0.67520*#610]
#101=[#611+0.67520*#598-0.67520*#611]
#100=[#102+0.14450*#101-0.14450*#102]
G01 X34.04730Y37.92700Z[#100+-0.1000] ;segmented line. Max segment length set to 5
#102=[#611+0.67520*#598-0.67520*#611]
#101=[#612+0.67520*#599-0.67520*#612]
#100=[#102+0.07876*#101-0.07876*#102]
G01 X39.04730Y37.92700Z[#100+-0.1000] ;segmented line. Max segment length set to 5
#102=[#612+0.67520*#599-0.67520*#612]
#101=[#613+0.67520*#600-0.67520*#613]
#100=[#102+0.01302*#101-0.01302*#102]
G01 X44.04730Y37.92700Z[#100+-0.1000] ;segmented line. Max segment length set to 5
#102=[#612+0.67520*#599-0.67520*#612]
#101=[#613+0.67520*#600-0.67520*#613]
#100=[#102+0.13623*#101-0.13623*#102]
G01 X44.7067Y37.9270Z[#100+-0.1000]
#102=[#612+0.76671*#599-0.76671*#612]
#101=[#613+0.76671*#600-0.76671*#613]
#100=[#102+0.22205*#101-0.22205*#102]
G01 X45.1660Y37.4677Z[#100+-0.1000]
#102=[#599+0.75505*#586-0.75505*#599]
#101=[#600+0.75505*#587-0.75505*#600]
#100=[#102+0.22207*#101-0.22207*#102]
G01 X45.1661Y32.5071Z[#100+-0.1000]
#102=[#599+0.75997*#586-0.75997*#599]
#101=[#600+0.75997*#587-0.75997*#600]
#100=[#102+0.22233*#101-0.22233*#102]
G01 X45.1675Y32.4824Z[#100+-0.1000]
#102=[#599+0.76617*#586-0.76617*#599]
#101=[#600+0.76617*#587-0.76617*#600]
#100=[#102+0.22321*#101-0.22321*#102]
G01 X45.1722Y32.4513Z[#100+-0.1000]
#102=[#599+0.77137*#586-0.77137*#599]
#101=[#600+0.77137*#587-0.77137*#600]
#100=[#102+0.22444*#101-0.22444*#102]
G01 X45.1788Y32.4252Z[#100+-0.1000]
#102=[#599+0.77603*#586-0.77603*#599]
#101=[#600+0.77603*#587-0.77603*#600]
#100=[#102+0.22599*#101-0.22599*#102]
G01 X45.1871Y32.4018Z[#100+-0.1000]
#102=[#599+0.78310*#586-0.78310*#599]
#101=[#600+0.78310*#587-0.78310*#600]
#100=[#102+0.22911*#101-0.22911*#102]
G01 X45.2038Y32.3663Z[#100+-0.1000]
#102=[#599+0.78727*#586-0.78727*#599]
#101=[#600+0.78727*#587-0.78727*#600]
#100=[#102+0.23148*#101-0.23148*#102]
G01 X45.2165Y32.3454Z[#100+-0.1000]
#102=[#599+0.79121*#586-0.79121*#599]
#101=[#600+0.79121*#587-0.79121*#600]
#100=[#102+0.23421*#101-0.23421*#102]
G01 X45.2311Y32.3256Z[#100+-0.1000]
#102=[#599+0.79633*#586-0.79633*#599]
#101=[#600+0.79633*#587-0.79633*#600]
#100=[#102+0.23847*#101-0.23847*#102]
G01 X45.2539Y32.2999Z[#100+-0.1000]
#102=[#599+0.86351*#586-0.86351*#599]
#101=[#600+0.86351*#587-0.86351*#600]
#100=[#102+0.30146*#101-0.30146*#102]
G01 X45.5910Y31.9627Z[#100+-0.1000]
#102=[#586+0.68212*#573-0.68212*#586]
#101=[#587+0.68212*#574-0.68212*#587]
#100=[#102+0.30146*#101-0.30146*#102]
G01 X45.5910Y27.8540Z[#100+-0.1000]
#102=[#586+0.68701*#573-0.68701*#586]
#101=[#587+0.68701*#574-0.68701*#587]
#100=[#102+0.30167*#101-0.30167*#102]
G01 X45.5921Y27.8295Z[#100+-0.1000]
#102=[#586+0.68990*#573-0.68990*#586]
#101=[#587+0.68990*#574-0.68990*#587]
#100=[#102+0.30196*#101-0.30196*#102]
G01 X45.5937Y27.8150Z[#100+-0.1000]
#102=[#586+0.98756*#573-0.98756*#586]
#101=[#587+0.98756*#574-0.98756*#587]
#100=[#102+0.02281*#101-0.02281*#102]
G01 X44.0997Y26.3210Z[#100+-0.1000]
#102=[#585+0.98756*#572-0.98756*#585]
#101=[#586+0.98756*#573-0.98756*#586]
#100=[#102+0.98998*#101-0.98998*#102]
G01 X43.9240Y26.3210Z[#100+-0.1000]
#102=[#585+0.89790*#572-0.89790*#585]
#101=[#586+0.89790*#573-0.89790*#586]
#100=[#102+0.98998*#101-0.98998*#102]
G01 X43.9240Y26.7710Z[#100+-0.1000]
#102=[#585+0.89583*#572-0.89583*#585]
#101=[#586+0.89583*#573-0.89583*#586]
#100=[#102+0.98988*#101-0.98988*#102]
G01 X43.9235Y26.7814Z[#100+-0.1000]
#102=[#585+0.89376*#572-0.89376*#585]
#101=[#586+0.89376*#573-0.89376*#586]
#100=[#102+0.98957*#101-0.98957*#102]
G01 X43.9218Y26.7918Z[#100+-0.1000]
#102=[#585+0.89174*#572-0.89174*#585]
#101=[#586+0.89174*#573-0.89174*#586]
#100=[#102+0.98906*#101-0.98906*#102]
G01 X43.9191Y26.8019Z[#100+-0.1000]
#102=[#585+0.88981*#572-0.88981*#585]
#101=[#586+0.88981*#573-0.88981*#586]
#100=[#102+0.98837*#101-0.98837*#102]
G01 X43.9154Y26.8116Z[#100+-0.1000]
#102=[#585+0.88794*#572-0.88794*#585]
#101=[#586+0.88794*#573-0.88794*#586]
#100=[#102+0.98747*#101-0.98747*#102]
G01 X43.9106Y26.8210Z[#100+-0.1000]
#102=[#585+0.88619*#572-0.88619*#585]
#101=[#586+0.88619*#573-0.88619*#586]
#100=[#102+0.98641*#101-0.98641*#102]
G01 X43.9049Y26.8298Z[#100+-0.1000]
#102=[#585+0.88457*#572-0.88457*#585]
#101=[#586+0.88457*#573-0.88457*#586]
#100=[#102+0.98518*#101-0.98518*#102]
G01 X43.8983Y26.8379Z[#100+-0.1000]
#102=[#585+0.88310*#572-0.88310*#585]
#101=[#586+0.88310*#573-0.88310*#586]
#100=[#102+0.98379*#101-0.98379*#102]
G01 X43.8909Y26.8453Z[#100+-0.1000]
#102=[#585+0.88178*#572-0.88178*#585]
#101=[#586+0.88178*#573-0.88178*#586]
#100=[#102+0.98228*#101-0.98228*#102]
G01 X43.8828Y26.8519Z[#100+-0.1000]
#102=[#585+0.88065*#572-0.88065*#585]
#101=[#586+0.88065*#573-0.88065*#586]
#100=[#102+0.98063*#101-0.98063*#102]
G01 X43.8740Y26.8576Z[#100+-0.1000]
#102=[#585+0.87969*#572-0.87969*#585]
#101=[#586+0.87969*#573-0.87969*#586]
#100=[#102+0.97888*#101-0.97888*#102]
G01 X43.8646Y26.8624Z[#100+-0.1000]
#102=[#585+0.87895*#572-0.87895*#585]
#101=[#586+0.87895*#573-0.87895*#586]
#100=[#102+0.97707*#101-0.97707*#102]
G01 X43.8549Y26.8661Z[#100+-0.1000]
#102=[#585+0.87841*#572-0.87841*#585]
#101=[#586+0.87841*#573-0.87841*#586]
#100=[#102+0.97518*#101-0.97518*#102]
G01 X43.8448Y26.8688Z[#100+-0.1000]
#102=[#585+0.87808*#572-0.87808*#585]
#101=[#586+0.87808*#573-0.87808*#586]
#100=[#102+0.97324*#101-0.97324*#102]
G01 X43.8344Y26.8705Z[#100+-0.1000]
#102=[#585+0.87798*#572-0.87798*#585]
#101=[#586+0.87798*#573-0.87798*#586]
#100=[#102+0.97129*#101-0.97129*#102]
G01 X43.8240Y26.8710Z[#100+-0.1000]
#102=[#585+0.87798*#572-0.87798*#585]
#101=[#586+0.87798*#573-0.87798*#586]
#100=[#102+0.59759*#101-0.59759*#102]
G01 X41.8240Y26.8710Z[#100+-0.1000]
#102=[#585+0.87808*#572-0.87808*#585]
#101=[#586+0.87808*#573-0.87808*#586]
#100=[#102+0.59564*#101-0.59564*#102]
G01 X41.8136Y26.8705Z[#100+-0.1000]
#102=[#585+0.87841*#572-0.87841*#585]
#101=[#586+0.87841*#573-0.87841*#586]
#100=[#102+0.59370*#101-0.59370*#102]
G01 X41.8032Y26.8688Z[#100+-0.1000]
#102=[#585+0.87895*#572-0.87895*#585]
#101=[#586+0.87895*#573-0.87895*#586]
#100=[#102+0.59181*#101-0.59181*#102]
G01 X41.7931Y26.8661Z[#100+-0.1000]
#102=[#585+0.87969*#572-0.87969*#585]
#101=[#586+0.87969*#573-0.87969*#586]
#100=[#102+0.59000*#101-0.59000*#102]
G01 X41.7834Y26.8624Z[#100+-0.1000]
#102=[#585+0.88065*#572-0.88065*#585]
#101=[#586+0.88065*#573-0.88065*#586]
#100=[#102+0.58825*#101-0.58825*#102]
G01 X41.7740Y26.8576Z[#100+-0.1000]
#102=[#585+0.88178*#572-0.88178*#585]
#101=[#586+0.88178*#573-0.88178*#586]
#100=[#102+0.58660*#101-0.58660*#102]
G01 X41.7652Y26.8519Z[#100+-0.1000]
#102=[#585+0.88310*#572-0.88310*#585]
#101=[#586+0.88310*#573-0.88310*#586]
#100=[#102+0.58509*#101-0.58509*#102]
G01 X41.7571Y26.8453Z[#100+-0.1000]
#102=[#585+0.88457*#572-0.88457*#585]
#101=[#586+0.88457*#573-0.88457*#586]
#100=[#102+0.58371*#101-0.58371*#102]
G01 X41.7497Y26.8379Z[#100+-0.1000]
#102=[#585+0.88619*#572-0.88619*#585]
#101=[#586+0.88619*#573-0.88619*#586]
#100=[#102+0.58247*#101-0.58247*#102]
G01 X41.7431Y26.8298Z[#100+-0.1000]
#102=[#585+0.88794*#572-0.88794*#585]
#101=[#586+0.88794*#573-0.88794*#586]
#100=[#102+0.58141*#101-0.58141*#102]
G01 X41.7374Y26.8210Z[#100+-0.1000]
#102=[#585+0.88981*#572-0.88981*#585]
#101=[#586+0.88981*#573-0.88981*#586]
#100=[#102+0.58051*#101-0.58051*#102]
G01 X41.7326Y26.8116Z[#100+-0.1000]
