(This GCode script was designed to adjust the Z height of a CNC machine according)
(to the minute variations in the surface height in order to achieve a better result in the milling/etching process)
(This script is the output of AutoLevellerAE, 0.9.4u2 Changeset: ...e37a75 @ http://autoleveller.co.uk)
(Author: James Hawthorne PhD. File creation date: 24-08-2018 22:54)
(This program and any of its output is licensed under GPLv2 and as such...)
(AutoLevellerAE comes with ABSOLUTELY NO WARRANTY; for details, see sections 11 and 12 of the GPLv2 @ http://www.gnu.org/licenses/old-licenses/gpl-2.0.html)

(The following is a checklist which can be used before the probe routine starts)
(The checklist may not be entirely correct given your machine, therefore you should make your own adaptations as appropriate)
(1. Make sure wires/clips are attached and the probe is working correctly)
(Test probe connections within control software before starting)
(2. Home all axis)
(3. Load GCode file that contains the probe routine into your software controller)
(4. Jog tool tip close to surface and touch off Z)
(5. Jog Z up a fraction to make sure surface is cleared)
(6. Jog to and touch off X and Y at the desired bottom left corner of the probe area)
(Note: The first probe will touch off Z to 0.0 when it first touches to the surface,)
(all other probe values are relative to this first point)

G90 G21 S20000 G17

M0 (Attach probe wires and clips that need attaching)
(Initialize probe routine)
G0 Z25 (Move clear of the board first)
G1 X1.1773 Y1.175 F600 (Move to bottom left corner)
G0 Z1 (Quick move to probe clearance height)
G38.2 Z-1 F100 (Probe to a maximum of the specified probe height at the specified feed rate)
G92 Z0 (Touch off Z to 0 once contact is made)
G0 Z1 (Move Z to above the contact point)
G38.2 Z-1 F50 (Repeat at a more accurate slower rate)
G92 Z0
G0 Z1

G0 Z1
G1 X1.1773 Y1.175 F600
G38.2 Z-1 F100
#500=#5422
G0 Z1
G1 X6.43706 Y1.175 F600
G38.2 Z-1 F100
#501=#5422
G0 Z1
G1 X11.69682 Y1.175 F600
G38.2 Z-1 F100
#502=#5422
G0 Z1
G1 X16.95658 Y1.175 F600
G38.2 Z-1 F100
#503=#5422
G0 Z1
G1 X22.21634 Y1.175 F600
G38.2 Z-1 F100
#504=#5422
G0 Z1
G1 X27.4761 Y1.175 F600
G38.2 Z-1 F100
#505=#5422
G0 Z1
G1 X32.73586 Y1.175 F600
G38.2 Z-1 F100
#506=#5422
G0 Z1
G1 X37.99562 Y1.175 F600
G38.2 Z-1 F100
#507=#5422
G0 Z1
G1 X43.25538 Y1.175 F600
G38.2 Z-1 F100
#508=#5422
G0 Z1
G1 X48.51514 Y1.175 F600
G38.2 Z-1 F100
#509=#5422
G0 Z1
G1 X53.7749 Y1.175 F600
G38.2 Z-1 F100
#510=#5422
G0 Z1
G1 X59.03466 Y1.175 F600
G38.2 Z-1 F100
#511=#5422
G0 Z1
G1 X64.29442 Y1.175 F600
G38.2 Z-1 F100
#512=#5422
G0 Z1
G1 X69.55418 Y1.175 F600
G38.2 Z-1 F100
#513=#5422
G0 Z1
G1 X74.81394 Y1.175 F600
G38.2 Z-1 F100
#514=#5422
G0 Z1
G1 X80.0737 Y1.175 F600
G38.2 Z-1 F100
#515=#5422
G0 Z1
G1 X85.33346 Y1.175 F600
G38.2 Z-1 F100
#516=#5422
G0 Z1
G1 X90.59322 Y1.175 F600
G38.2 Z-1 F100
#517=#5422
G0 Z1
G1 X95.85298 Y1.175 F600
G38.2 Z-1 F100
#518=#5422
G0 Z1
G1 X95.85298 Y6.2084 F600
G38.2 Z-1 F100
#537=#5422
G0 Z1
G1 X90.59322 Y6.2084 F600
G38.2 Z-1 F100
#536=#5422
G0 Z1
G1 X85.33346 Y6.2084 F600
G38.2 Z-1 F100
#535=#5422
G0 Z1
G1 X80.0737 Y6.2084 F600
G38.2 Z-1 F100
#534=#5422
G0 Z1
G1 X74.81394 Y6.2084 F600
G38.2 Z-1 F100
#533=#5422
G0 Z1
G1 X69.55418 Y6.2084 F600
G38.2 Z-1 F100
#532=#5422
G0 Z1
G1 X64.29442 Y6.2084 F600
G38.2 Z-1 F100
#531=#5422
G0 Z1
G1 X59.03466 Y6.2084 F600
G38.2 Z-1 F100
#530=#5422
G0 Z1
G1 X53.7749 Y6.2084 F600
G38.2 Z-1 F100
#529=#5422
G0 Z1
G1 X48.51514 Y6.2084 F600
G38.2 Z-1 F100
#528=#5422
G0 Z1
G1 X43.25538 Y6.2084 F600
G38.2 Z-1 F100
#527=#5422
G0 Z1
G1 X37.99562 Y6.2084 F600
G38.2 Z-1 F100
#526=#5422
G0 Z1
G1 X32.73586 Y6.2084 F600
G38.2 Z-1 F100
#525=#5422
G0 Z1
G1 X27.4761 Y6.2084 F600
G38.2 Z-1 F100
#524=#5422
G0 Z1
G1 X22.21634 Y6.2084 F600
G38.2 Z-1 F100
#523=#5422
G0 Z1
G1 X16.95658 Y6.2084 F600
G38.2 Z-1 F100
#522=#5422
G0 Z1
G1 X11.69682 Y6.2084 F600
G38.2 Z-1 F100
#521=#5422
G0 Z1
G1 X6.43706 Y6.2084 F600
G38.2 Z-1 F100
#520=#5422
G0 Z1
G1 X1.1773 Y6.2084 F600
G38.2 Z-1 F100
#519=#5422
G0 Z1
G1 X1.1773 Y11.2418 F600
G38.2 Z-1 F100
#538=#5422
G0 Z1
G1 X6.43706 Y11.2418 F600
G38.2 Z-1 F100
#539=#5422
G0 Z1
G1 X11.69682 Y11.2418 F600
G38.2 Z-1 F100
#540=#5422
G0 Z1
G1 X16.95658 Y11.2418 F600
G38.2 Z-1 F100
#541=#5422
G0 Z1
G1 X22.21634 Y11.2418 F600
G38.2 Z-1 F100
#542=#5422
G0 Z1
G1 X27.4761 Y11.2418 F600
G38.2 Z-1 F100
#543=#5422
G0 Z1
G1 X32.73586 Y11.2418 F600
G38.2 Z-1 F100
#544=#5422
G0 Z1
G1 X37.99562 Y11.2418 F600
G38.2 Z-1 F100
#545=#5422
G0 Z1
G1 X43.25538 Y11.2418 F600
G38.2 Z-1 F100
#546=#5422
G0 Z1
G1 X48.51514 Y11.2418 F600
G38.2 Z-1 F100
#547=#5422
G0 Z1
G1 X53.7749 Y11.2418 F600
G38.2 Z-1 F100
#548=#5422
G0 Z1
G1 X59.03466 Y11.2418 F600
G38.2 Z-1 F100
#549=#5422
G0 Z1
G1 X64.29442 Y11.2418 F600
G38.2 Z-1 F100
#550=#5422
G0 Z1
G1 X69.55418 Y11.2418 F600
G38.2 Z-1 F100
#551=#5422
G0 Z1
G1 X74.81394 Y11.2418 F600
G38.2 Z-1 F100
#552=#5422
G0 Z1
G1 X80.0737 Y11.2418 F600
G38.2 Z-1 F100
#553=#5422
G0 Z1
G1 X85.33346 Y11.2418 F600
G38.2 Z-1 F100
#554=#5422
G0 Z1
G1 X90.59322 Y11.2418 F600
G38.2 Z-1 F100
#555=#5422
G0 Z1
G1 X95.85298 Y11.2418 F600
G38.2 Z-1 F100
#556=#5422
G0 Z1
G1 X95.85298 Y16.2752 F600
G38.2 Z-1 F100
#575=#5422
G0 Z1
G1 X90.59322 Y16.2752 F600
G38.2 Z-1 F100
#574=#5422
G0 Z1
G1 X85.33346 Y16.2752 F600
G38.2 Z-1 F100
#573=#5422
G0 Z1
G1 X80.0737 Y16.2752 F600
G38.2 Z-1 F100
#572=#5422
G0 Z1
G1 X74.81394 Y16.2752 F600
G38.2 Z-1 F100
#571=#5422
G0 Z1
G1 X69.55418 Y16.2752 F600
G38.2 Z-1 F100
#570=#5422
G0 Z1
G1 X64.29442 Y16.2752 F600
G38.2 Z-1 F100
#569=#5422
G0 Z1
G1 X59.03466 Y16.2752 F600
G38.2 Z-1 F100
#568=#5422
G0 Z1
G1 X53.7749 Y16.2752 F600
G38.2 Z-1 F100
#567=#5422
G0 Z1
G1 X48.51514 Y16.2752 F600
G38.2 Z-1 F100
#566=#5422
G0 Z1
G1 X43.25538 Y16.2752 F600
G38.2 Z-1 F100
#565=#5422
G0 Z1
G1 X37.99562 Y16.2752 F600
G38.2 Z-1 F100
#564=#5422
G0 Z1
G1 X32.73586 Y16.2752 F600
G38.2 Z-1 F100
#563=#5422
G0 Z1
G1 X27.4761 Y16.2752 F600
G38.2 Z-1 F100
#562=#5422
G0 Z1
G1 X22.21634 Y16.2752 F600
G38.2 Z-1 F100
#561=#5422
G0 Z1
G1 X16.95658 Y16.2752 F600
G38.2 Z-1 F100
#560=#5422
G0 Z1
G1 X11.69682 Y16.2752 F600
G38.2 Z-1 F100
#559=#5422
G0 Z1
G1 X6.43706 Y16.2752 F600
G38.2 Z-1 F100
#558=#5422
G0 Z1
G1 X1.1773 Y16.2752 F600
G38.2 Z-1 F100
#557=#5422
G0 Z1
G1 X1.1773 Y21.3086 F600
G38.2 Z-1 F100
#576=#5422
G0 Z1
G1 X6.43706 Y21.3086 F600
G38.2 Z-1 F100
#577=#5422
G0 Z1
G1 X11.69682 Y21.3086 F600
G38.2 Z-1 F100
#578=#5422
G0 Z1
G1 X16.95658 Y21.3086 F600
G38.2 Z-1 F100
#579=#5422
G0 Z1
G1 X22.21634 Y21.3086 F600
G38.2 Z-1 F100
#580=#5422
G0 Z1
G1 X27.4761 Y21.3086 F600
G38.2 Z-1 F100
#581=#5422
G0 Z1
G1 X32.73586 Y21.3086 F600
G38.2 Z-1 F100
#582=#5422
G0 Z1
G1 X37.99562 Y21.3086 F600
G38.2 Z-1 F100
#583=#5422
G0 Z1
G1 X43.25538 Y21.3086 F600
G38.2 Z-1 F100
#584=#5422
G0 Z1
G1 X48.51514 Y21.3086 F600
G38.2 Z-1 F100
#585=#5422
G0 Z1
G1 X53.7749 Y21.3086 F600
G38.2 Z-1 F100
#586=#5422
G0 Z1
G1 X59.03466 Y21.3086 F600
G38.2 Z-1 F100
#587=#5422
G0 Z1
G1 X64.29442 Y21.3086 F600
G38.2 Z-1 F100
#588=#5422
G0 Z1
G1 X69.55418 Y21.3086 F600
G38.2 Z-1 F100
#589=#5422
G0 Z1
G1 X74.81394 Y21.3086 F600
G38.2 Z-1 F100
#590=#5422
G0 Z1
G1 X80.0737 Y21.3086 F600
G38.2 Z-1 F100
#591=#5422
G0 Z1
G1 X85.33346 Y21.3086 F600
G38.2 Z-1 F100
#592=#5422
G0 Z1
G1 X90.59322 Y21.3086 F600
G38.2 Z-1 F100
#593=#5422
G0 Z1
G1 X95.85298 Y21.3086 F600
G38.2 Z-1 F100
#594=#5422
G0 Z1
G1 X95.85298 Y26.342 F600
G38.2 Z-1 F100
#613=#5422
G0 Z1
G1 X90.59322 Y26.342 F600
G38.2 Z-1 F100
#612=#5422
G0 Z1
G1 X85.33346 Y26.342 F600
G38.2 Z-1 F100
#611=#5422
G0 Z1
G1 X80.0737 Y26.342 F600
G38.2 Z-1 F100
#610=#5422
G0 Z1
G1 X74.81394 Y26.342 F600
G38.2 Z-1 F100
#609=#5422
G0 Z1
G1 X69.55418 Y26.342 F600
G38.2 Z-1 F100
#608=#5422
G0 Z1
G1 X64.29442 Y26.342 F600
G38.2 Z-1 F100
#607=#5422
G0 Z1
G1 X59.03466 Y26.342 F600
G38.2 Z-1 F100
#606=#5422
G0 Z1
G1 X53.7749 Y26.342 F600
G38.2 Z-1 F100
#605=#5422
G0 Z1
G1 X48.51514 Y26.342 F600
G38.2 Z-1 F100
#604=#5422
G0 Z1
G1 X43.25538 Y26.342 F600
G38.2 Z-1 F100
#603=#5422
G0 Z1
G1 X37.99562 Y26.342 F600
G38.2 Z-1 F100
#602=#5422
G0 Z1
G1 X32.73586 Y26.342 F600
G38.2 Z-1 F100
#601=#5422
G0 Z1
G1 X27.4761 Y26.342 F600
G38.2 Z-1 F100
#600=#5422
G0 Z1
G1 X22.21634 Y26.342 F600
G38.2 Z-1 F100
#599=#5422
G0 Z1
G1 X16.95658 Y26.342 F600
G38.2 Z-1 F100
#598=#5422
G0 Z1
G1 X11.69682 Y26.342 F600
G38.2 Z-1 F100
#597=#5422
G0 Z1
G1 X6.43706 Y26.342 F600
G38.2 Z-1 F100
#596=#5422
G0 Z1
G1 X1.1773 Y26.342 F600
G38.2 Z-1 F100
#595=#5422
G0 Z1
G1 X1.1773 Y31.3754 F600
G38.2 Z-1 F100
#614=#5422
G0 Z1
G1 X6.43706 Y31.3754 F600
G38.2 Z-1 F100
#615=#5422
G0 Z1
G1 X11.69682 Y31.3754 F600
G38.2 Z-1 F100
#616=#5422
G0 Z1
G1 X16.95658 Y31.3754 F600
G38.2 Z-1 F100
#617=#5422
G0 Z1
G1 X22.21634 Y31.3754 F600
G38.2 Z-1 F100
#618=#5422
G0 Z1
G1 X27.4761 Y31.3754 F600
G38.2 Z-1 F100
#619=#5422
G0 Z1
G1 X32.73586 Y31.3754 F600
G38.2 Z-1 F100
#620=#5422
G0 Z1
G1 X37.99562 Y31.3754 F600
G38.2 Z-1 F100
#621=#5422
G0 Z1
G1 X43.25538 Y31.3754 F600
G38.2 Z-1 F100
#622=#5422
G0 Z1
G1 X48.51514 Y31.3754 F600
G38.2 Z-1 F100
#623=#5422
G0 Z1
G1 X53.7749 Y31.3754 F600
G38.2 Z-1 F100
#624=#5422
G0 Z1
G1 X59.03466 Y31.3754 F600
G38.2 Z-1 F100
#625=#5422
G0 Z1
G1 X64.29442 Y31.3754 F600
G38.2 Z-1 F100
#626=#5422
G0 Z1
G1 X69.55418 Y31.3754 F600
G38.2 Z-1 F100
#627=#5422
G0 Z1
G1 X74.81394 Y31.3754 F600
G38.2 Z-1 F100
#628=#5422
G0 Z1
G1 X80.0737 Y31.3754 F600
G38.2 Z-1 F100
#629=#5422
G0 Z1
G1 X85.33346 Y31.3754 F600
G38.2 Z-1 F100
#630=#5422
G0 Z1
G1 X90.59322 Y31.3754 F600
G38.2 Z-1 F100
#631=#5422
G0 Z1
G1 X95.85298 Y31.3754 F600
G38.2 Z-1 F100
#632=#5422
G0 Z1
G1 X95.85298 Y36.4088 F600
G38.2 Z-1 F100
#651=#5422
G0 Z1
G1 X90.59322 Y36.4088 F600
G38.2 Z-1 F100
#650=#5422
G0 Z1
G1 X85.33346 Y36.4088 F600
G38.2 Z-1 F100
#649=#5422
G0 Z1
G1 X80.0737 Y36.4088 F600
G38.2 Z-1 F100
#648=#5422
G0 Z1
G1 X74.81394 Y36.4088 F600
G38.2 Z-1 F100
#647=#5422
G0 Z1
G1 X69.55418 Y36.4088 F600
G38.2 Z-1 F100
#646=#5422
G0 Z1
G1 X64.29442 Y36.4088 F600
G38.2 Z-1 F100
#645=#5422
G0 Z1
G1 X59.03466 Y36.4088 F600
G38.2 Z-1 F100
#644=#5422
G0 Z1
G1 X53.7749 Y36.4088 F600
G38.2 Z-1 F100
#643=#5422
G0 Z1
G1 X48.51514 Y36.4088 F600
G38.2 Z-1 F100
#642=#5422
G0 Z1
G1 X43.25538 Y36.4088 F600
G38.2 Z-1 F100
#641=#5422
G0 Z1
G1 X37.99562 Y36.4088 F600
G38.2 Z-1 F100
#640=#5422
G0 Z1
G1 X32.73586 Y36.4088 F600
G38.2 Z-1 F100
#639=#5422
G0 Z1
G1 X27.4761 Y36.4088 F600
G38.2 Z-1 F100
#638=#5422
G0 Z1
G1 X22.21634 Y36.4088 F600
G38.2 Z-1 F100
#637=#5422
G0 Z1
G1 X16.95658 Y36.4088 F600
G38.2 Z-1 F100
#636=#5422
G0 Z1
G1 X11.69682 Y36.4088 F600
G38.2 Z-1 F100
#635=#5422
G0 Z1
G1 X6.43706 Y36.4088 F600
G38.2 Z-1 F100
#634=#5422
G0 Z1
G1 X1.1773 Y36.4088 F600
G38.2 Z-1 F100
#633=#5422
G0 Z1
G1 X1.1773 Y41.4422 F600
G38.2 Z-1 F100
#652=#5422
G0 Z1
G1 X6.43706 Y41.4422 F600
G38.2 Z-1 F100
#653=#5422
G0 Z1
G1 X11.69682 Y41.4422 F600
G38.2 Z-1 F100
#654=#5422
G0 Z1
G1 X16.95658 Y41.4422 F600
G38.2 Z-1 F100
#655=#5422
G0 Z1
G1 X22.21634 Y41.4422 F600
G38.2 Z-1 F100
#656=#5422
G0 Z1
G1 X27.4761 Y41.4422 F600
G38.2 Z-1 F100
#657=#5422
G0 Z1
G1 X32.73586 Y41.4422 F600
G38.2 Z-1 F100
#658=#5422
G0 Z1
G1 X37.99562 Y41.4422 F600
G38.2 Z-1 F100
#659=#5422
G0 Z1
G1 X43.25538 Y41.4422 F600
G38.2 Z-1 F100
#660=#5422
G0 Z1
G1 X48.51514 Y41.4422 F600
G38.2 Z-1 F100
#661=#5422
G0 Z1
G1 X53.7749 Y41.4422 F600
G38.2 Z-1 F100
#662=#5422
G0 Z1
G1 X59.03466 Y41.4422 F600
G38.2 Z-1 F100
#663=#5422
G0 Z1
G1 X64.29442 Y41.4422 F600
G38.2 Z-1 F100
#664=#5422
G0 Z1
G1 X69.55418 Y41.4422 F600
G38.2 Z-1 F100
#665=#5422
G0 Z1
G1 X74.81394 Y41.4422 F600
G38.2 Z-1 F100
#666=#5422
G0 Z1
G1 X80.0737 Y41.4422 F600
G38.2 Z-1 F100
#667=#5422
G0 Z1
G1 X85.33346 Y41.4422 F600
G38.2 Z-1 F100
#668=#5422
G0 Z1
G1 X90.59322 Y41.4422 F600
G38.2 Z-1 F100
#669=#5422
G0 Z1
G1 X95.85298 Y41.4422 F600
G38.2 Z-1 F100
#670=#5422
G0 Z1
G1 X95.85298 Y46.4756 F600
G38.2 Z-1 F100
#689=#5422
G0 Z1
G1 X90.59322 Y46.4756 F600
G38.2 Z-1 F100
#688=#5422
G0 Z1
G1 X85.33346 Y46.4756 F600
G38.2 Z-1 F100
#687=#5422
G0 Z1
G1 X80.0737 Y46.4756 F600
G38.2 Z-1 F100
#686=#5422
G0 Z1
G1 X74.81394 Y46.4756 F600
G38.2 Z-1 F100
#685=#5422
G0 Z1
G1 X69.55418 Y46.4756 F600
G38.2 Z-1 F100
#684=#5422
G0 Z1
G1 X64.29442 Y46.4756 F600
G38.2 Z-1 F100
#683=#5422
G0 Z1
G1 X59.03466 Y46.4756 F600
G38.2 Z-1 F100
#682=#5422
G0 Z1
G1 X53.7749 Y46.4756 F600
G38.2 Z-1 F100
#681=#5422
G0 Z1
G1 X48.51514 Y46.4756 F600
G38.2 Z-1 F100
#680=#5422
G0 Z1
G1 X43.25538 Y46.4756 F600
G38.2 Z-1 F100
#679=#5422
G0 Z1
G1 X37.99562 Y46.4756 F600
G38.2 Z-1 F100
#678=#5422
G0 Z1
G1 X32.73586 Y46.4756 F600
G38.2 Z-1 F100
#677=#5422
G0 Z1
G1 X27.4761 Y46.4756 F600
G38.2 Z-1 F100
#676=#5422
G0 Z1
G1 X22.21634 Y46.4756 F600
G38.2 Z-1 F100
#675=#5422
G0 Z1
G1 X16.95658 Y46.4756 F600
G38.2 Z-1 F100
#674=#5422
G0 Z1
G1 X11.69682 Y46.4756 F600
G38.2 Z-1 F100
#673=#5422
G0 Z1
G1 X6.43706 Y46.4756 F600
G38.2 Z-1 F100
#672=#5422
G0 Z1
G1 X1.1773 Y46.4756 F600
G38.2 Z-1 F100
#671=#5422
G0 Z1
G1 X1.1773 Y51.509 F600
G38.2 Z-1 F100
#690=#5422
G0 Z1
G1 X6.43706 Y51.509 F600
G38.2 Z-1 F100
#691=#5422
G0 Z1
G1 X11.69682 Y51.509 F600
G38.2 Z-1 F100
#692=#5422
G0 Z1
G1 X16.95658 Y51.509 F600
G38.2 Z-1 F100
#693=#5422
G0 Z1
G1 X22.21634 Y51.509 F600
G38.2 Z-1 F100
#694=#5422
G0 Z1
G1 X27.4761 Y51.509 F600
G38.2 Z-1 F100
#695=#5422
G0 Z1
G1 X32.73586 Y51.509 F600
G38.2 Z-1 F100
#696=#5422
G0 Z1
G1 X37.99562 Y51.509 F600
G38.2 Z-1 F100
#697=#5422
G0 Z1
G1 X43.25538 Y51.509 F600
G38.2 Z-1 F100
#698=#5422
G0 Z1
G1 X48.51514 Y51.509 F600
G38.2 Z-1 F100
#699=#5422
G0 Z1
G1 X53.7749 Y51.509 F600
G38.2 Z-1 F100
#700=#5422
G0 Z1
G1 X59.03466 Y51.509 F600
G38.2 Z-1 F100
#701=#5422
G0 Z1
G1 X64.29442 Y51.509 F600
G38.2 Z-1 F100
#702=#5422
G0 Z1
G1 X69.55418 Y51.509 F600
G38.2 Z-1 F100
#703=#5422
G0 Z1
G1 X74.81394 Y51.509 F600
G38.2 Z-1 F100
#704=#5422
G0 Z1
G1 X80.0737 Y51.509 F600
G38.2 Z-1 F100
#705=#5422
G0 Z1
G1 X85.33346 Y51.509 F600
G38.2 Z-1 F100
#706=#5422
G0 Z1
G1 X90.59322 Y51.509 F600
G38.2 Z-1 F100
#707=#5422
G0 Z1
G1 X95.85298 Y51.509 F600
G38.2 Z-1 F100
#708=#5422
G0 Z1
G1 X95.85298 Y56.5424 F600
G38.2 Z-1 F100
#727=#5422
G0 Z1
G1 X90.59322 Y56.5424 F600
G38.2 Z-1 F100
#726=#5422
G0 Z1
G1 X85.33346 Y56.5424 F600
G38.2 Z-1 F100
#725=#5422
G0 Z1
G1 X80.0737 Y56.5424 F600
G38.2 Z-1 F100
#724=#5422
G0 Z1
G1 X74.81394 Y56.5424 F600
G38.2 Z-1 F100
#723=#5422
G0 Z1
G1 X69.55418 Y56.5424 F600
G38.2 Z-1 F100
#722=#5422
G0 Z1
G1 X64.29442 Y56.5424 F600
G38.2 Z-1 F100
#721=#5422
G0 Z1
G1 X59.03466 Y56.5424 F600
G38.2 Z-1 F100
#720=#5422
G0 Z1
G1 X53.7749 Y56.5424 F600
G38.2 Z-1 F100
#719=#5422
G0 Z1
G1 X48.51514 Y56.5424 F600
G38.2 Z-1 F100
#718=#5422
G0 Z1
G1 X43.25538 Y56.5424 F600
G38.2 Z-1 F100
#717=#5422
G0 Z1
G1 X37.99562 Y56.5424 F600
G38.2 Z-1 F100
#716=#5422
G0 Z1
G1 X32.73586 Y56.5424 F600
G38.2 Z-1 F100
#715=#5422
G0 Z1
G1 X27.4761 Y56.5424 F600
G38.2 Z-1 F100
#714=#5422
G0 Z1
G1 X22.21634 Y56.5424 F600
G38.2 Z-1 F100
#713=#5422
G0 Z1
G1 X16.95658 Y56.5424 F600
G38.2 Z-1 F100
#712=#5422
G0 Z1
G1 X11.69682 Y56.5424 F600
G38.2 Z-1 F100
#711=#5422
G0 Z1
G1 X6.43706 Y56.5424 F600
G38.2 Z-1 F100
#710=#5422
G0 Z1
G1 X1.1773 Y56.5424 F600
G38.2 Z-1 F100
#709=#5422
G0 Z1
G1 X1.1773 Y61.5758 F600
G38.2 Z-1 F100
#728=#5422
G0 Z1
G1 X6.43706 Y61.5758 F600
G38.2 Z-1 F100
#729=#5422
G0 Z1
G1 X11.69682 Y61.5758 F600
G38.2 Z-1 F100
#730=#5422
G0 Z1
G1 X16.95658 Y61.5758 F600
G38.2 Z-1 F100
#731=#5422
G0 Z1
G1 X22.21634 Y61.5758 F600
G38.2 Z-1 F100
#732=#5422
G0 Z1
G1 X27.4761 Y61.5758 F600
G38.2 Z-1 F100
#733=#5422
G0 Z1
G1 X32.73586 Y61.5758 F600
G38.2 Z-1 F100
#734=#5422
G0 Z1
G1 X37.99562 Y61.5758 F600
G38.2 Z-1 F100
#735=#5422
G0 Z1
G1 X43.25538 Y61.5758 F600
G38.2 Z-1 F100
#736=#5422
G0 Z1
G1 X48.51514 Y61.5758 F600
G38.2 Z-1 F100
#737=#5422
G0 Z1
G1 X53.7749 Y61.5758 F600
G38.2 Z-1 F100
#738=#5422
G0 Z1
G1 X59.03466 Y61.5758 F600
G38.2 Z-1 F100
#739=#5422
G0 Z1
G1 X64.29442 Y61.5758 F600
G38.2 Z-1 F100
#740=#5422
G0 Z1
G1 X69.55418 Y61.5758 F600
G38.2 Z-1 F100
#741=#5422
G0 Z1
G1 X74.81394 Y61.5758 F600
G38.2 Z-1 F100
#742=#5422
G0 Z1
G1 X80.0737 Y61.5758 F600
G38.2 Z-1 F100
#743=#5422
G0 Z1
G1 X85.33346 Y61.5758 F600
G38.2 Z-1 F100
#744=#5422
G0 Z1
G1 X90.59322 Y61.5758 F600
G38.2 Z-1 F100
#745=#5422
G0 Z1
G1 X95.85298 Y61.5758 F600
G38.2 Z-1 F100
#746=#5422
G0 Z1
G1 X95.85298 Y66.6092 F600
G38.2 Z-1 F100
#765=#5422
G0 Z1
G1 X90.59322 Y66.6092 F600
G38.2 Z-1 F100
#764=#5422
G0 Z1
G1 X85.33346 Y66.6092 F600
G38.2 Z-1 F100
#763=#5422
G0 Z1
G1 X80.0737 Y66.6092 F600
G38.2 Z-1 F100
#762=#5422
G0 Z1
G1 X74.81394 Y66.6092 F600
G38.2 Z-1 F100
#761=#5422
G0 Z1
G1 X69.55418 Y66.6092 F600
G38.2 Z-1 F100
#760=#5422
G0 Z1
G1 X64.29442 Y66.6092 F600
G38.2 Z-1 F100
#759=#5422
G0 Z1
G1 X59.03466 Y66.6092 F600
G38.2 Z-1 F100
#758=#5422
G0 Z1
G1 X53.7749 Y66.6092 F600
G38.2 Z-1 F100
#757=#5422
G0 Z1
G1 X48.51514 Y66.6092 F600
G38.2 Z-1 F100
#756=#5422
G0 Z1
G1 X43.25538 Y66.6092 F600
G38.2 Z-1 F100
#755=#5422
G0 Z1
G1 X37.99562 Y66.6092 F600
G38.2 Z-1 F100
#754=#5422
G0 Z1
G1 X32.73586 Y66.6092 F600
G38.2 Z-1 F100
#753=#5422
G0 Z1
G1 X27.4761 Y66.6092 F600
G38.2 Z-1 F100
#752=#5422
G0 Z1
G1 X22.21634 Y66.6092 F600
G38.2 Z-1 F100
#751=#5422
G0 Z1
G1 X16.95658 Y66.6092 F600
G38.2 Z-1 F100
#750=#5422
G0 Z1
G1 X11.69682 Y66.6092 F600
G38.2 Z-1 F100
#749=#5422
G0 Z1
G1 X6.43706 Y66.6092 F600
G38.2 Z-1 F100
#748=#5422
G0 Z1
G1 X1.1773 Y66.6092 F600
G38.2 Z-1 F100
#747=#5422
G0 Z1
G1 X1.1773 Y71.6426 F600
G38.2 Z-1 F100
#766=#5422
G0 Z1
G1 X6.43706 Y71.6426 F600
G38.2 Z-1 F100
#767=#5422
G0 Z1
G1 X11.69682 Y71.6426 F600
G38.2 Z-1 F100
#768=#5422
G0 Z1
G1 X16.95658 Y71.6426 F600
G38.2 Z-1 F100
#769=#5422
G0 Z1
G1 X22.21634 Y71.6426 F600
G38.2 Z-1 F100
#770=#5422
G0 Z1
G1 X27.4761 Y71.6426 F600
G38.2 Z-1 F100
#771=#5422
G0 Z1
G1 X32.73586 Y71.6426 F600
G38.2 Z-1 F100
#772=#5422
G0 Z1
G1 X37.99562 Y71.6426 F600
G38.2 Z-1 F100
#773=#5422
G0 Z1
G1 X43.25538 Y71.6426 F600
G38.2 Z-1 F100
#774=#5422
G0 Z1
G1 X48.51514 Y71.6426 F600
G38.2 Z-1 F100
#775=#5422
G0 Z1
G1 X53.7749 Y71.6426 F600
G38.2 Z-1 F100
#776=#5422
G0 Z1
G1 X59.03466 Y71.6426 F600
G38.2 Z-1 F100
#777=#5422
G0 Z1
G1 X64.29442 Y71.6426 F600
G38.2 Z-1 F100
#778=#5422
G0 Z1
G1 X69.55418 Y71.6426 F600
G38.2 Z-1 F100
#779=#5422
G0 Z1
G1 X74.81394 Y71.6426 F600
G38.2 Z-1 F100
#780=#5422
G0 Z1
G1 X80.0737 Y71.6426 F600
G38.2 Z-1 F100
#781=#5422
G0 Z1
G1 X85.33346 Y71.6426 F600
G38.2 Z-1 F100
#782=#5422
G0 Z1
G1 X90.59322 Y71.6426 F600
G38.2 Z-1 F100
#783=#5422
G0 Z1
G1 X95.85298 Y71.6426 F600
G38.2 Z-1 F100
#784=#5422
G0 Z1
G1 X95.85298 Y76.676 F600
G38.2 Z-1 F100
#803=#5422
G0 Z1
G1 X90.59322 Y76.676 F600
G38.2 Z-1 F100
#802=#5422
G0 Z1
G1 X85.33346 Y76.676 F600
G38.2 Z-1 F100
#801=#5422
G0 Z1
G1 X80.0737 Y76.676 F600
G38.2 Z-1 F100
#800=#5422
G0 Z1
G1 X74.81394 Y76.676 F600
G38.2 Z-1 F100
#799=#5422
G0 Z1
G1 X69.55418 Y76.676 F600
G38.2 Z-1 F100
#798=#5422
G0 Z1
G1 X64.29442 Y76.676 F600
G38.2 Z-1 F100
#797=#5422
G0 Z1
G1 X59.03466 Y76.676 F600
G38.2 Z-1 F100
#796=#5422
G0 Z1
G1 X53.7749 Y76.676 F600
G38.2 Z-1 F100
#795=#5422
G0 Z1
G1 X48.51514 Y76.676 F600
G38.2 Z-1 F100
#794=#5422
G0 Z1
G1 X43.25538 Y76.676 F600
G38.2 Z-1 F100
#793=#5422
G0 Z1
G1 X37.99562 Y76.676 F600
G38.2 Z-1 F100
#792=#5422
G0 Z1
G1 X32.73586 Y76.676 F600
G38.2 Z-1 F100
#791=#5422
G0 Z1
G1 X27.4761 Y76.676 F600
G38.2 Z-1 F100
#790=#5422
G0 Z1
G1 X22.21634 Y76.676 F600
G38.2 Z-1 F100
#789=#5422
G0 Z1
G1 X16.95658 Y76.676 F600
G38.2 Z-1 F100
#788=#5422
G0 Z1
G1 X11.69682 Y76.676 F600
G38.2 Z-1 F100
#787=#5422
G0 Z1
G1 X6.43706 Y76.676 F600
G38.2 Z-1 F100
#786=#5422
G0 Z1
G1 X1.1773 Y76.676 F600
G38.2 Z-1 F100
#785=#5422
G0 Z1.00000

M0 (Detach any clips used for probing)

G94 ( Millimeters per minute feed rate. )
G21 ( Units == Millimeters. )

G90 ( Absolute coordinates. )
G64 P0.01000 ( set maximum deviation from commanded toolpath )
G21
G90
G94
G21
G90
G94
F400.00
G00 Z1.0000
M03 S18000
G4 P1
G00 X0.2104Y0.5256
#102=[#500+0*#500-0*#500]
#101=[#500+0*#500-0*#500]
#100=[#102+0*#101-0*#102]
G01 Z[#100+-0.1000]
#102=[#500+0*#500-0*#500]
#101=[#500+0*#500-0*#500]
#100=[#102+0*#101-0*#102]
G01 X0.2000Y0.5557Z[#100+-0.1000]
#102=[#500+0*#500-0*#500]
#101=[#500+0*#500-0*#500]
#100=[#102+0*#101-0*#102]
G01 X0.1920Y0.5861Z[#100+-0.1000]
#102=[#500+0*#500-0*#500]
#101=[#500+0*#500-0*#500]
#100=[#102+0*#101-0*#102]
G01 X0.1874Y0.6067Z[#100+-0.1000]
#102=[#500+0*#500-0*#500]
#101=[#500+0*#500-0*#500]
#100=[#102+0*#101-0*#102]
G01 X0.1823Y0.6377Z[#100+-0.1000]
#102=[#500+0*#500-0*#500]
#101=[#500+0*#500-0*#500]
#100=[#102+0*#101-0*#102]
G01 X0.1798Y0.6586Z[#100+-0.1000]
#102=[#500+0*#500-0*#500]
#101=[#500+0*#500-0*#500]
#100=[#102+0*#101-0*#102]
G01 X0.1778Y0.6900Z[#100+-0.1000]
#102=[#500+0*#500-0*#500]
#101=[#500+0*#500-0*#500]
#100=[#102+0*#101-0*#102]
G01 X0.1773Y0.7117Z[#100+-0.1000]
#102=[#519+0.09869*#500-0.09869*#519]
#101=[#519+0.09869*#500-0.09869*#519]
#100=[#102+0*#101-0*#102]
G01 X0.19362Y5.71167Z[#100+-0.1000] ;segmented line. Max segment length set to 5
#102=[#538+0.10533*#519-0.10533*#538]
#101=[#538+0.10533*#519-0.10533*#538]
#100=[#102+0*#101-0*#102]
G01 X0.20993Y10.71164Z[#100+-0.1000] ;segmented line. Max segment length set to 5
#102=[#557+0.11197*#538-0.11197*#557]
#101=[#557+0.11197*#538-0.11197*#557]
#100=[#102+0*#101-0*#102]
G01 X0.22625Y15.71161Z[#100+-0.1000] ;segmented line. Max segment length set to 5
#102=[#576+0.11861*#557-0.11861*#576]
#101=[#576+0.11861*#557-0.11861*#576]
#100=[#102+0*#101-0*#102]
G01 X0.24256Y20.71158Z[#100+-0.1000] ;segmented line. Max segment length set to 5
#102=[#595+0.12525*#576-0.12525*#595]
#101=[#595+0.12525*#576-0.12525*#595]
#100=[#102+0*#101-0*#102]
G01 X0.25888Y25.71155Z[#100+-0.1000] ;segmented line. Max segment length set to 5
#102=[#614+0.13189*#595-0.13189*#614]
#101=[#614+0.13189*#595-0.13189*#614]
#100=[#102+0*#101-0*#102]
G01 X0.27519Y30.71152Z[#100+-0.1000] ;segmented line. Max segment length set to 5
#102=[#633+0.13854*#614-0.13854*#633]
#101=[#633+0.13854*#614-0.13854*#633]
#100=[#102+0*#101-0*#102]
G01 X0.29151Y35.71149Z[#100+-0.1000] ;segmented line. Max segment length set to 5
#102=[#652+0.14518*#633-0.14518*#652]
#101=[#652+0.14518*#633-0.14518*#652]
#100=[#102+0*#101-0*#102]
G01 X0.30782Y40.71146Z[#100+-0.1000] ;segmented line. Max segment length set to 5
#102=[#671+0.15182*#652-0.15182*#671]
#101=[#671+0.15182*#652-0.15182*#671]
#100=[#102+0*#101-0*#102]
G01 X0.32414Y45.71143Z[#100+-0.1000] ;segmented line. Max segment length set to 5
#102=[#690+0.15846*#671-0.15846*#690]
#101=[#690+0.15846*#671-0.15846*#690]
#100=[#102+0*#101-0*#102]
G01 X0.34045Y50.71140Z[#100+-0.1000] ;segmented line. Max segment length set to 5
#102=[#709+0.16510*#690-0.16510*#709]
#101=[#709+0.16510*#690-0.16510*#709]
#100=[#102+0*#101-0*#102]
G01 X0.35677Y55.71137Z[#100+-0.1000] ;segmented line. Max segment length set to 5
#102=[#728+0.17174*#709-0.17174*#728]
#101=[#728+0.17174*#709-0.17174*#728]
#100=[#102+0*#101-0*#102]
G01 X0.37308Y60.71134Z[#100+-0.1000] ;segmented line. Max segment length set to 5
#102=[#747+0.17839*#728-0.17839*#747]
#101=[#747+0.17839*#728-0.17839*#747]
#100=[#102+0*#101-0*#102]
G01 X0.38940Y65.71131Z[#100+-0.1000] ;segmented line. Max segment length set to 5
#102=[#766+0.18503*#747-0.18503*#766]
#101=[#766+0.18503*#747-0.18503*#766]
#100=[#102+0*#101-0*#102]
G01 X0.40571Y70.71128Z[#100+-0.1000] ;segmented line. Max segment length set to 5
#102=[#785+0.19167*#766-0.19167*#785]
#101=[#785+0.19167*#766-0.19167*#785]
#100=[#102+0*#101-0*#102]
G01 X0.42203Y75.71125Z[#100+-0.1000] ;segmented line. Max segment length set to 5
#102=[#785+0*#785-0*#785]
#101=[#785+0*#785-0*#785]
#100=[#102+0*#101-0*#102]
G01 X0.4267Y77.1427Z[#100+-0.1000]
#102=[#785+0*#785-0*#785]
#101=[#785+0*#785-0*#785]
#100=[#102+0*#101-0*#102]
G01 X0.4294Y77.1944Z[#100+-0.1000]
#102=[#785+0*#785-0*#785]
#101=[#785+0*#785-0*#785]
#100=[#102+0*#101-0*#102]
G01 X0.4338Y77.2272Z[#100+-0.1000]
#102=[#785+0*#785-0*#785]
#101=[#785+0*#785-0*#785]
#100=[#102+0*#101-0*#102]
G01 X0.4417Y77.2664Z[#100+-0.1000]
#102=[#785+0*#785-0*#785]
#101=[#785+0*#785-0*#785]
#100=[#102+0*#101-0*#102]
G01 X0.4565Y77.3166Z[#100+-0.1000]
#102=[#785+0*#785-0*#785]
#101=[#785+0*#785-0*#785]
#100=[#102+0*#101-0*#102]
G01 X0.4716Y77.3556Z[#100+-0.1000]
#102=[#785+0*#785-0*#785]
#101=[#785+0*#785-0*#785]
#100=[#102+0*#101-0*#102]
G01 X0.4814Y77.3764Z[#100+-0.1000]
#102=[#785+0*#785-0*#785]
#101=[#785+0*#785-0*#785]
#100=[#102+0*#101-0*#102]
G01 X0.5067Y77.4223Z[#100+-0.1000]
#102=[#785+0*#785-0*#785]
#101=[#785+0*#785-0*#785]
#100=[#102+0*#101-0*#102]
G01 X0.5290Y77.4555Z[#100+-0.1000]
#102=[#785+0*#785-0*#785]
#101=[#785+0*#785-0*#785]
#100=[#102+0*#101-0*#102]
G01 X0.5539Y77.4873Z[#100+-0.1000]
#102=[#785+0*#785-0*#785]
#101=[#785+0*#785-0*#785]
#100=[#102+0*#101-0*#102]
G01 X0.5835Y77.5194Z[#100+-0.1000]
#102=[#785+0*#785-0*#785]
#101=[#785+0*#785-0*#785]
#100=[#102+0*#101-0*#102]
G01 X0.5985Y77.5337Z[#100+-0.1000]
#102=[#785+0*#785-0*#785]
#101=[#785+0*#785-0*#785]
#100=[#102+0*#101-0*#102]
G01 X0.6365Y77.5657Z[#100+-0.1000]
#102=[#785+0*#785-0*#785]
#101=[#785+0*#785-0*#785]
#100=[#102+0*#101-0*#102]
G01 X0.6486Y77.5747Z[#100+-0.1000]
#102=[#785+0*#785-0*#785]
#101=[#785+0*#785-0*#785]
#100=[#102+0*#101-0*#102]
G01 X0.6819Y77.5969Z[#100+-0.1000]
#102=[#785+0*#785-0*#785]
#101=[#785+0*#785-0*#785]
#100=[#102+0*#101-0*#102]
G01 X0.7195Y77.6180Z[#100+-0.1000]
#102=[#785+0*#785-0*#785]
#101=[#785+0*#785-0*#785]
#100=[#102+0*#101-0*#102]
G01 X0.7475Y77.6312Z[#100+-0.1000]
#102=[#785+0*#785-0*#785]
#101=[#785+0*#785-0*#785]
#100=[#102+0*#101-0*#102]
G01 X0.7877Y77.6468Z[#100+-0.1000]
#102=[#785+0*#785-0*#785]
#101=[#785+0*#785-0*#785]
#100=[#102+0*#101-0*#102]
G01 X0.8077Y77.6533Z[#100+-0.1000]
#102=[#785+0*#785-0*#785]
#101=[#785+0*#785-0*#785]
#100=[#102+0*#101-0*#102]
G01 X0.8380Y77.6614Z[#100+-0.1000]
#102=[#785+0*#785-0*#785]
#101=[#785+0*#785-0*#785]
#100=[#102+0*#101-0*#102]
G01 X0.8772Y77.6692Z[#100+-0.1000]
#102=[#785+0*#785-0*#785]
#101=[#785+0*#785-0*#785]
#100=[#102+0*#101-0*#102]
G01 X0.9087Y77.6734Z[#100+-0.1000]
#102=[#785+0*#785-0*#785]
#101=[#785+0*#785-0*#785]
#100=[#102+0*#101-0*#102]
G01 X0.9293Y77.6749Z[#100+-0.1000]
#102=[#785+0*#785-0*#785]
#101=[#785+0*#785-0*#785]
#100=[#102+0*#101-0*#102]
G01 X0.9617Y77.6760Z[#100+-0.1000]
#102=[#785+0*#785-0*#785]
#101=[#786+0*#786-0*#786]
#100=[#102+0.90962*#101-0.90962*#102]
G01 X5.96170Y77.67600Z[#100+-0.1000] ;segmented line. Max segment length set to 5
#102=[#786+0*#786-0*#786]
#101=[#787+0*#787-0*#787]
#100=[#102+0.86024*#101-0.86024*#102]
G01 X10.96170Y77.67600Z[#100+-0.1000] ;segmented line. Max segment length set to 5
#102=[#787+0*#787-0*#787]
#101=[#788+0*#788-0*#788]
#100=[#102+0.81085*#101-0.81085*#102]
G01 X15.96170Y77.67600Z[#100+-0.1000] ;segmented line. Max segment length set to 5
#102=[#788+0*#788-0*#788]
#101=[#789+0*#789-0*#789]
#100=[#102+0.76146*#101-0.76146*#102]
G01 X20.96170Y77.67600Z[#100+-0.1000] ;segmented line. Max segment length set to 5
#102=[#789+0*#789-0*#789]
#101=[#790+0*#790-0*#790]
#100=[#102+0.71208*#101-0.71208*#102]
G01 X25.96170Y77.67600Z[#100+-0.1000] ;segmented line. Max segment length set to 5
#102=[#790+0*#790-0*#790]
#101=[#791+0*#791-0*#791]
#100=[#102+0.66269*#101-0.66269*#102]
G01 X30.96170Y77.67600Z[#100+-0.1000] ;segmented line. Max segment length set to 5
#102=[#791+0*#791-0*#791]
#101=[#792+0*#792-0*#792]
#100=[#102+0.61331*#101-0.61331*#102]
G01 X35.96170Y77.67600Z[#100+-0.1000] ;segmented line. Max segment length set to 5
#102=[#792+0*#792-0*#792]
#101=[#793+0*#793-0*#793]
#100=[#102+0.56392*#101-0.56392*#102]
G01 X40.96170Y77.67600Z[#100+-0.1000] ;segmented line. Max segment length set to 5
#102=[#793+0*#793-0*#793]
#101=[#794+0*#794-0*#794]
#100=[#102+0.51453*#101-0.51453*#102]
G01 X45.96170Y77.67600Z[#100+-0.1000] ;segmented line. Max segment length set to 5
#102=[#794+0*#794-0*#794]
#101=[#795+0*#795-0*#795]
#100=[#102+0.46515*#101-0.46515*#102]
G01 X50.96170Y77.67600Z[#100+-0.1000] ;segmented line. Max segment length set to 5
#102=[#795+0*#795-0*#795]
#101=[#796+0*#796-0*#796]
#100=[#102+0.41576*#101-0.41576*#102]
G01 X55.96170Y77.67600Z[#100+-0.1000] ;segmented line. Max segment length set to 5
#102=[#796+0*#796-0*#796]
#101=[#797+0*#797-0*#797]
#100=[#102+0.36637*#101-0.36637*#102]
G01 X60.96170Y77.67600Z[#100+-0.1000] ;segmented line. Max segment length set to 5
#102=[#797+0*#797-0*#797]
#101=[#798+0*#798-0*#798]
#100=[#102+0.31699*#101-0.31699*#102]
G01 X65.96170Y77.67600Z[#100+-0.1000] ;segmented line. Max segment length set to 5
#102=[#798+0*#798-0*#798]
#101=[#799+0*#799-0*#799]
#100=[#102+0.26760*#101-0.26760*#102]
G01 X70.96170Y77.67600Z[#100+-0.1000] ;segmented line. Max segment length set to 5
#102=[#799+0*#799-0*#799]
#101=[#800+0*#800-0*#800]
#100=[#102+0.21822*#101-0.21822*#102]
G01 X75.96170Y77.67600Z[#100+-0.1000] ;segmented line. Max segment length set to 5
#102=[#800+0*#800-0*#800]
#101=[#801+0*#801-0*#801]
#100=[#102+0.16883*#101-0.16883*#102]
G01 X80.96170Y77.67600Z[#100+-0.1000] ;segmented line. Max segment length set to 5
#102=[#801+0*#801-0*#801]
#101=[#802+0*#802-0*#802]
#100=[#102+0.11944*#101-0.11944*#102]
G01 X85.96170Y77.67600Z[#100+-0.1000] ;segmented line. Max segment length set to 5
#102=[#802+0*#802-0*#802]
#101=[#803+0*#803-0*#803]
#100=[#102+0.07006*#101-0.07006*#102]
G01 X90.96170Y77.67600Z[#100+-0.1000] ;segmented line. Max segment length set to 5
#102=[#803+0*#803-0*#803]
#101=[#803+0*#803-0*#803]
#100=[#102+0*#101-0*#102]
G01 X95.96170Y77.67600Z[#100+-0.1000] ;segmented line. Max segment length set to 5
#102=[#803+0*#803-0*#803]
#101=[#803+0*#803-0*#803]
#100=[#102+0*#101-0*#102]
G01 X96.3180Y77.6760Z[#100+-0.1000]
#102=[#803+0*#803-0*#803]
#101=[#803+0*#803-0*#803]
#100=[#102+0*#101-0*#102]
G01 X96.3505Y77.6749Z[#100+-0.1000]
#102=[#803+0*#803-0*#803]
#101=[#803+0*#803-0*#803]
#100=[#102+0*#101-0*#102]
G01 X96.3710Y77.6734Z[#100+-0.1000]
#102=[#803+0*#803-0*#803]
#101=[#803+0*#803-0*#803]
#100=[#102+0*#101-0*#102]
G01 X96.4026Y77.6691Z[#100+-0.1000]
#102=[#803+0*#803-0*#803]
#101=[#803+0*#803-0*#803]
#100=[#102+0*#101-0*#102]
G01 X96.4419Y77.6613Z[#100+-0.1000]
#102=[#803+0*#803-0*#803]
#101=[#803+0*#803-0*#803]
#100=[#102+0*#101-0*#102]
G01 X96.4721Y77.6533Z[#100+-0.1000]
#102=[#803+0*#803-0*#803]
#101=[#803+0*#803-0*#803]
#100=[#102+0*#101-0*#102]
G01 X96.5041Y77.6425Z[#100+-0.1000]
#102=[#803+0*#803-0*#803]
#101=[#803+0*#803-0*#803]
#100=[#102+0*#101-0*#102]
G01 X96.5323Y77.6312Z[#100+-0.1000]
#102=[#803+0*#803-0*#803]
#101=[#803+0*#803-0*#803]
#100=[#102+0*#101-0*#102]
G01 X96.5603Y77.6179Z[#100+-0.1000]
#102=[#803+0*#803-0*#803]
#101=[#803+0*#803-0*#803]
#100=[#102+0*#101-0*#102]
G01 X96.5876Y77.6030Z[#100+-0.1000]
#102=[#803+0*#803-0*#803]
#101=[#803+0*#803-0*#803]
#100=[#102+0*#101-0*#102]
G01 X96.6149Y77.5861Z[#100+-0.1000]
#102=[#803+0*#803-0*#803]
#101=[#803+0*#803-0*#803]
#100=[#102+0*#101-0*#102]
G01 X96.6416Y77.5669Z[#100+-0.1000]
#102=[#803+0*#803-0*#803]
#101=[#803+0*#803-0*#803]
#100=[#102+0*#101-0*#102]
G01 X96.6641Y77.5490Z[#100+-0.1000]
#102=[#803+0*#803-0*#803]
#101=[#803+0*#803-0*#803]
#100=[#102+0*#101-0*#102]
G01 X96.6963Y77.5193Z[#100+-0.1000]
#102=[#803+0*#803-0*#803]
#101=[#803+0*#803-0*#803]
#100=[#102+0*#101-0*#102]
G01 X96.7101Y77.5048Z[#100+-0.1000]
#102=[#803+0*#803-0*#803]
#101=[#803+0*#803-0*#803]
#100=[#102+0*#101-0*#102]
G01 X96.7259Y77.4871Z[#100+-0.1000]
#102=[#803+0*#803-0*#803]
#101=[#803+0*#803-0*#803]
#100=[#102+0*#101-0*#102]
G01 X96.7439Y77.4646Z[#100+-0.1000]
#102=[#803+0*#803-0*#803]
#101=[#803+0*#803-0*#803]
#100=[#102+0*#101-0*#102]
G01 X96.7631Y77.4379Z[#100+-0.1000]
#102=[#803+0*#803-0*#803]
#101=[#803+0*#803-0*#803]
#100=[#102+0*#101-0*#102]
G01 X96.7735Y77.4213Z[#100+-0.1000]
#102=[#803+0*#803-0*#803]
#101=[#803+0*#803-0*#803]
#100=[#102+0*#101-0*#102]
G01 X96.7949Y77.3833Z[#100+-0.1000]
#102=[#803+0*#803-0*#803]
#101=[#803+0*#803-0*#803]
#100=[#102+0*#101-0*#102]
G01 X96.8082Y77.3553Z[#100+-0.1000]
#102=[#803+0*#803-0*#803]
#101=[#803+0*#803-0*#803]
#100=[#102+0*#101-0*#102]
G01 X96.8237Y77.3153Z[#100+-0.1000]
#102=[#803+0*#803-0*#803]
#101=[#803+0*#803-0*#803]
#100=[#102+0*#101-0*#102]
G01 X96.8303Y77.2951Z[#100+-0.1000]
#102=[#803+0*#803-0*#803]
#101=[#803+0*#803-0*#803]
#100=[#102+0*#101-0*#102]
G01 X96.8383Y77.2649Z[#100+-0.1000]
#102=[#803+0*#803-0*#803]
#101=[#803+0*#803-0*#803]
#100=[#102+0*#101-0*#102]
G01 X96.8461Y77.2256Z[#100+-0.1000]
#102=[#803+0*#803-0*#803]
#101=[#803+0*#803-0*#803]
#100=[#102+0*#101-0*#102]
G01 X96.8504Y77.1940Z[#100+-0.1000]
#102=[#803+0*#803-0*#803]
#101=[#803+0*#803-0*#803]
#100=[#102+0*#101-0*#102]
G01 X96.8519Y77.1735Z[#100+-0.1000]
#102=[#803+0*#803-0*#803]
#101=[#803+0*#803-0*#803]
#100=[#102+0*#101-0*#102]
G01 X96.8530Y77.1410Z[#100+-0.1000]
#102=[#803+0.90098*#784-0.90098*#803]
#101=[#803+0.90098*#784-0.90098*#803]
#100=[#102+0*#101-0*#102]
G01 X96.85300Y72.14100Z[#100+-0.1000] ;segmented line. Max segment length set to 5
#102=[#784+0.89435*#765-0.89435*#784]
#101=[#784+0.89435*#765-0.89435*#784]
#100=[#102+0*#101-0*#102]
G01 X96.85300Y67.14100Z[#100+-0.1000] ;segmented line. Max segment length set to 5
#102=[#765+0.88771*#746-0.88771*#765]
#101=[#765+0.88771*#746-0.88771*#765]
#100=[#102+0*#101-0*#102]
G01 X96.85300Y62.14100Z[#100+-0.1000] ;segmented line. Max segment length set to 5
#102=[#746+0.88107*#727-0.88107*#746]
#101=[#746+0.88107*#727-0.88107*#746]
#100=[#102+0*#101-0*#102]
G01 X96.85300Y57.14100Z[#100+-0.1000] ;segmented line. Max segment length set to 5
#102=[#727+0.87444*#708-0.87444*#727]
#101=[#727+0.87444*#708-0.87444*#727]
#100=[#102+0*#101-0*#102]
G01 X96.85300Y52.14100Z[#100+-0.1000] ;segmented line. Max segment length set to 5
#102=[#708+0.86780*#689-0.86780*#708]
#101=[#708+0.86780*#689-0.86780*#708]
#100=[#102+0*#101-0*#102]
G01 X96.85300Y47.14100Z[#100+-0.1000] ;segmented line. Max segment length set to 5
#102=[#689+0.86117*#670-0.86117*#689]
#101=[#689+0.86117*#670-0.86117*#689]
#100=[#102+0*#101-0*#102]
G01 X96.85300Y42.14100Z[#100+-0.1000] ;segmented line. Max segment length set to 5
#102=[#670+0.85453*#651-0.85453*#670]
#101=[#670+0.85453*#651-0.85453*#670]
#100=[#102+0*#101-0*#102]
G01 X96.85300Y37.14100Z[#100+-0.1000] ;segmented line. Max segment length set to 5
#102=[#651+0.84790*#632-0.84790*#651]
#101=[#651+0.84790*#632-0.84790*#651]
#100=[#102+0*#101-0*#102]
G01 X96.85300Y32.14100Z[#100+-0.1000] ;segmented line. Max segment length set to 5
#102=[#632+0.84126*#613-0.84126*#632]
#101=[#632+0.84126*#613-0.84126*#632]
#100=[#102+0*#101-0*#102]
G01 X96.85300Y27.14100Z[#100+-0.1000] ;segmented line. Max segment length set to 5
#102=[#613+0.83462*#594-0.83462*#613]
#101=[#613+0.83462*#594-0.83462*#613]
#100=[#102+0*#101-0*#102]
G01 X96.85300Y22.14100Z[#100+-0.1000] ;segmented line. Max segment length set to 5
#102=[#594+0.82799*#575-0.82799*#594]
#101=[#594+0.82799*#575-0.82799*#594]
#100=[#102+0*#101-0*#102]
G01 X96.85300Y17.14100Z[#100+-0.1000] ;segmented line. Max segment length set to 5
#102=[#575+0.82135*#556-0.82135*#575]
#101=[#575+0.82135*#556-0.82135*#575]
#100=[#102+0*#101-0*#102]
G01 X96.85300Y12.14100Z[#100+-0.1000] ;segmented line. Max segment length set to 5
#102=[#556+0.81472*#537-0.81472*#556]
#101=[#556+0.81472*#537-0.81472*#556]
#100=[#102+0*#101-0*#102]
G01 X96.85300Y7.14100Z[#100+-0.1000] ;segmented line. Max segment length set to 5
#102=[#537+0.80808*#518-0.80808*#537]
#101=[#537+0.80808*#518-0.80808*#537]
#100=[#102+0*#101-0*#102]
G01 X96.85300Y2.14100Z[#100+-0.1000] ;segmented line. Max segment length set to 5
#102=[#518+0*#518-0*#518]
#101=[#518+0*#518-0*#518]
#100=[#102+0*#101-0*#102]
G01 X96.8530Y0.7100Z[#100+-0.1000]
#102=[#518+0*#518-0*#518]
#101=[#518+0*#518-0*#518]
#100=[#102+0*#101-0*#102]
G01 X96.8519Y0.6775Z[#100+-0.1000]
#102=[#518+0*#518-0*#518]
#101=[#518+0*#518-0*#518]
#100=[#102+0*#101-0*#102]
G01 X96.8504Y0.6570Z[#100+-0.1000]
#102=[#518+0*#518-0*#518]
#101=[#518+0*#518-0*#518]
#100=[#102+0*#101-0*#102]
G01 X96.8461Y0.6254Z[#100+-0.1000]
#102=[#518+0*#518-0*#518]
#101=[#518+0*#518-0*#518]
#100=[#102+0*#101-0*#102]
G01 X96.8383Y0.5861Z[#100+-0.1000]
#102=[#518+0*#518-0*#518]
#101=[#518+0*#518-0*#518]
#100=[#102+0*#101-0*#102]
G01 X96.8303Y0.5559Z[#100+-0.1000]
#102=[#518+0*#518-0*#518]
#101=[#518+0*#518-0*#518]
#100=[#102+0*#101-0*#102]
G01 X96.8195Y0.5239Z[#100+-0.1000]
#102=[#518+0*#518-0*#518]
#101=[#518+0*#518-0*#518]
#100=[#102+0*#101-0*#102]
G01 X96.8082Y0.4957Z[#100+-0.1000]
#102=[#518+0*#518-0*#518]
#101=[#518+0*#518-0*#518]
#100=[#102+0*#101-0*#102]
G01 X96.7949Y0.4677Z[#100+-0.1000]
#102=[#518+0*#518-0*#518]
#101=[#518+0*#518-0*#518]
#100=[#102+0*#101-0*#102]
G01 X96.7800Y0.4404Z[#100+-0.1000]
#102=[#518+0*#518-0*#518]
#101=[#518+0*#518-0*#518]
#100=[#102+0*#101-0*#102]
G01 X96.7631Y0.4131Z[#100+-0.1000]
#102=[#518+0*#518-0*#518]
#101=[#518+0*#518-0*#518]
#100=[#102+0*#101-0*#102]
G01 X96.7439Y0.3864Z[#100+-0.1000]
#102=[#518+0*#518-0*#518]
#101=[#518+0*#518-0*#518]
#100=[#102+0*#101-0*#102]
G01 X96.7260Y0.3639Z[#100+-0.1000]
#102=[#518+0*#518-0*#518]
#101=[#518+0*#518-0*#518]
#100=[#102+0*#101-0*#102]
G01 X96.6963Y0.3317Z[#100+-0.1000]
#102=[#518+0*#518-0*#518]
#101=[#518+0*#518-0*#518]
#100=[#102+0*#101-0*#102]
G01 X96.6818Y0.3179Z[#100+-0.1000]
#102=[#518+0*#518-0*#518]
#101=[#518+0*#518-0*#518]
#100=[#102+0*#101-0*#102]
G01 X96.6641Y0.3020Z[#100+-0.1000]
#102=[#518+0*#518-0*#518]
#101=[#518+0*#518-0*#518]
#100=[#102+0*#101-0*#102]
G01 X96.6416Y0.2841Z[#100+-0.1000]
#102=[#518+0*#518-0*#518]
#101=[#518+0*#518-0*#518]
#100=[#102+0*#101-0*#102]
G01 X96.6149Y0.2649Z[#100+-0.1000]
#102=[#518+0*#518-0*#518]
#101=[#518+0*#518-0*#518]
#100=[#102+0*#101-0*#102]
G01 X96.5983Y0.2545Z[#100+-0.1000]
#102=[#518+0*#518-0*#518]
#101=[#518+0*#518-0*#518]
#100=[#102+0*#101-0*#102]
G01 X96.5603Y0.2331Z[#100+-0.1000]
#102=[#518+0*#518-0*#518]
#101=[#518+0*#518-0*#518]
#100=[#102+0*#101-0*#102]
G01 X96.5323Y0.2198Z[#100+-0.1000]
#102=[#518+0*#518-0*#518]
#101=[#518+0*#518-0*#518]
#100=[#102+0*#101-0*#102]
G01 X96.4923Y0.2043Z[#100+-0.1000]
#102=[#518+0*#518-0*#518]
#101=[#518+0*#518-0*#518]
#100=[#102+0*#101-0*#102]
G01 X96.4721Y0.1977Z[#100+-0.1000]
#102=[#518+0*#518-0*#518]
#101=[#518+0*#518-0*#518]
#100=[#102+0*#101-0*#102]
G01 X96.4419Y0.1897Z[#100+-0.1000]
#102=[#518+0*#518-0*#518]
#101=[#518+0*#518-0*#518]
#100=[#102+0*#101-0*#102]
G01 X96.4026Y0.1819Z[#100+-0.1000]
#102=[#518+0*#518-0*#518]
#101=[#518+0*#518-0*#518]
#100=[#102+0*#101-0*#102]
G01 X96.3710Y0.1776Z[#100+-0.1000]
#102=[#518+0*#518-0*#518]
#101=[#518+0*#518-0*#518]
#100=[#102+0*#101-0*#102]
G01 X96.3505Y0.1761Z[#100+-0.1000]
#102=[#518+0*#518-0*#518]
#101=[#518+0*#518-0*#518]
#100=[#102+0*#101-0*#102]
G01 X96.3180Y0.1750Z[#100+-0.1000]
#102=[#517+0*#517-0*#517]
#101=[#518+0*#518-0*#518]
#100=[#102+0.13780*#101-0.13780*#102]
G01 X91.31800Y0.17500Z[#100+-0.1000] ;segmented line. Max segment length set to 5
#102=[#516+0*#516-0*#516]
#101=[#517+0*#517-0*#517]
#100=[#102+0.18718*#101-0.18718*#102]
G01 X86.31800Y0.17500Z[#100+-0.1000] ;segmented line. Max segment length set to 5
#102=[#515+0*#515-0*#515]
#101=[#516+0*#516-0*#516]
#100=[#102+0.23657*#101-0.23657*#102]
G01 X81.31800Y0.17500Z[#100+-0.1000] ;segmented line. Max segment length set to 5
#102=[#514+0*#514-0*#514]
#101=[#515+0*#515-0*#515]
#100=[#102+0.28596*#101-0.28596*#102]
G01 X76.31800Y0.17500Z[#100+-0.1000] ;segmented line. Max segment length set to 5
#102=[#513+0*#513-0*#513]
#101=[#514+0*#514-0*#514]
#100=[#102+0.33534*#101-0.33534*#102]
G01 X71.31800Y0.17500Z[#100+-0.1000] ;segmented line. Max segment length set to 5
#102=[#512+0*#512-0*#512]
#101=[#513+0*#513-0*#513]
#100=[#102+0.38473*#101-0.38473*#102]
G01 X66.31800Y0.17500Z[#100+-0.1000] ;segmented line. Max segment length set to 5
#102=[#511+0*#511-0*#511]
#101=[#512+0*#512-0*#512]
#100=[#102+0.43411*#101-0.43411*#102]
G01 X61.31800Y0.17500Z[#100+-0.1000] ;segmented line. Max segment length set to 5
#102=[#510+0*#510-0*#510]
#101=[#511+0*#511-0*#511]
#100=[#102+0.48350*#101-0.48350*#102]
G01 X56.31800Y0.17500Z[#100+-0.1000] ;segmented line. Max segment length set to 5
#102=[#509+0*#509-0*#509]
#101=[#510+0*#510-0*#510]
#100=[#102+0.53289*#101-0.53289*#102]
G01 X51.31800Y0.17500Z[#100+-0.1000] ;segmented line. Max segment length set to 5
#102=[#508+0*#508-0*#508]
#101=[#509+0*#509-0*#509]
#100=[#102+0.58227*#101-0.58227*#102]
G01 X46.31800Y0.17500Z[#100+-0.1000] ;segmented line. Max segment length set to 5
#102=[#507+0*#507-0*#507]
#101=[#508+0*#508-0*#508]
#100=[#102+0.63166*#101-0.63166*#102]
G01 X41.31800Y0.17500Z[#100+-0.1000] ;segmented line. Max segment length set to 5
#102=[#506+0*#506-0*#506]
#101=[#507+0*#507-0*#507]
#100=[#102+0.68105*#101-0.68105*#102]
G01 X36.31800Y0.17500Z[#100+-0.1000] ;segmented line. Max segment length set to 5
#102=[#505+0*#505-0*#505]
#101=[#506+0*#506-0*#506]
#100=[#102+0.73043*#101-0.73043*#102]
G01 X31.31800Y0.17500Z[#100+-0.1000] ;segmented line. Max segment length set to 5
#102=[#504+0*#504-0*#504]
#101=[#505+0*#505-0*#505]
#100=[#102+0.77982*#101-0.77982*#102]
G01 X26.31800Y0.17500Z[#100+-0.1000] ;segmented line. Max segment length set to 5
#102=[#503+0*#503-0*#503]
#101=[#504+0*#504-0*#504]
#100=[#102+0.82921*#101-0.82921*#102]
G01 X21.31800Y0.17500Z[#100+-0.1000] ;segmented line. Max segment length set to 5
#102=[#502+0*#502-0*#502]
#101=[#503+0*#503-0*#503]
#100=[#102+0.87859*#101-0.87859*#102]
G01 X16.31800Y0.17500Z[#100+-0.1000] ;segmented line. Max segment length set to 5
#102=[#501+0*#501-0*#501]
#101=[#502+0*#502-0*#502]
#100=[#102+0.92798*#101-0.92798*#102]
G01 X11.31800Y0.17500Z[#100+-0.1000] ;segmented line. Max segment length set to 5
#102=[#500+0*#500-0*#500]
#101=[#501+0*#501-0*#501]
#100=[#102+0.97736*#101-0.97736*#102]
G01 X6.31800Y0.17500Z[#100+-0.1000] ;segmented line. Max segment length set to 5
#102=[#500+0*#500-0*#500]
#101=[#501+0*#501-0*#501]
#100=[#102+0.02675*#101-0.02675*#102]
G01 X1.31800Y0.17500Z[#100+-0.1000] ;segmented line. Max segment length set to 5
#102=[#500+0*#500-0*#500]
#101=[#500+0*#500-0*#500]
#100=[#102+0*#101-0*#102]
G01 X0.7112Y0.1750Z[#100+-0.1000]
#102=[#500+0*#500-0*#500]
#101=[#500+0*#500-0*#500]
#100=[#102+0*#101-0*#102]
G01 X0.6593Y0.1776Z[#100+-0.1000]
#102=[#500+0*#500-0*#500]
#101=[#500+0*#500-0*#500]
#100=[#102+0*#101-0*#102]
G01 X0.6277Y0.1819Z[#100+-0.1000]
#102=[#500+0*#500-0*#500]
#101=[#500+0*#500-0*#500]
#100=[#102+0*#101-0*#102]
G01 X0.6073Y0.1854Z[#100+-0.1000]
#102=[#500+0*#500-0*#500]
#101=[#500+0*#500-0*#500]
#100=[#102+0*#101-0*#102]
G01 X0.5867Y0.1901Z[#100+-0.1000]
#102=[#500+0*#500-0*#500]
#101=[#500+0*#500-0*#500]
#100=[#102+0*#101-0*#102]
G01 X0.5560Y0.1984Z[#100+-0.1000]
#102=[#500+0*#500-0*#500]
#101=[#500+0*#500-0*#500]
#100=[#102+0*#101-0*#102]
G01 X0.5070Y0.2160Z[#100+-0.1000]
#102=[#500+0*#500-0*#500]
#101=[#500+0*#500-0*#500]
#100=[#102+0*#101-0*#102]
G01 X0.4780Y0.2292Z[#100+-0.1000]
#102=[#500+0*#500-0*#500]
#101=[#500+0*#500-0*#500]
#100=[#102+0*#101-0*#102]
G01 X0.4595Y0.2385Z[#100+-0.1000]
#102=[#500+0*#500-0*#500]
#101=[#500+0*#500-0*#500]
#100=[#102+0*#101-0*#102]
G01 X0.4412Y0.2489Z[#100+-0.1000]
#102=[#500+0*#500-0*#500]
#101=[#500+0*#500-0*#500]
#100=[#102+0*#101-0*#102]
G01 X0.4142Y0.2658Z[#100+-0.1000]
#102=[#500+0*#500-0*#500]
#101=[#500+0*#500-0*#500]
#100=[#102+0*#101-0*#102]
G01 X0.3724Y0.2969Z[#100+-0.1000]
#102=[#500+0*#500-0*#500]
#101=[#500+0*#500-0*#500]
#100=[#102+0*#101-0*#102]
G01 X0.3485Y0.3179Z[#100+-0.1000]
#102=[#500+0*#500-0*#500]
#101=[#500+0*#500-0*#500]
#100=[#102+0*#101-0*#102]
G01 X0.3333Y0.3325Z[#100+-0.1000]
#102=[#500+0*#500-0*#500]
#101=[#500+0*#500-0*#500]
#100=[#102+0*#101-0*#102]
G01 X0.3190Y0.3475Z[#100+-0.1000]
#102=[#500+0*#500-0*#500]
#101=[#500+0*#500-0*#500]
#100=[#102+0*#101-0*#102]
G01 X0.2981Y0.3714Z[#100+-0.1000]
#102=[#500+0*#500-0*#500]
#101=[#500+0*#500-0*#500]
#100=[#102+0*#101-0*#102]
G01 X0.2672Y0.4131Z[#100+-0.1000]
#102=[#500+0*#500-0*#500]
#101=[#500+0*#500-0*#500]
#100=[#102+0*#101-0*#102]
G01 X0.2504Y0.4404Z[#100+-0.1000]
#102=[#500+0*#500-0*#500]
#101=[#500+0*#500-0*#500]
#100=[#102+0*#101-0*#102]
G01 X0.2400Y0.4588Z[#100+-0.1000]
#102=[#500+0*#500-0*#500]
#101=[#500+0*#500-0*#500]
#100=[#102+0*#101-0*#102]
G01 X0.2262Y0.4870Z[#100+-0.1000]
#102=[#500+0*#500-0*#500]
#101=[#500+0*#500-0*#500]
#100=[#102+0*#101-0*#102]
G01 X0.2176Y0.5063Z[#100+-0.1000]
#102=[#500+0*#500-0*#500]
#101=[#500+0*#500-0*#500]
#100=[#102+0*#101-0*#102]
G01 X0.2104Y0.5256Z[#100+-0.1000]
G00 Z1.0000
G00 X0.3555Y0.5770
#102=[#500+0*#500-0*#500]
#101=[#500+0*#500-0*#500]
#100=[#102+0*#101-0*#102]
G01 Z[#100+-0.1000]
#102=[#500+0*#500-0*#500]
#101=[#500+0*#500-0*#500]
#100=[#102+0*#101-0*#102]
G01 X0.3475Y0.6002Z[#100+-0.1000]
#102=[#500+0*#500-0*#500]
#101=[#500+0*#500-0*#500]
#100=[#102+0*#101-0*#102]
G01 X0.3385Y0.6365Z[#100+-0.1000]
#102=[#500+0*#500-0*#500]
#101=[#500+0*#500-0*#500]
#100=[#102+0*#101-0*#102]
G01 X0.3331Y0.6735Z[#100+-0.1000]
#102=[#500+0*#500-0*#500]
#101=[#500+0*#500-0*#500]
#100=[#102+0*#101-0*#102]
G01 X0.3313Y0.7112Z[#100+-0.1000]
#102=[#519+0.09879*#500-0.09879*#519]
#101=[#519+0.09879*#500-0.09879*#519]
#100=[#102+0*#101-0*#102]
G01 X0.34762Y5.71117Z[#100+-0.1000] ;segmented line. Max segment length set to 5
#102=[#538+0.10543*#519-0.10543*#538]
#101=[#538+0.10543*#519-0.10543*#538]
#100=[#102+0*#101-0*#102]
G01 X0.36393Y10.71114Z[#100+-0.1000] ;segmented line. Max segment length set to 5
#102=[#557+0.11207*#538-0.11207*#557]
#101=[#557+0.11207*#538-0.11207*#557]
#100=[#102+0*#101-0*#102]
G01 X0.38025Y15.71111Z[#100+-0.1000] ;segmented line. Max segment length set to 5
#102=[#576+0.11871*#557-0.11871*#576]
#101=[#576+0.11871*#557-0.11871*#576]
#100=[#102+0*#101-0*#102]
G01 X0.39656Y20.71108Z[#100+-0.1000] ;segmented line. Max segment length set to 5
#102=[#595+0.12535*#576-0.12535*#595]
#101=[#595+0.12535*#576-0.12535*#595]
#100=[#102+0*#101-0*#102]
G01 X0.41288Y25.71105Z[#100+-0.1000] ;segmented line. Max segment length set to 5
#102=[#614+0.13199*#595-0.13199*#614]
#101=[#614+0.13199*#595-0.13199*#614]
#100=[#102+0*#101-0*#102]
G01 X0.42919Y30.71102Z[#100+-0.1000] ;segmented line. Max segment length set to 5
#102=[#633+0.13864*#614-0.13864*#633]
#101=[#633+0.13864*#614-0.13864*#633]
#100=[#102+0*#101-0*#102]
G01 X0.44551Y35.71099Z[#100+-0.1000] ;segmented line. Max segment length set to 5
#102=[#652+0.14528*#633-0.14528*#652]
#101=[#652+0.14528*#633-0.14528*#652]
#100=[#102+0*#101-0*#102]
G01 X0.46182Y40.71096Z[#100+-0.1000] ;segmented line. Max segment length set to 5
#102=[#671+0.15192*#652-0.15192*#671]
#101=[#671+0.15192*#652-0.15192*#671]
#100=[#102+0*#101-0*#102]
G01 X0.47814Y45.71093Z[#100+-0.1000] ;segmented line. Max segment length set to 5
#102=[#690+0.15856*#671-0.15856*#690]
#101=[#690+0.15856*#671-0.15856*#690]
#100=[#102+0*#101-0*#102]
G01 X0.49445Y50.71090Z[#100+-0.1000] ;segmented line. Max segment length set to 5
#102=[#709+0.16520*#690-0.16520*#709]
#101=[#709+0.16520*#690-0.16520*#709]
#100=[#102+0*#101-0*#102]
G01 X0.51077Y55.71087Z[#100+-0.1000] ;segmented line. Max segment length set to 5
#102=[#728+0.17184*#709-0.17184*#728]
#101=[#728+0.17184*#709-0.17184*#728]
#100=[#102+0*#101-0*#102]
G01 X0.52708Y60.71084Z[#100+-0.1000] ;segmented line. Max segment length set to 5
#102=[#747+0.17849*#728-0.17849*#747]
#101=[#747+0.17849*#728-0.17849*#747]
#100=[#102+0*#101-0*#102]
G01 X0.54340Y65.71081Z[#100+-0.1000] ;segmented line. Max segment length set to 5
#102=[#766+0.18513*#747-0.18513*#766]
#101=[#766+0.18513*#747-0.18513*#766]
#100=[#102+0*#101-0*#102]
G01 X0.55971Y70.71078Z[#100+-0.1000] ;segmented line. Max segment length set to 5
#102=[#785+0.19177*#766-0.19177*#785]
#101=[#785+0.19177*#766-0.19177*#785]
#100=[#102+0*#101-0*#102]
G01 X0.57603Y75.71075Z[#100+-0.1000] ;segmented line. Max segment length set to 5
#102=[#785+0*#785-0*#785]
#101=[#785+0*#785-0*#785]
#100=[#102+0*#101-0*#102]
G01 X0.5807Y77.1422Z[#100+-0.1000]
#102=[#785+0*#785-0*#785]
#101=[#785+0*#785-0*#785]
#100=[#102+0*#101-0*#102]
G01 X0.5826Y77.1791Z[#100+-0.1000]
#102=[#785+0*#785-0*#785]
#101=[#785+0*#785-0*#785]
#100=[#102+0*#101-0*#102]
G01 X0.5861Y77.2041Z[#100+-0.1000]
#102=[#785+0*#785-0*#785]
#101=[#785+0*#785-0*#785]
#100=[#102+0*#101-0*#102]
G01 X0.5910Y77.2285Z[#100+-0.1000]
#102=[#785+0*#785-0*#785]
#101=[#785+0*#785-0*#785]
#100=[#102+0*#101-0*#102]
G01 X0.6013Y77.2644Z[#100+-0.1000]
#102=[#785+0*#785-0*#785]
#101=[#785+0*#785-0*#785]
#100=[#102+0*#101-0*#102]
G01 X0.6124Y77.2930Z[#100+-0.1000]
#102=[#785+0*#785-0*#785]
#101=[#785+0*#785-0*#785]
#100=[#102+0*#101-0*#102]
G01 X0.6205Y77.3103Z[#100+-0.1000]
#102=[#785+0*#785-0*#785]
#101=[#785+0*#785-0*#785]
#100=[#102+0*#101-0*#102]
G01 X0.6387Y77.3428Z[#100+-0.1000]
#102=[#785+0*#785-0*#785]
#101=[#785+0*#785-0*#785]
#100=[#102+0*#101-0*#102]
G01 X0.6525Y77.3635Z[#100+-0.1000]
#102=[#785+0*#785-0*#785]
#101=[#785+0*#785-0*#785]
#100=[#102+0*#101-0*#102]
G01 X0.6708Y77.3871Z[#100+-0.1000]
#102=[#785+0*#785-0*#785]
#101=[#785+0*#785-0*#785]
#100=[#102+0*#101-0*#102]
G01 X0.6924Y77.4106Z[#100+-0.1000]
#102=[#785+0*#785-0*#785]
#101=[#785+0*#785-0*#785]
#100=[#102+0*#101-0*#102]
G01 X0.7110Y77.4277Z[#100+-0.1000]
#102=[#785+0*#785-0*#785]
#101=[#785+0*#785-0*#785]
#100=[#102+0*#101-0*#102]
G01 X0.7289Y77.4425Z[#100+-0.1000]
#102=[#785+0*#785-0*#785]
#101=[#785+0*#785-0*#785]
#100=[#102+0*#101-0*#102]
G01 X0.7609Y77.4647Z[#100+-0.1000]
#102=[#785+0*#785-0*#785]
#101=[#785+0*#785-0*#785]
#100=[#102+0*#101-0*#102]
G01 X0.7883Y77.4803Z[#100+-0.1000]
#102=[#785+0*#785-0*#785]
#101=[#785+0*#785-0*#785]
#100=[#102+0*#101-0*#102]
G01 X0.8100Y77.4905Z[#100+-0.1000]
#102=[#785+0*#785-0*#785]
#101=[#785+0*#785-0*#785]
#100=[#102+0*#101-0*#102]
G01 X0.8395Y77.5018Z[#100+-0.1000]
#102=[#785+0*#785-0*#785]
#101=[#785+0*#785-0*#785]
#100=[#102+0*#101-0*#102]
G01 X0.8519Y77.5058Z[#100+-0.1000]
#102=[#785+0*#785-0*#785]
#101=[#785+0*#785-0*#785]
#100=[#102+0*#101-0*#102]
G01 X0.8754Y77.5120Z[#100+-0.1000]
#102=[#785+0*#785-0*#785]
#101=[#785+0*#785-0*#785]
#100=[#102+0*#101-0*#102]
G01 X0.8998Y77.5168Z[#100+-0.1000]
#102=[#785+0*#785-0*#785]
#101=[#785+0*#785-0*#785]
#100=[#102+0*#101-0*#102]
G01 X0.9240Y77.5201Z[#100+-0.1000]
#102=[#785+0*#785-0*#785]
#101=[#785+0*#785-0*#785]
#100=[#102+0*#101-0*#102]
G01 X0.9617Y77.5220Z[#100+-0.1000]
#102=[#785+0*#785-0*#785]
#101=[#786+0*#786-0*#786]
#100=[#102+0.90962*#101-0.90962*#102]
G01 X5.96170Y77.52200Z[#100+-0.1000] ;segmented line. Max segment length set to 5
#102=[#786+0*#786-0*#786]
#101=[#787+0*#787-0*#787]
#100=[#102+0.86024*#101-0.86024*#102]
G01 X10.96170Y77.52200Z[#100+-0.1000] ;segmented line. Max segment length set to 5
#102=[#787+0*#787-0*#787]
#101=[#788+0*#788-0*#788]
#100=[#102+0.81085*#101-0.81085*#102]
G01 X15.96170Y77.52200Z[#100+-0.1000] ;segmented line. Max segment length set to 5
#102=[#788+0*#788-0*#788]
#101=[#789+0*#789-0*#789]
#100=[#102+0.76146*#101-0.76146*#102]
G01 X20.96170Y77.52200Z[#100+-0.1000] ;segmented line. Max segment length set to 5
#102=[#789+0*#789-0*#789]
#101=[#790+0*#790-0*#790]
#100=[#102+0.71208*#101-0.71208*#102]
G01 X25.96170Y77.52200Z[#100+-0.1000] ;segmented line. Max segment length set to 5
#102=[#790+0*#790-0*#790]
#101=[#791+0*#791-0*#791]
#100=[#102+0.66269*#101-0.66269*#102]
G01 X30.96170Y77.52200Z[#100+-0.1000] ;segmented line. Max segment length set to 5
#102=[#791+0*#791-0*#791]
#101=[#792+0*#792-0*#792]
#100=[#102+0.61331*#101-0.61331*#102]
G01 X35.96170Y77.52200Z[#100+-0.1000] ;segmented line. Max segment length set to 5
#102=[#792+0*#792-0*#792]
#101=[#793+0*#793-0*#793]
#100=[#102+0.56392*#101-0.56392*#102]
G01 X40.96170Y77.52200Z[#100+-0.1000] ;segmented line. Max segment length set to 5
#102=[#793+0*#793-0*#793]
#101=[#794+0*#794-0*#794]
#100=[#102+0.51453*#101-0.51453*#102]
G01 X45.96170Y77.52200Z[#100+-0.1000] ;segmented line. Max segment length set to 5
#102=[#794+0*#794-0*#794]
#101=[#795+0*#795-0*#795]
#100=[#102+0.46515*#101-0.46515*#102]
G01 X50.96170Y77.52200Z[#100+-0.1000] ;segmented line. Max segment length set to 5
#102=[#795+0*#795-0*#795]
#101=[#796+0*#796-0*#796]
#100=[#102+0.41576*#101-0.41576*#102]
G01 X55.96170Y77.52200Z[#100+-0.1000] ;segmented line. Max segment length set to 5
#102=[#796+0*#796-0*#796]
#101=[#797+0*#797-0*#797]
#100=[#102+0.36637*#101-0.36637*#102]
G01 X60.96170Y77.52200Z[#100+-0.1000] ;segmented line. Max segment length set to 5
#102=[#797+0*#797-0*#797]
#101=[#798+0*#798-0*#798]
#100=[#102+0.31699*#101-0.31699*#102]
G01 X65.96170Y77.52200Z[#100+-0.1000] ;segmented line. Max segment length set to 5
#102=[#798+0*#798-0*#798]
#101=[#799+0*#799-0*#799]
#100=[#102+0.26760*#101-0.26760*#102]
G01 X70.96170Y77.52200Z[#100+-0.1000] ;segmented line. Max segment length set to 5
#102=[#799+0*#799-0*#799]
#101=[#800+0*#800-0*#800]
#100=[#102+0.21822*#101-0.21822*#102]
G01 X75.96170Y77.52200Z[#100+-0.1000] ;segmented line. Max segment length set to 5
#102=[#800+0*#800-0*#800]
#101=[#801+0*#801-0*#801]
#100=[#102+0.16883*#101-0.16883*#102]
G01 X80.96170Y77.52200Z[#100+-0.1000] ;segmented line. Max segment length set to 5
#102=[#801+0*#801-0*#801]
#101=[#802+0*#802-0*#802]
#100=[#102+0.11944*#101-0.11944*#102]
G01 X85.96170Y77.52200Z[#100+-0.1000] ;segmented line. Max segment length set to 5
#102=[#802+0*#802-0*#802]
#101=[#803+0*#803-0*#803]
#100=[#102+0.07006*#101-0.07006*#102]
G01 X90.96170Y77.52200Z[#100+-0.1000] ;segmented line. Max segment length set to 5
#102=[#803+0*#803-0*#803]
#101=[#803+0*#803-0*#803]
#100=[#102+0*#101-0*#102]
G01 X95.96170Y77.52200Z[#100+-0.1000] ;segmented line. Max segment length set to 5
#102=[#803+0*#803-0*#803]
#101=[#803+0*#803-0*#803]
#100=[#102+0*#101-0*#102]
G01 X96.3180Y77.5220Z[#100+-0.1000]
#102=[#803+0*#803-0*#803]
#101=[#803+0*#803-0*#803]
#100=[#102+0*#101-0*#102]
G01 X96.3557Y77.5201Z[#100+-0.1000]
#102=[#803+0*#803-0*#803]
#101=[#803+0*#803-0*#803]
#100=[#102+0*#101-0*#102]
G01 X96.3979Y77.5135Z[#100+-0.1000]
#102=[#803+0*#803-0*#803]
#101=[#803+0*#803-0*#803]
#100=[#102+0*#101-0*#102]
G01 X96.4278Y77.5058Z[#100+-0.1000]
#102=[#803+0*#803-0*#803]
#101=[#803+0*#803-0*#803]
#100=[#102+0*#101-0*#102]
G01 X96.4404Y77.5017Z[#100+-0.1000]
#102=[#803+0*#803-0*#803]
#101=[#803+0*#803-0*#803]
#100=[#102+0*#101-0*#102]
G01 X96.4752Y77.4879Z[#100+-0.1000]
#102=[#803+0*#803-0*#803]
#101=[#803+0*#803-0*#803]
#100=[#102+0*#101-0*#102]
G01 X96.4915Y77.4802Z[#100+-0.1000]
#102=[#803+0*#803-0*#803]
#101=[#803+0*#803-0*#803]
#100=[#102+0*#101-0*#102]
G01 X96.5084Y77.4709Z[#100+-0.1000]
#102=[#803+0*#803-0*#803]
#101=[#803+0*#803-0*#803]
#100=[#102+0*#101-0*#102]
G01 X96.5294Y77.4579Z[#100+-0.1000]
#102=[#803+0*#803-0*#803]
#101=[#803+0*#803-0*#803]
#100=[#102+0*#101-0*#102]
G01 X96.5499Y77.4432Z[#100+-0.1000]
#102=[#803+0*#803-0*#803]
#101=[#803+0*#803-0*#803]
#100=[#102+0*#101-0*#102]
G01 X96.5639Y77.4320Z[#100+-0.1000]
#102=[#803+0*#803-0*#803]
#101=[#803+0*#803-0*#803]
#100=[#102+0*#101-0*#102]
G01 X96.5874Y77.4104Z[#100+-0.1000]
#102=[#803+0*#803-0*#803]
#101=[#803+0*#803-0*#803]
#100=[#102+0*#101-0*#102]
G01 X96.6090Y77.3869Z[#100+-0.1000]
#102=[#803+0*#803-0*#803]
#101=[#803+0*#803-0*#803]
#100=[#102+0*#101-0*#102]
G01 X96.6202Y77.3729Z[#100+-0.1000]
#102=[#803+0*#803-0*#803]
#101=[#803+0*#803-0*#803]
#100=[#102+0*#101-0*#102]
G01 X96.6349Y77.3524Z[#100+-0.1000]
#102=[#803+0*#803-0*#803]
#101=[#803+0*#803-0*#803]
#100=[#102+0*#101-0*#102]
G01 X96.6479Y77.3314Z[#100+-0.1000]
#102=[#803+0*#803-0*#803]
#101=[#803+0*#803-0*#803]
#100=[#102+0*#101-0*#102]
G01 X96.6596Y77.3095Z[#100+-0.1000]
#102=[#803+0*#803-0*#803]
#101=[#803+0*#803-0*#803]
#100=[#102+0*#101-0*#102]
G01 X96.6674Y77.2928Z[#100+-0.1000]
#102=[#803+0*#803-0*#803]
#101=[#803+0*#803-0*#803]
#100=[#102+0*#101-0*#102]
G01 X96.6745Y77.2752Z[#100+-0.1000]
#102=[#803+0*#803-0*#803]
#101=[#803+0*#803-0*#803]
#100=[#102+0*#101-0*#102]
G01 X96.6859Y77.2396Z[#100+-0.1000]
#102=[#803+0*#803-0*#803]
#101=[#803+0*#803-0*#803]
#100=[#102+0*#101-0*#102]
G01 X96.6905Y77.2209Z[#100+-0.1000]
#102=[#803+0*#803-0*#803]
#101=[#803+0*#803-0*#803]
#100=[#102+0*#101-0*#102]
G01 X96.6938Y77.2030Z[#100+-0.1000]
#102=[#803+0*#803-0*#803]
#101=[#803+0*#803-0*#803]
#100=[#102+0*#101-0*#102]
G01 X96.6971Y77.1787Z[#100+-0.1000]
#102=[#803+0*#803-0*#803]
#101=[#803+0*#803-0*#803]
#100=[#102+0*#101-0*#102]
G01 X96.6990Y77.1410Z[#100+-0.1000]
#102=[#803+0.90098*#784-0.90098*#803]
#101=[#803+0.90098*#784-0.90098*#803]
#100=[#102+0*#101-0*#102]
G01 X96.69900Y72.14100Z[#100+-0.1000] ;segmented line. Max segment length set to 5
#102=[#784+0.89435*#765-0.89435*#784]
#101=[#784+0.89435*#765-0.89435*#784]
#100=[#102+0*#101-0*#102]
G01 X96.69900Y67.14100Z[#100+-0.1000] ;segmented line. Max segment length set to 5
#102=[#765+0.88771*#746-0.88771*#765]
#101=[#765+0.88771*#746-0.88771*#765]
#100=[#102+0*#101-0*#102]
G01 X96.69900Y62.14100Z[#100+-0.1000] ;segmented line. Max segment length set to 5
#102=[#746+0.88107*#727-0.88107*#746]
#101=[#746+0.88107*#727-0.88107*#746]
#100=[#102+0*#101-0*#102]
G01 X96.69900Y57.14100Z[#100+-0.1000] ;segmented line. Max segment length set to 5
#102=[#727+0.87444*#708-0.87444*#727]
#101=[#727+0.87444*#708-0.87444*#727]
#100=[#102+0*#101-0*#102]
G01 X96.69900Y52.14100Z[#100+-0.1000] ;segmented line. Max segment length set to 5
#102=[#708+0.86780*#689-0.86780*#708]
#101=[#708+0.86780*#689-0.86780*#708]
#100=[#102+0*#101-0*#102]
G01 X96.69900Y47.14100Z[#100+-0.1000] ;segmented line. Max segment length set to 5
#102=[#689+0.86117*#670-0.86117*#689]
#101=[#689+0.86117*#670-0.86117*#689]
#100=[#102+0*#101-0*#102]
G01 X96.69900Y42.14100Z[#100+-0.1000] ;segmented line. Max segment length set to 5
#102=[#670+0.85453*#651-0.85453*#670]
#101=[#670+0.85453*#651-0.85453*#670]
#100=[#102+0*#101-0*#102]
G01 X96.69900Y37.14100Z[#100+-0.1000] ;segmented line. Max segment length set to 5
#102=[#651+0.84790*#632-0.84790*#651]
#101=[#651+0.84790*#632-0.84790*#651]
#100=[#102+0*#101-0*#102]
G01 X96.69900Y32.14100Z[#100+-0.1000] ;segmented line. Max segment length set to 5
#102=[#632+0.84126*#613-0.84126*#632]
#101=[#632+0.84126*#613-0.84126*#632]
#100=[#102+0*#101-0*#102]
G01 X96.69900Y27.14100Z[#100+-0.1000] ;segmented line. Max segment length set to 5
#102=[#613+0.83462*#594-0.83462*#613]
#101=[#613+0.83462*#594-0.83462*#613]
#100=[#102+0*#101-0*#102]
G01 X96.69900Y22.14100Z[#100+-0.1000] ;segmented line. Max segment length set to 5
#102=[#594+0.82799*#575-0.82799*#594]
#101=[#594+0.82799*#575-0.82799*#594]
#100=[#102+0*#101-0*#102]
G01 X96.69900Y17.14100Z[#100+-0.1000] ;segmented line. Max segment length set to 5
#102=[#575+0.82135*#556-0.82135*#575]
#101=[#575+0.82135*#556-0.82135*#575]
#100=[#102+0*#101-0*#102]
G01 X96.69900Y12.14100Z[#100+-0.1000] ;segmented line. Max segment length set to 5
#102=[#556+0.81472*#537-0.81472*#556]
#101=[#556+0.81472*#537-0.81472*#556]
#100=[#102+0*#101-0*#102]
G01 X96.69900Y7.14100Z[#100+-0.1000] ;segmented line. Max segment length set to 5
#102=[#537+0.80808*#518-0.80808*#537]
#101=[#537+0.80808*#518-0.80808*#537]
#100=[#102+0*#101-0*#102]
G01 X96.69900Y2.14100Z[#100+-0.1000] ;segmented line. Max segment length set to 5
#102=[#518+0*#518-0*#518]
#101=[#518+0*#518-0*#518]
#100=[#102+0*#101-0*#102]
G01 X96.6990Y0.7100Z[#100+-0.1000]
#102=[#518+0*#518-0*#518]
#101=[#518+0*#518-0*#518]
#100=[#102+0*#101-0*#102]
G01 X96.6971Y0.6723Z[#100+-0.1000]
#102=[#518+0*#518-0*#518]
#101=[#518+0*#518-0*#518]
#100=[#102+0*#101-0*#102]
G01 X96.6905Y0.6301Z[#100+-0.1000]
#102=[#518+0*#518-0*#518]
#101=[#518+0*#518-0*#518]
#100=[#102+0*#101-0*#102]
G01 X96.6828Y0.6001Z[#100+-0.1000]
#102=[#518+0*#518-0*#518]
#101=[#518+0*#518-0*#518]
#100=[#102+0*#101-0*#102]
G01 X96.6787Y0.5876Z[#100+-0.1000]
#102=[#518+0*#518-0*#518]
#101=[#518+0*#518-0*#518]
#100=[#102+0*#101-0*#102]
G01 X96.6649Y0.5528Z[#100+-0.1000]
#102=[#518+0*#518-0*#518]
#101=[#518+0*#518-0*#518]
#100=[#102+0*#101-0*#102]
G01 X96.6572Y0.5365Z[#100+-0.1000]
#102=[#518+0*#518-0*#518]
#101=[#518+0*#518-0*#518]
#100=[#102+0*#101-0*#102]
G01 X96.6479Y0.5196Z[#100+-0.1000]
#102=[#518+0*#518-0*#518]
#101=[#518+0*#518-0*#518]
#100=[#102+0*#101-0*#102]
G01 X96.6349Y0.4986Z[#100+-0.1000]
#102=[#518+0*#518-0*#518]
#101=[#518+0*#518-0*#518]
#100=[#102+0*#101-0*#102]
G01 X96.6202Y0.4781Z[#100+-0.1000]
#102=[#518+0*#518-0*#518]
#101=[#518+0*#518-0*#518]
#100=[#102+0*#101-0*#102]
G01 X96.6090Y0.4641Z[#100+-0.1000]
#102=[#518+0*#518-0*#518]
#101=[#518+0*#518-0*#518]
#100=[#102+0*#101-0*#102]
G01 X96.5874Y0.4406Z[#100+-0.1000]
#102=[#518+0*#518-0*#518]
#101=[#518+0*#518-0*#518]
#100=[#102+0*#101-0*#102]
G01 X96.5639Y0.4190Z[#100+-0.1000]
#102=[#518+0*#518-0*#518]
#101=[#518+0*#518-0*#518]
#100=[#102+0*#101-0*#102]
G01 X96.5499Y0.4078Z[#100+-0.1000]
#102=[#518+0*#518-0*#518]
#101=[#518+0*#518-0*#518]
#100=[#102+0*#101-0*#102]
G01 X96.5295Y0.3931Z[#100+-0.1000]
#102=[#518+0*#518-0*#518]
#101=[#518+0*#518-0*#518]
#100=[#102+0*#101-0*#102]
G01 X96.5084Y0.3801Z[#100+-0.1000]
#102=[#518+0*#518-0*#518]
#101=[#518+0*#518-0*#518]
#100=[#102+0*#101-0*#102]
G01 X96.4865Y0.3684Z[#100+-0.1000]
#102=[#518+0*#518-0*#518]
#101=[#518+0*#518-0*#518]
#100=[#102+0*#101-0*#102]
G01 X96.4698Y0.3606Z[#100+-0.1000]
#102=[#518+0*#518-0*#518]
#101=[#518+0*#518-0*#518]
#100=[#102+0*#101-0*#102]
G01 X96.4522Y0.3535Z[#100+-0.1000]
#102=[#518+0*#518-0*#518]
#101=[#518+0*#518-0*#518]
#100=[#102+0*#101-0*#102]
G01 X96.4166Y0.3421Z[#100+-0.1000]
#102=[#518+0*#518-0*#518]
#101=[#518+0*#518-0*#518]
#100=[#102+0*#101-0*#102]
G01 X96.3979Y0.3375Z[#100+-0.1000]
#102=[#518+0*#518-0*#518]
#101=[#518+0*#518-0*#518]
#100=[#102+0*#101-0*#102]
G01 X96.3800Y0.3342Z[#100+-0.1000]
#102=[#518+0*#518-0*#518]
#101=[#518+0*#518-0*#518]
#100=[#102+0*#101-0*#102]
G01 X96.3557Y0.3309Z[#100+-0.1000]
#102=[#518+0*#518-0*#518]
#101=[#518+0*#518-0*#518]
#100=[#102+0*#101-0*#102]
G01 X96.3180Y0.3290Z[#100+-0.1000]
#102=[#517+0*#517-0*#517]
#101=[#518+0*#518-0*#518]
#100=[#102+0.13780*#101-0.13780*#102]
G01 X91.31800Y0.32900Z[#100+-0.1000] ;segmented line. Max segment length set to 5
#102=[#516+0*#516-0*#516]
#101=[#517+0*#517-0*#517]
#100=[#102+0.18718*#101-0.18718*#102]
G01 X86.31800Y0.32900Z[#100+-0.1000] ;segmented line. Max segment length set to 5
#102=[#515+0*#515-0*#515]
#101=[#516+0*#516-0*#516]
#100=[#102+0.23657*#101-0.23657*#102]
G01 X81.31800Y0.32900Z[#100+-0.1000] ;segmented line. Max segment length set to 5
#102=[#514+0*#514-0*#514]
#101=[#515+0*#515-0*#515]
#100=[#102+0.28596*#101-0.28596*#102]
G01 X76.31800Y0.32900Z[#100+-0.1000] ;segmented line. Max segment length set to 5
#102=[#513+0*#513-0*#513]
#101=[#514+0*#514-0*#514]
#100=[#102+0.33534*#101-0.33534*#102]
G01 X71.31800Y0.32900Z[#100+-0.1000] ;segmented line. Max segment length set to 5
#102=[#512+0*#512-0*#512]
#101=[#513+0*#513-0*#513]
#100=[#102+0.38473*#101-0.38473*#102]
G01 X66.31800Y0.32900Z[#100+-0.1000] ;segmented line. Max segment length set to 5
#102=[#511+0*#511-0*#511]
#101=[#512+0*#512-0*#512]
#100=[#102+0.43411*#101-0.43411*#102]
G01 X61.31800Y0.32900Z[#100+-0.1000] ;segmented line. Max segment length set to 5
#102=[#510+0*#510-0*#510]
#101=[#511+0*#511-0*#511]
#100=[#102+0.48350*#101-0.48350*#102]
G01 X56.31800Y0.32900Z[#100+-0.1000] ;segmented line. Max segment length set to 5
#102=[#509+0*#509-0*#509]
#101=[#510+0*#510-0*#510]
#100=[#102+0.53289*#101-0.53289*#102]
G01 X51.31800Y0.32900Z[#100+-0.1000] ;segmented line. Max segment length set to 5
#102=[#508+0*#508-0*#508]
#101=[#509+0*#509-0*#509]
#100=[#102+0.58227*#101-0.58227*#102]
G01 X46.31800Y0.32900Z[#100+-0.1000] ;segmented line. Max segment length set to 5
#102=[#507+0*#507-0*#507]
#101=[#508+0*#508-0*#508]
#100=[#102+0.63166*#101-0.63166*#102]
G01 X41.31800Y0.32900Z[#100+-0.1000] ;segmented line. Max segment length set to 5
#102=[#506+0*#506-0*#506]
#101=[#507+0*#507-0*#507]
#100=[#102+0.68105*#101-0.68105*#102]
G01 X36.31800Y0.32900Z[#100+-0.1000] ;segmented line. Max segment length set to 5
#102=[#505+0*#505-0*#505]
#101=[#506+0*#506-0*#506]
#100=[#102+0.73043*#101-0.73043*#102]
G01 X31.31800Y0.32900Z[#100+-0.1000] ;segmented line. Max segment length set to 5
#102=[#504+0*#504-0*#504]
#101=[#505+0*#505-0*#505]
#100=[#102+0.77982*#101-0.77982*#102]
G01 X26.31800Y0.32900Z[#100+-0.1000] ;segmented line. Max segment length set to 5
#102=[#503+0*#503-0*#503]
#101=[#504+0*#504-0*#504]
#100=[#102+0.82921*#101-0.82921*#102]
G01 X21.31800Y0.32900Z[#100+-0.1000] ;segmented line. Max segment length set to 5
#102=[#502+0*#502-0*#502]
#101=[#503+0*#503-0*#503]
#100=[#102+0.87859*#101-0.87859*#102]
G01 X16.31800Y0.32900Z[#100+-0.1000] ;segmented line. Max segment length set to 5
#102=[#501+0*#501-0*#501]
#101=[#502+0*#502-0*#502]
#100=[#102+0.92798*#101-0.92798*#102]
G01 X11.31800Y0.32900Z[#100+-0.1000] ;segmented line. Max segment length set to 5
#102=[#500+0*#500-0*#500]
#101=[#501+0*#501-0*#501]
#100=[#102+0.97736*#101-0.97736*#102]
G01 X6.31800Y0.32900Z[#100+-0.1000] ;segmented line. Max segment length set to 5
#102=[#500+0*#500-0*#500]
#101=[#501+0*#501-0*#501]
#100=[#102+0.02675*#101-0.02675*#102]
G01 X1.31800Y0.32900Z[#100+-0.1000] ;segmented line. Max segment length set to 5
#102=[#500+0*#500-0*#500]
#101=[#500+0*#500-0*#500]
#100=[#102+0*#101-0*#102]
G01 X0.7115Y0.3290Z[#100+-0.1000]
#102=[#500+0*#500-0*#500]
#101=[#500+0*#500-0*#500]
#100=[#102+0*#101-0*#102]
G01 X0.6746Y0.3309Z[#100+-0.1000]
#102=[#500+0*#500-0*#500]
#101=[#500+0*#500-0*#500]
#100=[#102+0*#101-0*#102]
G01 X0.6503Y0.3342Z[#100+-0.1000]
#102=[#500+0*#500-0*#500]
#101=[#500+0*#500-0*#500]
#100=[#102+0*#101-0*#102]
G01 X0.6246Y0.3393Z[#100+-0.1000]
#102=[#500+0*#500-0*#500]
#101=[#500+0*#500-0*#500]
#100=[#102+0*#101-0*#102]
G01 X0.6009Y0.3456Z[#100+-0.1000]
#102=[#500+0*#500-0*#500]
#101=[#500+0*#500-0*#500]
#100=[#102+0*#101-0*#102]
G01 X0.5661Y0.3582Z[#100+-0.1000]
#102=[#500+0*#500-0*#500]
#101=[#500+0*#500-0*#500]
#100=[#102+0*#101-0*#102]
G01 X0.5439Y0.3684Z[#100+-0.1000]
#102=[#500+0*#500-0*#500]
#101=[#500+0*#500-0*#500]
#100=[#102+0*#101-0*#102]
G01 X0.5208Y0.3808Z[#100+-0.1000]
#102=[#500+0*#500-0*#500]
#101=[#500+0*#500-0*#500]
#100=[#102+0*#101-0*#102]
G01 X0.5000Y0.3937Z[#100+-0.1000]
#102=[#500+0*#500-0*#500]
#101=[#500+0*#500-0*#500]
#100=[#102+0*#101-0*#102]
G01 X0.4703Y0.4157Z[#100+-0.1000]
#102=[#500+0*#500-0*#500]
#101=[#500+0*#500-0*#500]
#100=[#102+0*#101-0*#102]
G01 X0.4519Y0.4320Z[#100+-0.1000]
#102=[#500+0*#500-0*#500]
#101=[#500+0*#500-0*#500]
#100=[#102+0*#101-0*#102]
G01 X0.4335Y0.4505Z[#100+-0.1000]
#102=[#500+0*#500-0*#500]
#101=[#500+0*#500-0*#500]
#100=[#102+0*#101-0*#102]
G01 X0.4173Y0.4689Z[#100+-0.1000]
#102=[#500+0*#500-0*#500]
#101=[#500+0*#500-0*#500]
#100=[#102+0*#101-0*#102]
G01 X0.3954Y0.4985Z[#100+-0.1000]
#102=[#500+0*#500-0*#500]
#101=[#500+0*#500-0*#500]
#100=[#102+0*#101-0*#102]
G01 X0.3825Y0.5196Z[#100+-0.1000]
#102=[#500+0*#500-0*#500]
#101=[#500+0*#500-0*#500]
#100=[#102+0*#101-0*#102]
G01 X0.3759Y0.5311Z[#100+-0.1000]
#102=[#500+0*#500-0*#500]
#101=[#500+0*#500-0*#500]
#100=[#102+0*#101-0*#102]
G01 X0.3654Y0.5528Z[#100+-0.1000]
#102=[#500+0*#500-0*#500]
#101=[#500+0*#500-0*#500]
#100=[#102+0*#101-0*#102]
G01 X0.3555Y0.5770Z[#100+-0.1000]
G00 Z1.0000
G00 X0.5006Y0.6284
#102=[#500+0*#500-0*#500]
#101=[#500+0*#500-0*#500]
#100=[#102+0*#101-0*#102]
G01 Z[#100+-0.1000]
#102=[#500+0*#500-0*#500]
#101=[#500+0*#500-0*#500]
#100=[#102+0*#101-0*#102]
G01 X0.5046Y0.6186Z[#100+-0.1000]
#102=[#500+0*#500-0*#500]
#101=[#500+0*#500-0*#500]
#100=[#102+0*#101-0*#102]
G01 X0.5145Y0.5987Z[#100+-0.1000]
#102=[#500+0*#500-0*#500]
#101=[#500+0*#500-0*#500]
#100=[#102+0*#101-0*#102]
G01 X0.5235Y0.5840Z[#100+-0.1000]
#102=[#500+0*#500-0*#500]
#101=[#500+0*#500-0*#500]
#100=[#102+0*#101-0*#102]
G01 X0.5365Y0.5664Z[#100+-0.1000]
#102=[#500+0*#500-0*#500]
#101=[#500+0*#500-0*#500]
#100=[#102+0*#101-0*#102]
G01 X0.5554Y0.5461Z[#100+-0.1000]
#102=[#500+0*#500-0*#500]
#101=[#500+0*#500-0*#500]
#100=[#102+0*#101-0*#102]
G01 X0.5682Y0.5346Z[#100+-0.1000]
#102=[#500+0*#500-0*#500]
#101=[#500+0*#500-0*#500]
#100=[#102+0*#101-0*#102]
G01 X0.5857Y0.5216Z[#100+-0.1000]
#102=[#500+0*#500-0*#500]
#101=[#500+0*#500-0*#500]
#100=[#102+0*#101-0*#102]
G01 X0.6097Y0.5076Z[#100+-0.1000]
#102=[#500+0*#500-0*#500]
#101=[#500+0*#500-0*#500]
#100=[#102+0*#101-0*#102]
G01 X0.6253Y0.5003Z[#100+-0.1000]
#102=[#500+0*#500-0*#500]
#101=[#500+0*#500-0*#500]
#100=[#102+0*#101-0*#102]
G01 X0.6459Y0.4929Z[#100+-0.1000]
#102=[#500+0*#500-0*#500]
#101=[#500+0*#500-0*#500]
#100=[#102+0*#101-0*#102]
G01 X0.6675Y0.4875Z[#100+-0.1000]
#102=[#500+0*#500-0*#500]
#101=[#500+0*#500-0*#500]
#100=[#102+0*#101-0*#102]
G01 X0.6845Y0.4848Z[#100+-0.1000]
#102=[#500+0*#500-0*#500]
#101=[#500+0*#500-0*#500]
#100=[#102+0*#101-0*#102]
G01 X0.7122Y0.4830Z[#100+-0.1000]
#102=[#500+0*#500-0*#500]
#101=[#501+0*#501-0*#501]
#100=[#102+0.86219*#101-0.86219*#102]
G01 X5.71220Y0.48300Z[#100+-0.1000] ;segmented line. Max segment length set to 5
#102=[#501+0*#501-0*#501]
#101=[#502+0*#502-0*#502]
#100=[#102+0.81280*#101-0.81280*#102]
G01 X10.71220Y0.48300Z[#100+-0.1000] ;segmented line. Max segment length set to 5
#102=[#502+0*#502-0*#502]
#101=[#503+0*#503-0*#503]
#100=[#102+0.76342*#101-0.76342*#102]
G01 X15.71220Y0.48300Z[#100+-0.1000] ;segmented line. Max segment length set to 5
#102=[#503+0*#503-0*#503]
#101=[#504+0*#504-0*#504]
#100=[#102+0.71403*#101-0.71403*#102]
G01 X20.71220Y0.48300Z[#100+-0.1000] ;segmented line. Max segment length set to 5
#102=[#504+0*#504-0*#504]
#101=[#505+0*#505-0*#505]
#100=[#102+0.66464*#101-0.66464*#102]
G01 X25.71220Y0.48300Z[#100+-0.1000] ;segmented line. Max segment length set to 5
#102=[#505+0*#505-0*#505]
#101=[#506+0*#506-0*#506]
#100=[#102+0.61526*#101-0.61526*#102]
G01 X30.71220Y0.48300Z[#100+-0.1000] ;segmented line. Max segment length set to 5
#102=[#506+0*#506-0*#506]
#101=[#507+0*#507-0*#507]
#100=[#102+0.56587*#101-0.56587*#102]
G01 X35.71220Y0.48300Z[#100+-0.1000] ;segmented line. Max segment length set to 5
#102=[#507+0*#507-0*#507]
#101=[#508+0*#508-0*#508]
#100=[#102+0.51648*#101-0.51648*#102]
G01 X40.71220Y0.48300Z[#100+-0.1000] ;segmented line. Max segment length set to 5
#102=[#508+0*#508-0*#508]
#101=[#509+0*#509-0*#509]
#100=[#102+0.46710*#101-0.46710*#102]
G01 X45.71220Y0.48300Z[#100+-0.1000] ;segmented line. Max segment length set to 5
#102=[#509+0*#509-0*#509]
#101=[#510+0*#510-0*#510]
#100=[#102+0.41771*#101-0.41771*#102]
G01 X50.71220Y0.48300Z[#100+-0.1000] ;segmented line. Max segment length set to 5
#102=[#510+0*#510-0*#510]
#101=[#511+0*#511-0*#511]
#100=[#102+0.36832*#101-0.36832*#102]
G01 X55.71220Y0.48300Z[#100+-0.1000] ;segmented line. Max segment length set to 5
#102=[#511+0*#511-0*#511]
#101=[#512+0*#512-0*#512]
#100=[#102+0.31894*#101-0.31894*#102]
G01 X60.71220Y0.48300Z[#100+-0.1000] ;segmented line. Max segment length set to 5
#102=[#512+0*#512-0*#512]
#101=[#513+0*#513-0*#513]
#100=[#102+0.26955*#101-0.26955*#102]
G01 X65.71220Y0.48300Z[#100+-0.1000] ;segmented line. Max segment length set to 5
#102=[#513+0*#513-0*#513]
#101=[#514+0*#514-0*#514]
#100=[#102+0.22017*#101-0.22017*#102]
G01 X70.71220Y0.48300Z[#100+-0.1000] ;segmented line. Max segment length set to 5
#102=[#514+0*#514-0*#514]
#101=[#515+0*#515-0*#515]
#100=[#102+0.17078*#101-0.17078*#102]
G01 X75.71220Y0.48300Z[#100+-0.1000] ;segmented line. Max segment length set to 5
#102=[#515+0*#515-0*#515]
#101=[#516+0*#516-0*#516]
#100=[#102+0.12139*#101-0.12139*#102]
G01 X80.71220Y0.48300Z[#100+-0.1000] ;segmented line. Max segment length set to 5
#102=[#516+0*#516-0*#516]
#101=[#517+0*#517-0*#517]
#100=[#102+0.07201*#101-0.07201*#102]
G01 X85.71220Y0.48300Z[#100+-0.1000] ;segmented line. Max segment length set to 5
#102=[#517+0*#517-0*#517]
#101=[#518+0*#518-0*#518]
#100=[#102+0.02262*#101-0.02262*#102]
G01 X90.71220Y0.48300Z[#100+-0.1000] ;segmented line. Max segment length set to 5
#102=[#517+0*#517-0*#517]
#101=[#518+0*#518-0*#518]
#100=[#102+0.97323*#101-0.97323*#102]
G01 X95.71220Y0.48300Z[#100+-0.1000] ;segmented line. Max segment length set to 5
#102=[#518+0*#518-0*#518]
#101=[#518+0*#518-0*#518]
#100=[#102+0*#101-0*#102]
G01 X96.3180Y0.4830Z[#100+-0.1000]
#102=[#518+0*#518-0*#518]
#101=[#518+0*#518-0*#518]
#100=[#102+0*#101-0*#102]
G01 X96.3404Y0.4841Z[#100+-0.1000]
#102=[#518+0*#518-0*#518]
#101=[#518+0*#518-0*#518]
#100=[#102+0*#101-0*#102]
G01 X96.3645Y0.4878Z[#100+-0.1000]
#102=[#518+0*#518-0*#518]
#101=[#518+0*#518-0*#518]
#100=[#102+0*#101-0*#102]
G01 X96.3836Y0.4927Z[#100+-0.1000]
#102=[#518+0*#518-0*#518]
#101=[#518+0*#518-0*#518]
#100=[#102+0*#101-0*#102]
G01 X96.4003Y0.4985Z[#100+-0.1000]
#102=[#518+0*#518-0*#518]
#101=[#518+0*#518-0*#518]
#100=[#102+0*#101-0*#102]
G01 X96.4293Y0.5122Z[#100+-0.1000]
#102=[#518+0*#518-0*#518]
#101=[#518+0*#518-0*#518]
#100=[#102+0*#101-0*#102]
G01 X96.4440Y0.5212Z[#100+-0.1000]
#102=[#518+0*#518-0*#518]
#101=[#518+0*#518-0*#518]
#100=[#102+0*#101-0*#102]
G01 X96.4636Y0.5359Z[#100+-0.1000]
#102=[#518+0*#518-0*#518]
#101=[#518+0*#518-0*#518]
#100=[#102+0*#101-0*#102]
G01 X96.4785Y0.5495Z[#100+-0.1000]
#102=[#518+0*#518-0*#518]
#101=[#518+0*#518-0*#518]
#100=[#102+0*#101-0*#102]
G01 X96.4965Y0.5699Z[#100+-0.1000]
#102=[#518+0*#518-0*#518]
#101=[#518+0*#518-0*#518]
#100=[#102+0*#101-0*#102]
G01 X96.5068Y0.5840Z[#100+-0.1000]
#102=[#518+0*#518-0*#518]
#101=[#518+0*#518-0*#518]
#100=[#102+0*#101-0*#102]
G01 X96.5158Y0.5987Z[#100+-0.1000]
#102=[#518+0*#518-0*#518]
#101=[#518+0*#518-0*#518]
#100=[#102+0*#101-0*#102]
G01 X96.5257Y0.6186Z[#100+-0.1000]
#102=[#518+0*#518-0*#518]
#101=[#518+0*#518-0*#518]
#100=[#102+0*#101-0*#102]
G01 X96.5353Y0.6444Z[#100+-0.1000]
#102=[#518+0*#518-0*#518]
#101=[#518+0*#518-0*#518]
#100=[#102+0*#101-0*#102]
G01 X96.5402Y0.6635Z[#100+-0.1000]
#102=[#518+0*#518-0*#518]
#101=[#518+0*#518-0*#518]
#100=[#102+0*#101-0*#102]
G01 X96.5439Y0.6876Z[#100+-0.1000]
#102=[#518+0*#518-0*#518]
#101=[#518+0*#518-0*#518]
#100=[#102+0*#101-0*#102]
G01 X96.5450Y0.7100Z[#100+-0.1000]
#102=[#537+0.09902*#518-0.09902*#537]
#101=[#537+0.09902*#518-0.09902*#537]
#100=[#102+0*#101-0*#102]
G01 X96.54500Y5.71000Z[#100+-0.1000] ;segmented line. Max segment length set to 5
#102=[#556+0.10565*#537-0.10565*#556]
#101=[#556+0.10565*#537-0.10565*#556]
#100=[#102+0*#101-0*#102]
G01 X96.54500Y10.71000Z[#100+-0.1000] ;segmented line. Max segment length set to 5
#102=[#575+0.11229*#556-0.11229*#575]
#101=[#575+0.11229*#556-0.11229*#575]
#100=[#102+0*#101-0*#102]
G01 X96.54500Y15.71000Z[#100+-0.1000] ;segmented line. Max segment length set to 5
#102=[#594+0.11893*#575-0.11893*#594]
#101=[#594+0.11893*#575-0.11893*#594]
#100=[#102+0*#101-0*#102]
G01 X96.54500Y20.71000Z[#100+-0.1000] ;segmented line. Max segment length set to 5
#102=[#613+0.12556*#594-0.12556*#613]
#101=[#613+0.12556*#594-0.12556*#613]
#100=[#102+0*#101-0*#102]
G01 X96.54500Y25.71000Z[#100+-0.1000] ;segmented line. Max segment length set to 5
#102=[#632+0.13220*#613-0.13220*#632]
#101=[#632+0.13220*#613-0.13220*#632]
#100=[#102+0*#101-0*#102]
G01 X96.54500Y30.71000Z[#100+-0.1000] ;segmented line. Max segment length set to 5
#102=[#651+0.13883*#632-0.13883*#651]
#101=[#651+0.13883*#632-0.13883*#651]
#100=[#102+0*#101-0*#102]
G01 X96.54500Y35.71000Z[#100+-0.1000] ;segmented line. Max segment length set to 5
#102=[#670+0.14547*#651-0.14547*#670]
#101=[#670+0.14547*#651-0.14547*#670]
#100=[#102+0*#101-0*#102]
G01 X96.54500Y40.71000Z[#100+-0.1000] ;segmented line. Max segment length set to 5
#102=[#689+0.15210*#670-0.15210*#689]
#101=[#689+0.15210*#670-0.15210*#689]
#100=[#102+0*#101-0*#102]
G01 X96.54500Y45.71000Z[#100+-0.1000] ;segmented line. Max segment length set to 5
#102=[#708+0.15874*#689-0.15874*#708]
#101=[#708+0.15874*#689-0.15874*#708]
#100=[#102+0*#101-0*#102]
G01 X96.54500Y50.71000Z[#100+-0.1000] ;segmented line. Max segment length set to 5
#102=[#727+0.16538*#708-0.16538*#727]
#101=[#727+0.16538*#708-0.16538*#727]
#100=[#102+0*#101-0*#102]
G01 X96.54500Y55.71000Z[#100+-0.1000] ;segmented line. Max segment length set to 5
#102=[#746+0.17201*#727-0.17201*#746]
#101=[#746+0.17201*#727-0.17201*#746]
#100=[#102+0*#101-0*#102]
G01 X96.54500Y60.71000Z[#100+-0.1000] ;segmented line. Max segment length set to 5
#102=[#765+0.17865*#746-0.17865*#765]
#101=[#765+0.17865*#746-0.17865*#765]
#100=[#102+0*#101-0*#102]
G01 X96.54500Y65.71000Z[#100+-0.1000] ;segmented line. Max segment length set to 5
#102=[#784+0.18528*#765-0.18528*#784]
#101=[#784+0.18528*#765-0.18528*#784]
#100=[#102+0*#101-0*#102]
G01 X96.54500Y70.71000Z[#100+-0.1000] ;segmented line. Max segment length set to 5
#102=[#803+0.19192*#784-0.19192*#803]
#101=[#803+0.19192*#784-0.19192*#803]
#100=[#102+0*#101-0*#102]
G01 X96.54500Y75.71000Z[#100+-0.1000] ;segmented line. Max segment length set to 5
#102=[#803+0*#803-0*#803]
#101=[#803+0*#803-0*#803]
#100=[#102+0*#101-0*#102]
G01 X96.5450Y77.1410Z[#100+-0.1000]
#102=[#803+0*#803-0*#803]
#101=[#803+0*#803-0*#803]
#100=[#102+0*#101-0*#102]
G01 X96.5439Y77.1634Z[#100+-0.1000]
#102=[#803+0*#803-0*#803]
#101=[#803+0*#803-0*#803]
#100=[#102+0*#101-0*#102]
G01 X96.5402Y77.1875Z[#100+-0.1000]
#102=[#803+0*#803-0*#803]
#101=[#803+0*#803-0*#803]
#100=[#102+0*#101-0*#102]
G01 X96.5353Y77.2066Z[#100+-0.1000]
#102=[#803+0*#803-0*#803]
#101=[#803+0*#803-0*#803]
#100=[#102+0*#101-0*#102]
G01 X96.5295Y77.2233Z[#100+-0.1000]
#102=[#803+0*#803-0*#803]
#101=[#803+0*#803-0*#803]
#100=[#102+0*#101-0*#102]
G01 X96.5158Y77.2523Z[#100+-0.1000]
#102=[#803+0*#803-0*#803]
#101=[#803+0*#803-0*#803]
#100=[#102+0*#101-0*#102]
G01 X96.5068Y77.2670Z[#100+-0.1000]
#102=[#803+0*#803-0*#803]
#101=[#803+0*#803-0*#803]
#100=[#102+0*#101-0*#102]
G01 X96.4921Y77.2866Z[#100+-0.1000]
#102=[#803+0*#803-0*#803]
#101=[#803+0*#803-0*#803]
#100=[#102+0*#101-0*#102]
G01 X96.4785Y77.3015Z[#100+-0.1000]
#102=[#803+0*#803-0*#803]
#101=[#803+0*#803-0*#803]
#100=[#102+0*#101-0*#102]
G01 X96.4581Y77.3195Z[#100+-0.1000]
#102=[#803+0*#803-0*#803]
#101=[#803+0*#803-0*#803]
#100=[#102+0*#101-0*#102]
G01 X96.4440Y77.3298Z[#100+-0.1000]
#102=[#803+0*#803-0*#803]
#101=[#803+0*#803-0*#803]
#100=[#102+0*#101-0*#102]
G01 X96.4293Y77.3388Z[#100+-0.1000]
#102=[#803+0*#803-0*#803]
#101=[#803+0*#803-0*#803]
#100=[#102+0*#101-0*#102]
G01 X96.4094Y77.3487Z[#100+-0.1000]
#102=[#803+0*#803-0*#803]
#101=[#803+0*#803-0*#803]
#100=[#102+0*#101-0*#102]
G01 X96.3836Y77.3583Z[#100+-0.1000]
#102=[#803+0*#803-0*#803]
#101=[#803+0*#803-0*#803]
#100=[#102+0*#101-0*#102]
G01 X96.3645Y77.3632Z[#100+-0.1000]
#102=[#803+0*#803-0*#803]
#101=[#803+0*#803-0*#803]
#100=[#102+0*#101-0*#102]
G01 X96.3404Y77.3669Z[#100+-0.1000]
#102=[#803+0*#803-0*#803]
#101=[#803+0*#803-0*#803]
#100=[#102+0*#101-0*#102]
G01 X96.3180Y77.3680Z[#100+-0.1000]
#102=[#802+0*#802-0*#802]
#101=[#803+0*#803-0*#803]
#100=[#102+0.13780*#101-0.13780*#102]
G01 X91.31800Y77.36800Z[#100+-0.1000] ;segmented line. Max segment length set to 5
#102=[#801+0*#801-0*#801]
#101=[#802+0*#802-0*#802]
#100=[#102+0.18718*#101-0.18718*#102]
G01 X86.31800Y77.36800Z[#100+-0.1000] ;segmented line. Max segment length set to 5
#102=[#800+0*#800-0*#800]
#101=[#801+0*#801-0*#801]
#100=[#102+0.23657*#101-0.23657*#102]
G01 X81.31800Y77.36800Z[#100+-0.1000] ;segmented line. Max segment length set to 5
#102=[#799+0*#799-0*#799]
#101=[#800+0*#800-0*#800]
#100=[#102+0.28596*#101-0.28596*#102]
G01 X76.31800Y77.36800Z[#100+-0.1000] ;segmented line. Max segment length set to 5
#102=[#798+0*#798-0*#798]
#101=[#799+0*#799-0*#799]
#100=[#102+0.33534*#101-0.33534*#102]
G01 X71.31800Y77.36800Z[#100+-0.1000] ;segmented line. Max segment length set to 5
#102=[#797+0*#797-0*#797]
#101=[#798+0*#798-0*#798]
#100=[#102+0.38473*#101-0.38473*#102]
G01 X66.31800Y77.36800Z[#100+-0.1000] ;segmented line. Max segment length set to 5
#102=[#796+0*#796-0*#796]
#101=[#797+0*#797-0*#797]
#100=[#102+0.43411*#101-0.43411*#102]
G01 X61.31800Y77.36800Z[#100+-0.1000] ;segmented line. Max segment length set to 5
#102=[#795+0*#795-0*#795]
#101=[#796+0*#796-0*#796]
#100=[#102+0.48350*#101-0.48350*#102]
G01 X56.31800Y77.36800Z[#100+-0.1000] ;segmented line. Max segment length set to 5
#102=[#794+0*#794-0*#794]
#101=[#795+0*#795-0*#795]
#100=[#102+0.53289*#101-0.53289*#102]
G01 X51.31800Y77.36800Z[#100+-0.1000] ;segmented line. Max segment length set to 5
#102=[#793+0*#793-0*#793]
#101=[#794+0*#794-0*#794]
#100=[#102+0.58227*#101-0.58227*#102]
G01 X46.31800Y77.36800Z[#100+-0.1000] ;segmented line. Max segment length set to 5
#102=[#792+0*#792-0*#792]
#101=[#793+0*#793-0*#793]
#100=[#102+0.63166*#101-0.63166*#102]
G01 X41.31800Y77.36800Z[#100+-0.1000] ;segmented line. Max segment length set to 5
#102=[#791+0*#791-0*#791]
#101=[#792+0*#792-0*#792]
#100=[#102+0.68105*#101-0.68105*#102]
G01 X36.31800Y77.36800Z[#100+-0.1000] ;segmented line. Max segment length set to 5
#102=[#790+0*#790-0*#790]
#101=[#791+0*#791-0*#791]
#100=[#102+0.73043*#101-0.73043*#102]
G01 X31.31800Y77.36800Z[#100+-0.1000] ;segmented line. Max segment length set to 5
#102=[#789+0*#789-0*#789]
#101=[#790+0*#790-0*#790]
#100=[#102+0.77982*#101-0.77982*#102]
G01 X26.31800Y77.36800Z[#100+-0.1000] ;segmented line. Max segment length set to 5
#102=[#788+0*#788-0*#788]
#101=[#789+0*#789-0*#789]
#100=[#102+0.82921*#101-0.82921*#102]
G01 X21.31800Y77.36800Z[#100+-0.1000] ;segmented line. Max segment length set to 5
#102=[#787+0*#787-0*#787]
#101=[#788+0*#788-0*#788]
#100=[#102+0.87859*#101-0.87859*#102]
G01 X16.31800Y77.36800Z[#100+-0.1000] ;segmented line. Max segment length set to 5
#102=[#786+0*#786-0*#786]
#101=[#787+0*#787-0*#787]
#100=[#102+0.92798*#101-0.92798*#102]
G01 X11.31800Y77.36800Z[#100+-0.1000] ;segmented line. Max segment length set to 5
#102=[#785+0*#785-0*#785]
#101=[#786+0*#786-0*#786]
#100=[#102+0.97736*#101-0.97736*#102]
G01 X6.31800Y77.36800Z[#100+-0.1000] ;segmented line. Max segment length set to 5
#102=[#785+0*#785-0*#785]
#101=[#786+0*#786-0*#786]
#100=[#102+0.02675*#101-0.02675*#102]
G01 X1.31800Y77.36800Z[#100+-0.1000] ;segmented line. Max segment length set to 5
#102=[#785+0*#785-0*#785]
#101=[#785+0*#785-0*#785]
#100=[#102+0*#101-0*#102]
G01 X0.9617Y77.3680Z[#100+-0.1000]
#102=[#785+0*#785-0*#785]
#101=[#785+0*#785-0*#785]
#100=[#102+0*#101-0*#102]
G01 X0.9393Y77.3669Z[#100+-0.1000]
#102=[#785+0*#785-0*#785]
#101=[#785+0*#785-0*#785]
#100=[#102+0*#101-0*#102]
G01 X0.9223Y77.3645Z[#100+-0.1000]
#102=[#785+0*#785-0*#785]
#101=[#785+0*#785-0*#785]
#100=[#102+0*#101-0*#102]
G01 X0.8913Y77.3567Z[#100+-0.1000]
#102=[#785+0*#785-0*#785]
#101=[#785+0*#785-0*#785]
#100=[#102+0*#101-0*#102]
G01 X0.8726Y77.3498Z[#100+-0.1000]
#102=[#785+0*#785-0*#785]
#101=[#785+0*#785-0*#785]
#100=[#102+0*#101-0*#102]
G01 X0.8572Y77.3425Z[#100+-0.1000]
#102=[#785+0*#785-0*#785]
#101=[#785+0*#785-0*#785]
#100=[#102+0*#101-0*#102]
G01 X0.8399Y77.3325Z[#100+-0.1000]
#102=[#785+0*#785-0*#785]
#101=[#785+0*#785-0*#785]
#100=[#102+0*#101-0*#102]
G01 X0.8213Y77.3193Z[#100+-0.1000]
#102=[#785+0*#785-0*#785]
#101=[#785+0*#785-0*#785]
#100=[#102+0*#101-0*#102]
G01 X0.8013Y77.3017Z[#100+-0.1000]
#102=[#785+0*#785-0*#785]
#101=[#785+0*#785-0*#785]
#100=[#102+0*#101-0*#102]
G01 X0.7877Y77.2868Z[#100+-0.1000]
#102=[#785+0*#785-0*#785]
#101=[#785+0*#785-0*#785]
#100=[#102+0*#101-0*#102]
G01 X0.7706Y77.2634Z[#100+-0.1000]
#102=[#785+0*#785-0*#785]
#101=[#785+0*#785-0*#785]
#100=[#102+0*#101-0*#102]
G01 X0.7595Y77.2441Z[#100+-0.1000]
#102=[#785+0*#785-0*#785]
#101=[#785+0*#785-0*#785]
#100=[#102+0*#101-0*#102]
G01 X0.7504Y77.2238Z[#100+-0.1000]
#102=[#785+0*#785-0*#785]
#101=[#785+0*#785-0*#785]
#100=[#102+0*#101-0*#102]
G01 X0.7454Y77.2098Z[#100+-0.1000]
#102=[#785+0*#785-0*#785]
#101=[#785+0*#785-0*#785]
#100=[#102+0*#101-0*#102]
G01 X0.7403Y77.1907Z[#100+-0.1000]
#102=[#785+0*#785-0*#785]
#101=[#785+0*#785-0*#785]
#100=[#102+0*#101-0*#102]
G01 X0.7358Y77.1638Z[#100+-0.1000]
#102=[#785+0*#785-0*#785]
#101=[#785+0*#785-0*#785]
#100=[#102+0*#101-0*#102]
G01 X0.7347Y77.1417Z[#100+-0.1000]
#102=[#785+0.90084*#766-0.90084*#785]
#101=[#785+0.90084*#766-0.90084*#785]
#100=[#102+0*#101-0*#102]
G01 X0.71838Y72.14173Z[#100+-0.1000] ;segmented line. Max segment length set to 5
#102=[#766+0.89419*#747-0.89419*#766]
#101=[#766+0.89419*#747-0.89419*#766]
#100=[#102+0*#101-0*#102]
G01 X0.70207Y67.14176Z[#100+-0.1000] ;segmented line. Max segment length set to 5
#102=[#747+0.88755*#728-0.88755*#747]
#101=[#747+0.88755*#728-0.88755*#747]
#100=[#102+0*#101-0*#102]
G01 X0.68575Y62.14179Z[#100+-0.1000] ;segmented line. Max segment length set to 5
#102=[#728+0.88091*#709-0.88091*#728]
#101=[#728+0.88091*#709-0.88091*#728]
#100=[#102+0*#101-0*#102]
G01 X0.66944Y57.14182Z[#100+-0.1000] ;segmented line. Max segment length set to 5
#102=[#709+0.87427*#690-0.87427*#709]
#101=[#709+0.87427*#690-0.87427*#709]
#100=[#102+0*#101-0*#102]
G01 X0.65312Y52.14185Z[#100+-0.1000] ;segmented line. Max segment length set to 5
#102=[#690+0.86763*#671-0.86763*#690]
#101=[#690+0.86763*#671-0.86763*#690]
#100=[#102+0*#101-0*#102]
G01 X0.63681Y47.14188Z[#100+-0.1000] ;segmented line. Max segment length set to 5
#102=[#671+0.86099*#652-0.86099*#671]
#101=[#671+0.86099*#652-0.86099*#671]
#100=[#102+0*#101-0*#102]
G01 X0.62049Y42.14191Z[#100+-0.1000] ;segmented line. Max segment length set to 5
#102=[#652+0.85434*#633-0.85434*#652]
#101=[#652+0.85434*#633-0.85434*#652]
#100=[#102+0*#101-0*#102]
G01 X0.60418Y37.14194Z[#100+-0.1000] ;segmented line. Max segment length set to 5
#102=[#633+0.84770*#614-0.84770*#633]
#101=[#633+0.84770*#614-0.84770*#633]
#100=[#102+0*#101-0*#102]
G01 X0.58786Y32.14197Z[#100+-0.1000] ;segmented line. Max segment length set to 5
#102=[#614+0.84106*#595-0.84106*#614]
#101=[#614+0.84106*#595-0.84106*#614]
#100=[#102+0*#101-0*#102]
G01 X0.57155Y27.14200Z[#100+-0.1000] ;segmented line. Max segment length set to 5
#102=[#595+0.83442*#576-0.83442*#595]
#101=[#595+0.83442*#576-0.83442*#595]
#100=[#102+0*#101-0*#102]
G01 X0.55523Y22.14203Z[#100+-0.1000] ;segmented line. Max segment length set to 5
#102=[#576+0.82778*#557-0.82778*#576]
#101=[#576+0.82778*#557-0.82778*#576]
#100=[#102+0*#101-0*#102]
G01 X0.53892Y17.14206Z[#100+-0.1000] ;segmented line. Max segment length set to 5
#102=[#557+0.82114*#538-0.82114*#557]
#101=[#557+0.82114*#538-0.82114*#557]
#100=[#102+0*#101-0*#102]
G01 X0.52260Y12.14209Z[#100+-0.1000] ;segmented line. Max segment length set to 5
#102=[#538+0.81450*#519-0.81450*#538]
#101=[#538+0.81450*#519-0.81450*#538]
#100=[#102+0*#101-0*#102]
G01 X0.50629Y7.14212Z[#100+-0.1000] ;segmented line. Max segment length set to 5
#102=[#519+0.80785*#500-0.80785*#519]
#101=[#519+0.80785*#500-0.80785*#519]
#100=[#102+0*#101-0*#102]
G01 X0.48997Y2.14215Z[#100+-0.1000] ;segmented line. Max segment length set to 5
#102=[#500+0*#500-0*#500]
#101=[#500+0*#500-0*#500]
#100=[#102+0*#101-0*#102]
G01 X0.4853Y0.7107Z[#100+-0.1000]
#102=[#500+0*#500-0*#500]
#101=[#500+0*#500-0*#500]
#100=[#102+0*#101-0*#102]
G01 X0.4864Y0.6883Z[#100+-0.1000]
#102=[#500+0*#500-0*#500]
#101=[#500+0*#500-0*#500]
#100=[#102+0*#101-0*#102]
G01 X0.4896Y0.6663Z[#100+-0.1000]
#102=[#500+0*#500-0*#500]
#101=[#500+0*#500-0*#500]
#100=[#102+0*#101-0*#102]
G01 X0.4949Y0.6447Z[#100+-0.1000]
#102=[#500+0*#500-0*#500]
#101=[#500+0*#500-0*#500]
#100=[#102+0*#101-0*#102]
G01 X0.5006Y0.6284Z[#100+-0.1000]
G00 Z1.0000
G00 X5.2560Y3.8942
#102=[#519+0.45977*#500-0.45977*#519]
#101=[#520+0.45977*#501-0.45977*#520]
#100=[#102+0.77545*#101-0.77545*#102]
G01 Z[#100+-0.1000]
#102=[#519+0.33564*#500-0.33564*#519]
#101=[#520+0.33564*#501-0.33564*#520]
#100=[#102+0.72625*#101-0.72625*#102]
G01 X4.9972Y4.5190Z[#100+-0.1000]
#102=[#519+0.24063*#500-0.24063*#519]
#101=[#520+0.24063*#501-0.24063*#520]
#100=[#102+0.63533*#101-0.63533*#102]
G01 X4.5190Y4.9972Z[#100+-0.1000]
#102=[#519+0.18922*#500-0.18922*#519]
#101=[#520+0.18922*#501-0.18922*#520]
#100=[#102+0.51654*#101-0.51654*#102]
G01 X3.8942Y5.2560Z[#100+-0.1000]
#102=[#519+0.18922*#500-0.18922*#519]
#101=[#520+0.18922*#501-0.18922*#520]
#100=[#102+0.38795*#101-0.38795*#102]
G01 X3.2178Y5.2560Z[#100+-0.1000]
#102=[#519+0.24063*#500-0.24063*#519]
#101=[#520+0.24063*#501-0.24063*#520]
#100=[#102+0.26916*#101-0.26916*#102]
G01 X2.5930Y4.9972Z[#100+-0.1000]
#102=[#519+0.33564*#500-0.33564*#519]
#101=[#520+0.33564*#501-0.33564*#520]
#100=[#102+0.17824*#101-0.17824*#102]
G01 X2.1148Y4.5190Z[#100+-0.1000]
#102=[#519+0.45977*#500-0.45977*#519]
#101=[#520+0.45977*#501-0.45977*#520]
#100=[#102+0.12904*#101-0.12904*#102]
G01 X1.8560Y3.8942Z[#100+-0.1000]
#102=[#519+0.59415*#500-0.59415*#519]
#101=[#520+0.59415*#501-0.59415*#520]
#100=[#102+0.12904*#101-0.12904*#102]
G01 X1.8560Y3.2178Z[#100+-0.1000]
#102=[#519+0.71828*#500-0.71828*#519]
#101=[#520+0.71828*#501-0.71828*#520]
#100=[#102+0.17824*#101-0.17824*#102]
G01 X2.1148Y2.5930Z[#100+-0.1000]
#102=[#519+0.81329*#500-0.81329*#519]
#101=[#520+0.81329*#501-0.81329*#520]
#100=[#102+0.26916*#101-0.26916*#102]
G01 X2.5930Y2.1148Z[#100+-0.1000]
#102=[#519+0.86470*#500-0.86470*#519]
#101=[#520+0.86470*#501-0.86470*#520]
#100=[#102+0.38795*#101-0.38795*#102]
G01 X3.2178Y1.8560Z[#100+-0.1000]
#102=[#519+0.86470*#500-0.86470*#519]
#101=[#520+0.86470*#501-0.86470*#520]
#100=[#102+0.51654*#101-0.51654*#102]
G01 X3.8942Y1.8560Z[#100+-0.1000]
#102=[#519+0.81329*#500-0.81329*#519]
#101=[#520+0.81329*#501-0.81329*#520]
#100=[#102+0.63533*#101-0.63533*#102]
G01 X4.5190Y2.1148Z[#100+-0.1000]
#102=[#519+0.71828*#500-0.71828*#519]
#101=[#520+0.71828*#501-0.71828*#520]
#100=[#102+0.72625*#101-0.72625*#102]
G01 X4.9972Y2.5930Z[#100+-0.1000]
#102=[#519+0.59415*#500-0.59415*#519]
#101=[#520+0.59415*#501-0.59415*#520]
#100=[#102+0.77545*#101-0.77545*#102]
G01 X5.2560Y3.2178Z[#100+-0.1000]
#102=[#519+0.45977*#500-0.45977*#519]
#101=[#520+0.45977*#501-0.45977*#520]
#100=[#102+0.77545*#101-0.77545*#102]
G01 X5.2560Y3.8942Z[#100+-0.1000]
G00 Z1.0000
G00 X5.4100Y3.9248
#102=[#519+0.45369*#500-0.45369*#519]
#101=[#520+0.45369*#501-0.45369*#520]
#100=[#102+0.80473*#101-0.80473*#102]
G01 Z[#100+-0.1000]
#102=[#519+0.31831*#500-0.31831*#519]
#101=[#520+0.31831*#501-0.31831*#520]
#100=[#102+0.75106*#101-0.75106*#102]
G01 X5.1277Y4.6062Z[#100+-0.1000]
#102=[#519+0.21471*#500-0.21471*#519]
#101=[#520+0.21471*#501-0.21471*#520]
#100=[#102+0.65191*#101-0.65191*#102]
G01 X4.6062Y5.1277Z[#100+-0.1000]
#102=[#519+0.15862*#500-0.15862*#519]
#101=[#520+0.15862*#501-0.15862*#520]
#100=[#102+0.52236*#101-0.52236*#102]
G01 X3.9248Y5.4100Z[#100+-0.1000]
#102=[#519+0.15862*#500-0.15862*#519]
#101=[#520+0.15862*#501-0.15862*#520]
#100=[#102+0.38213*#101-0.38213*#102]
G01 X3.1872Y5.4100Z[#100+-0.1000]
#102=[#519+0.21471*#500-0.21471*#519]
#101=[#520+0.21471*#501-0.21471*#520]
#100=[#102+0.25258*#101-0.25258*#102]
G01 X2.5058Y5.1277Z[#100+-0.1000]
#102=[#519+0.31831*#500-0.31831*#519]
#101=[#520+0.31831*#501-0.31831*#520]
#100=[#102+0.15343*#101-0.15343*#102]
G01 X1.9843Y4.6062Z[#100+-0.1000]
#102=[#519+0.45369*#500-0.45369*#519]
#101=[#520+0.45369*#501-0.45369*#520]
#100=[#102+0.09976*#101-0.09976*#102]
G01 X1.7020Y3.9248Z[#100+-0.1000]
#102=[#519+0.60023*#500-0.60023*#519]
#101=[#520+0.60023*#501-0.60023*#520]
#100=[#102+0.09976*#101-0.09976*#102]
G01 X1.7020Y3.1872Z[#100+-0.1000]
#102=[#519+0.73561*#500-0.73561*#519]
#101=[#520+0.73561*#501-0.73561*#520]
#100=[#102+0.15343*#101-0.15343*#102]
G01 X1.9843Y2.5058Z[#100+-0.1000]
#102=[#519+0.83921*#500-0.83921*#519]
#101=[#520+0.83921*#501-0.83921*#520]
#100=[#102+0.25258*#101-0.25258*#102]
G01 X2.5058Y1.9843Z[#100+-0.1000]
#102=[#519+0.89530*#500-0.89530*#519]
#101=[#520+0.89530*#501-0.89530*#520]
#100=[#102+0.38213*#101-0.38213*#102]
G01 X3.1872Y1.7020Z[#100+-0.1000]
#102=[#519+0.89530*#500-0.89530*#519]
#101=[#520+0.89530*#501-0.89530*#520]
#100=[#102+0.52236*#101-0.52236*#102]
G01 X3.9248Y1.7020Z[#100+-0.1000]
#102=[#519+0.83921*#500-0.83921*#519]
#101=[#520+0.83921*#501-0.83921*#520]
#100=[#102+0.65191*#101-0.65191*#102]
G01 X4.6062Y1.9843Z[#100+-0.1000]
#102=[#519+0.73561*#500-0.73561*#519]
#101=[#520+0.73561*#501-0.73561*#520]
#100=[#102+0.75106*#101-0.75106*#102]
G01 X5.1277Y2.5058Z[#100+-0.1000]
#102=[#519+0.60023*#500-0.60023*#519]
#101=[#520+0.60023*#501-0.60023*#520]
#100=[#102+0.80473*#101-0.80473*#102]
G01 X5.4100Y3.1872Z[#100+-0.1000]
#102=[#519+0.45369*#500-0.45369*#519]
#101=[#520+0.45369*#501-0.45369*#520]
#100=[#102+0.80473*#101-0.80473*#102]
G01 X5.4100Y3.9248Z[#100+-0.1000]
G00 Z1.0000
G00 X5.5640Y3.9554
#102=[#519+0.44761*#500-0.44761*#519]
#101=[#520+0.44761*#501-0.44761*#520]
#100=[#102+0.83401*#101-0.83401*#102]
G01 Z[#100+-0.1000]
#102=[#519+0.30099*#500-0.30099*#519]
#101=[#520+0.30099*#501-0.30099*#520]
#100=[#102+0.77589*#101-0.77589*#102]
G01 X5.2583Y4.6934Z[#100+-0.1000]
#102=[#519+0.18876*#500-0.18876*#519]
#101=[#520+0.18876*#501-0.18876*#520]
#100=[#102+0.66849*#101-0.66849*#102]
G01 X4.6934Y5.2583Z[#100+-0.1000]
#102=[#519+0.12802*#500-0.12802*#519]
#101=[#520+0.12802*#501-0.12802*#520]
#100=[#102+0.52818*#101-0.52818*#102]
G01 X3.9554Y5.5640Z[#100+-0.1000]
#102=[#519+0.12802*#500-0.12802*#519]
#101=[#520+0.12802*#501-0.12802*#520]
#100=[#102+0.37631*#101-0.37631*#102]
G01 X3.1566Y5.5640Z[#100+-0.1000]
#102=[#519+0.18876*#500-0.18876*#519]
#101=[#520+0.18876*#501-0.18876*#520]
#100=[#102+0.23600*#101-0.23600*#102]
G01 X2.4186Y5.2583Z[#100+-0.1000]
#102=[#519+0.30099*#500-0.30099*#519]
#101=[#520+0.30099*#501-0.30099*#520]
#100=[#102+0.12860*#101-0.12860*#102]
G01 X1.8537Y4.6934Z[#100+-0.1000]
#102=[#519+0.44761*#500-0.44761*#519]
#101=[#520+0.44761*#501-0.44761*#520]
#100=[#102+0.07048*#101-0.07048*#102]
G01 X1.5480Y3.9554Z[#100+-0.1000]
#102=[#519+0.60631*#500-0.60631*#519]
#101=[#520+0.60631*#501-0.60631*#520]
#100=[#102+0.07048*#101-0.07048*#102]
G01 X1.5480Y3.1566Z[#100+-0.1000]
#102=[#519+0.75293*#500-0.75293*#519]
#101=[#520+0.75293*#501-0.75293*#520]
#100=[#102+0.12860*#101-0.12860*#102]
G01 X1.8537Y2.4186Z[#100+-0.1000]
#102=[#519+0.86516*#500-0.86516*#519]
#101=[#520+0.86516*#501-0.86516*#520]
#100=[#102+0.23600*#101-0.23600*#102]
G01 X2.4186Y1.8537Z[#100+-0.1000]
#102=[#519+0.92590*#500-0.92590*#519]
#101=[#520+0.92590*#501-0.92590*#520]
#100=[#102+0.37631*#101-0.37631*#102]
G01 X3.1566Y1.5480Z[#100+-0.1000]
#102=[#519+0.92590*#500-0.92590*#519]
#101=[#520+0.92590*#501-0.92590*#520]
#100=[#102+0.52818*#101-0.52818*#102]
G01 X3.9554Y1.5480Z[#100+-0.1000]
#102=[#519+0.86516*#500-0.86516*#519]
#101=[#520+0.86516*#501-0.86516*#520]
#100=[#102+0.66849*#101-0.66849*#102]
G01 X4.6934Y1.8537Z[#100+-0.1000]
#102=[#519+0.75293*#500-0.75293*#519]
#101=[#520+0.75293*#501-0.75293*#520]
#100=[#102+0.77589*#101-0.77589*#102]
G01 X5.2583Y2.4186Z[#100+-0.1000]
#102=[#519+0.60631*#500-0.60631*#519]
#101=[#520+0.60631*#501-0.60631*#520]
#100=[#102+0.83401*#101-0.83401*#102]
G01 X5.5640Y3.1566Z[#100+-0.1000]
#102=[#519+0.44761*#500-0.44761*#519]
#101=[#520+0.44761*#501-0.44761*#520]
#100=[#102+0.83401*#101-0.83401*#102]
G01 X5.5640Y3.9554Z[#100+-0.1000]
G00 Z1.0000
G00 X14.9080Y12.2762
#102=[#559+0.79449*#540-0.79449*#559]
#101=[#560+0.79449*#541-0.79449*#560]
#100=[#102+0.61052*#101-0.61052*#102]
G01 Z[#100+-0.1000]
#102=[#559+0.67036*#540-0.67036*#559]
#101=[#560+0.67036*#541-0.67036*#560]
#100=[#102+0.56131*#101-0.56131*#102]
G01 X14.6492Y12.9010Z[#100+-0.1000]
#102=[#559+0.57536*#540-0.57536*#559]
#101=[#560+0.57536*#541-0.57536*#560]
#100=[#102+0.47040*#101-0.47040*#102]
G01 X14.1710Y13.3792Z[#100+-0.1000]
#102=[#559+0.52394*#540-0.52394*#559]
#101=[#560+0.52394*#541-0.52394*#560]
#100=[#102+0.35161*#101-0.35161*#102]
G01 X13.5462Y13.6380Z[#100+-0.1000]
#102=[#559+0.52394*#540-0.52394*#559]
#101=[#560+0.52394*#541-0.52394*#560]
#100=[#102+0.22301*#101-0.22301*#102]
G01 X12.8698Y13.6380Z[#100+-0.1000]
#102=[#559+0.57536*#540-0.57536*#559]
#101=[#560+0.57536*#541-0.57536*#560]
#100=[#102+0.10422*#101-0.10422*#102]
G01 X12.2450Y13.3792Z[#100+-0.1000]
#102=[#559+0.67036*#540-0.67036*#559]
#101=[#560+0.67036*#541-0.67036*#560]
#100=[#102+0.01330*#101-0.01330*#102]
G01 X11.7668Y12.9010Z[#100+-0.1000]
#102=[#558+0.79449*#539-0.79449*#558]
#101=[#559+0.79449*#540-0.79449*#559]
#100=[#102+0.96410*#101-0.96410*#102]
G01 X11.5080Y12.2762Z[#100+-0.1000]
#102=[#558+0.92888*#539-0.92888*#558]
#101=[#559+0.92888*#540-0.92888*#559]
#100=[#102+0.96410*#101-0.96410*#102]
G01 X11.5080Y11.5998Z[#100+-0.1000]
#102=[#540+0.05301*#521-0.05301*#540]
#101=[#541+0.05301*#522-0.05301*#541]
#100=[#102+0.01330*#101-0.01330*#102]
G01 X11.7668Y10.9750Z[#100+-0.1000]
#102=[#540+0.14801*#521-0.14801*#540]
#101=[#541+0.14801*#522-0.14801*#541]
#100=[#102+0.10422*#101-0.10422*#102]
G01 X12.2450Y10.4968Z[#100+-0.1000]
#102=[#540+0.19943*#521-0.19943*#540]
#101=[#541+0.19943*#522-0.19943*#541]
#100=[#102+0.22301*#101-0.22301*#102]
G01 X12.8698Y10.2380Z[#100+-0.1000]
#102=[#540+0.19943*#521-0.19943*#540]
#101=[#541+0.19943*#522-0.19943*#541]
#100=[#102+0.35161*#101-0.35161*#102]
G01 X13.5462Y10.2380Z[#100+-0.1000]
#102=[#540+0.14801*#521-0.14801*#540]
#101=[#541+0.14801*#522-0.14801*#541]
#100=[#102+0.47040*#101-0.47040*#102]
G01 X14.1710Y10.4968Z[#100+-0.1000]
#102=[#540+0.05301*#521-0.05301*#540]
#101=[#541+0.05301*#522-0.05301*#541]
#100=[#102+0.56131*#101-0.56131*#102]
G01 X14.6492Y10.9750Z[#100+-0.1000]
#102=[#559+0.92888*#540-0.92888*#559]
#101=[#560+0.92888*#541-0.92888*#560]
#100=[#102+0.61052*#101-0.61052*#102]
G01 X14.9080Y11.5998Z[#100+-0.1000]
#102=[#559+0.79449*#540-0.79449*#559]
#101=[#560+0.79449*#541-0.79449*#560]
#100=[#102+0.61052*#101-0.61052*#102]
G01 X14.9080Y12.2762Z[#100+-0.1000]
G00 Z1.0000
G00 X15.0620Y12.3068
#102=[#559+0.78841*#540-0.78841*#559]
#101=[#560+0.78841*#541-0.78841*#560]
#100=[#102+0.63980*#101-0.63980*#102]
G01 Z[#100+-0.1000]
#102=[#559+0.65304*#540-0.65304*#559]
#101=[#560+0.65304*#541-0.65304*#560]
#100=[#102+0.58613*#101-0.58613*#102]
G01 X14.7797Y12.9882Z[#100+-0.1000]
#102=[#559+0.54943*#540-0.54943*#559]
#101=[#560+0.54943*#541-0.54943*#560]
#100=[#102+0.48698*#101-0.48698*#102]
G01 X14.2582Y13.5097Z[#100+-0.1000]
#102=[#559+0.49334*#540-0.49334*#559]
#101=[#560+0.49334*#541-0.49334*#560]
#100=[#102+0.35743*#101-0.35743*#102]
G01 X13.5768Y13.7920Z[#100+-0.1000]
#102=[#559+0.49334*#540-0.49334*#559]
#101=[#560+0.49334*#541-0.49334*#560]
#100=[#102+0.21719*#101-0.21719*#102]
G01 X12.8392Y13.7920Z[#100+-0.1000]
#102=[#559+0.54943*#540-0.54943*#559]
#101=[#560+0.54943*#541-0.54943*#560]
#100=[#102+0.08764*#101-0.08764*#102]
G01 X12.1578Y13.5097Z[#100+-0.1000]
#102=[#558+0.65304*#539-0.65304*#558]
#101=[#559+0.65304*#540-0.65304*#559]
#100=[#102+0.98849*#101-0.98849*#102]
G01 X11.6363Y12.9882Z[#100+-0.1000]
#102=[#558+0.78841*#539-0.78841*#558]
#101=[#559+0.78841*#540-0.78841*#559]
#100=[#102+0.93482*#101-0.93482*#102]
G01 X11.3540Y12.3068Z[#100+-0.1000]
#102=[#558+0.93495*#539-0.93495*#558]
#101=[#559+0.93495*#540-0.93495*#559]
#100=[#102+0.93482*#101-0.93482*#102]
G01 X11.3540Y11.5692Z[#100+-0.1000]
#102=[#539+0.07033*#520-0.07033*#539]
#101=[#540+0.07033*#521-0.07033*#540]
#100=[#102+0.98849*#101-0.98849*#102]
G01 X11.6363Y10.8878Z[#100+-0.1000]
#102=[#540+0.17394*#521-0.17394*#540]
#101=[#541+0.17394*#522-0.17394*#541]
#100=[#102+0.08764*#101-0.08764*#102]
G01 X12.1578Y10.3663Z[#100+-0.1000]
#102=[#540+0.23002*#521-0.23002*#540]
#101=[#541+0.23002*#522-0.23002*#541]
#100=[#102+0.21719*#101-0.21719*#102]
G01 X12.8392Y10.0840Z[#100+-0.1000]
#102=[#540+0.23002*#521-0.23002*#540]
#101=[#541+0.23002*#522-0.23002*#541]
#100=[#102+0.35743*#101-0.35743*#102]
G01 X13.5768Y10.0840Z[#100+-0.1000]
#102=[#540+0.17394*#521-0.17394*#540]
#101=[#541+0.17394*#522-0.17394*#541]
#100=[#102+0.48698*#101-0.48698*#102]
G01 X14.2582Y10.3663Z[#100+-0.1000]
#102=[#540+0.07033*#521-0.07033*#540]
#101=[#541+0.07033*#522-0.07033*#541]
#100=[#102+0.58613*#101-0.58613*#102]
G01 X14.7797Y10.8878Z[#100+-0.1000]
#102=[#559+0.93495*#540-0.93495*#559]
#101=[#560+0.93495*#541-0.93495*#560]
#100=[#102+0.63980*#101-0.63980*#102]
G01 X15.0620Y11.5692Z[#100+-0.1000]
#102=[#559+0.78841*#540-0.78841*#559]
#101=[#560+0.78841*#541-0.78841*#560]
#100=[#102+0.63980*#101-0.63980*#102]
G01 X15.0620Y12.3068Z[#100+-0.1000]
G00 Z1.0000
G00 X15.2160Y12.3374
#102=[#559+0.78233*#540-0.78233*#559]
#101=[#560+0.78233*#541-0.78233*#560]
#100=[#102+0.66908*#101-0.66908*#102]
G01 Z[#100+-0.1000]
#102=[#559+0.63571*#540-0.63571*#559]
#101=[#560+0.63571*#541-0.63571*#560]
